(G-CODE GENERATED BY FLATCAM v8.993 - www.flatcam.org - Version Date: 2020/06/05)

(Name: 3-rebaje)
(Type: G-code from Geometry)
(Units: MM)

(Created on lunes, 09 agosto 2021 at 16:55)

(This preprocessor is the default preprocessor used by FlatCAM.)
(It is made to work with MACH3 compatible motion controllers.)

(TOOL DIAMETER: 0.2 mm)
(Feedrate_XY: 120.0 mm/min)
(Feedrate_Z: 60.0 mm/min)
(Feedrate rapids 1500.0 mm/min)

(Z_Cut: -0.06 mm)
(DepthPerCut: 0.03 mm <=>2 passes)
(Z_Move: 2.0 mm)
(Z Start: None mm)
(Z End: 15.0 mm)
(Steps per circle: 64)
(Preprocessor Geometry: default)

(X range:   -0.2464 ...   54.6741  mm)
(Y range:   -0.2134 ...   79.7075  mm)

(Spindle Speed: None RPM)
G21
G90
G94



G01 F120.00
G00 Z2.0000

M03
G00 X-0.0864 Y0.3173
G01 F60.00
G01 Z-0.0300
G01 F120.00
G01 X-0.0855 Y0.2998
G01 X-0.0848 Y0.2927
G01 X-0.0811 Y0.2708
G01 X-0.0752 Y0.2493
G01 X-0.0700 Y0.2350
G01 X-0.0663 Y0.2262
G01 X-0.0607 Y0.2148
G01 X-0.0561 Y0.2064
G01 X-0.0481 Y0.1935
G01 X-0.0379 Y0.1795
G01 X-0.0319 Y0.1720
G01 X-0.0216 Y0.1608
G01 X-0.0148 Y0.1541
G01 X-0.0053 Y0.1457
G01 X0.0022 Y0.1397
G01 X0.0184 Y0.1283
G01 X0.1681 Y0.0327
G01 X0.1867 Y0.0219
G01 X0.2041 Y0.0140
G01 X0.2107 Y0.0114
G01 X0.2266 Y0.0060
G01 X0.2429 Y0.0020
G01 X0.2499 Y0.0006
G01 X0.2688 Y-0.0020
G01 X0.2903 Y-0.0031
G01 X43.6777 Y-0.0031
G01 X43.7000 Y-0.0020
G01 X43.7220 Y0.0013
G01 X43.7436 Y0.0067
G01 X43.7646 Y0.0142
G01 X43.7847 Y0.0237
G01 X43.8039 Y0.0352
G01 X43.8217 Y0.0485
G01 X43.8365 Y0.0617
G01 X43.8532 Y0.0800
G01 X43.8665 Y0.0979
G01 X43.8780 Y0.1170
G01 X43.8865 Y0.1349
G01 X43.8950 Y0.1581
G01 X43.8999 Y0.1773
G01 X43.9034 Y0.1993
G01 X43.9046 Y0.2191
G01 X43.9047 Y0.2265
G01 X43.9040 Y0.2414
G01 X43.9031 Y0.2511
G01 X43.8999 Y0.2707
G01 X43.8957 Y0.2876
G01 X43.8934 Y0.2946
G01 X43.8865 Y0.3131
G01 X43.8768 Y0.3332
G01 X43.8665 Y0.3501
G01 X43.8516 Y0.3699
G01 X43.8383 Y0.3846
G01 X42.1135 Y2.1093
G01 X42.0987 Y2.1226
G01 X42.0848 Y2.1330
G01 X42.0787 Y2.1372
G01 X42.0617 Y2.1473
G01 X42.0438 Y2.1559
G01 X42.0370 Y2.1586
G01 X42.0206 Y2.1643
G01 X42.0037 Y2.1687
G01 X41.9965 Y2.1702
G01 X41.9769 Y2.1730
G01 X41.9571 Y2.1741
G01 X41.9497 Y2.1740
G01 X41.9324 Y2.1730
G01 X41.9128 Y2.1702
G01 X41.8935 Y2.1656
G01 X41.8841 Y2.1628
G01 X41.8678 Y2.1568
G01 X41.8498 Y2.1484
G01 X41.8433 Y2.1449
G01 X41.8265 Y2.1345
G01 X41.8106 Y2.1226
G01 X41.7958 Y2.1093
G01 X41.7823 Y2.0948
G01 X41.7761 Y2.0872
G01 X41.7672 Y2.0752
G01 X41.7632 Y2.0691
G01 X41.7544 Y2.0541
G01 X41.7469 Y2.0384
G01 X41.7440 Y2.0317
G01 X41.7381 Y2.0153
G01 X41.7330 Y1.9961
G01 X41.7311 Y1.9865
G01 X41.7285 Y1.9669
G01 X41.7276 Y1.9495
G01 X41.7276 Y1.9249
G01 X41.6796 Y1.6834
G01 X41.5853 Y1.4559
G01 X41.4485 Y1.2512
G01 X41.2744 Y1.0771
G01 X41.0697 Y0.9403
G01 X40.8422 Y0.8461
G01 X40.6008 Y0.7981
G01 X40.3545 Y0.7981
G01 X40.1131 Y0.8461
G01 X39.8856 Y0.9403
G01 X39.6809 Y1.0771
G01 X39.5068 Y1.2512
G01 X39.3700 Y1.4559
G01 X39.2757 Y1.6834
G01 X39.2277 Y1.9249
G01 X39.2277 Y2.1711
G01 X39.2757 Y2.4126
G01 X39.3700 Y2.6401
G01 X39.4734 Y2.7949
G01 X39.4837 Y2.8118
G01 X39.4871 Y2.8183
G01 X39.4953 Y2.8364
G01 X39.5026 Y2.8574
G01 X39.5073 Y2.8767
G01 X39.5108 Y2.9012
G01 X39.5117 Y2.9210
G01 X39.5106 Y2.9433
G01 X39.5073 Y2.9653
G01 X39.5019 Y2.9869
G01 X39.4944 Y3.0079
G01 X39.4848 Y3.0280
G01 X39.4734 Y3.0472
G01 X39.4601 Y3.0650
G01 X39.4452 Y3.0816
G01 X39.4286 Y3.0965
G01 X39.4107 Y3.1098
G01 X39.3916 Y3.1213
G01 X39.3715 Y3.1308
G01 X39.3505 Y3.1383
G01 X39.3289 Y3.1437
G01 X39.3044 Y3.1472
G01 X39.2846 Y3.1481
G01 X35.5366 Y3.1481
G01 X35.5168 Y3.1472
G01 X35.5095 Y3.1464
G01 X35.4923 Y3.1437
G01 X35.4730 Y3.1390
G01 X35.4497 Y3.1308
G01 X35.4296 Y3.1213
G01 X35.4105 Y3.1098
G01 X35.3907 Y3.0949
G01 X35.3760 Y3.0816
G01 X35.0876 Y2.7931
G01 X34.9678 Y2.6948
G01 X34.7854 Y2.5973
G01 X34.5875 Y2.5373
G01 X34.3902 Y2.5178
G01 X34.3658 Y2.5141
G01 X34.3466 Y2.5091
G01 X34.3256 Y2.5016
G01 X34.3054 Y2.4921
G01 X34.2843 Y2.4793
G01 X34.2684 Y2.4674
G01 X34.2519 Y2.4524
G01 X33.3588 Y1.5593
G01 X33.3454 Y1.5446
G01 X33.3290 Y1.5247
G01 X33.2224 Y1.4372
G01 X33.1008 Y1.3722
G01 X32.9689 Y1.3322
G01 X32.8316 Y1.3187
G01 X32.8059 Y1.3212
G01 X32.7861 Y1.3221
G01 X26.0632 Y1.3221
G01 X26.0434 Y1.3212
G01 X26.0176 Y1.3187
G01 X25.8804 Y1.3322
G01 X25.7485 Y1.3722
G01 X25.6269 Y1.4372
G01 X25.5203 Y1.5247
G01 X25.5039 Y1.5446
G01 X25.4905 Y1.5593
G01 X25.0782 Y1.9716
G01 X25.0636 Y1.9849
G01 X25.0458 Y1.9984
G01 X25.0290 Y2.0088
G01 X25.0203 Y2.0135
G01 X25.0023 Y2.0217
G01 X24.9836 Y2.0283
G01 X24.9620 Y2.0337
G01 X24.9399 Y2.0370
G01 X24.9226 Y2.0379
G01 X24.5060 Y2.0379
G01 X24.4862 Y2.0367
G01 X24.4642 Y2.0332
G01 X24.4426 Y2.0275
G01 X24.4263 Y2.0217
G01 X24.4180 Y2.0181
G01 X23.4806 Y2.0181
G01 X23.4723 Y2.0217
G01 X23.4559 Y2.0275
G01 X23.4343 Y2.0332
G01 X23.4099 Y2.0370
G01 X23.3901 Y2.0380
G01 X22.6416 Y2.0381
G01 X22.6194 Y2.0370
G01 X22.5950 Y2.0332
G01 X22.5734 Y2.0275
G01 X22.5570 Y2.0217
G01 X22.5487 Y2.0181
G01 X21.6113 Y2.0181
G01 X21.6030 Y2.0217
G01 X21.5867 Y2.0275
G01 X21.5651 Y2.0332
G01 X21.5407 Y2.0370
G01 X21.5184 Y2.0381
G01 X14.1792 Y2.0381
G01 X14.1594 Y2.0372
G01 X14.1336 Y2.0347
G01 X13.9964 Y2.0482
G01 X13.8645 Y2.0882
G01 X13.7429 Y2.1532
G01 X13.6363 Y2.2407
G01 X13.6199 Y2.2606
G01 X13.6065 Y2.2753
G01 X7.5602 Y8.3216
G01 X7.5437 Y8.3365
G01 X7.5258 Y8.3498
G01 X7.5067 Y8.3613
G01 X7.4911 Y8.3688
G01 X7.4843 Y8.3717
G01 X7.4702 Y8.3767
G01 X7.4609 Y8.3796
G01 X7.4416 Y8.3841
G01 X7.4195 Y8.3872
G01 X7.3997 Y8.3881
G01 X6.6717 Y8.3881
G01 X6.6495 Y8.3870
G01 X6.6274 Y8.3837
G01 X6.6082 Y8.3790
G01 X6.6011 Y8.3767
G01 X6.5848 Y8.3708
G01 X6.5647 Y8.3613
G01 X6.5456 Y8.3498
G01 X6.5315 Y8.3395
G01 X6.5258 Y8.3349
G01 X6.5147 Y8.3249
G01 X6.5078 Y8.3180
G01 X6.4962 Y8.3050
G01 X6.4829 Y8.2871
G01 X6.4715 Y8.2680
G01 X6.4639 Y8.2524
G01 X6.4602 Y8.2433
G01 X6.4537 Y8.2246
G01 X6.4490 Y8.2053
G01 X6.4460 Y8.1857
G01 X6.4447 Y8.1610
G01 X6.4447 Y7.3792
G01 X6.4397 Y7.3288
G01 X6.4283 Y7.2911
G01 X6.4182 Y7.2699
G01 X6.4100 Y7.2466
G01 X6.4052 Y7.2273
G01 X6.4026 Y7.2101
G01 X6.4018 Y7.2028
G01 X6.4009 Y7.1830
G01 X6.4018 Y7.1632
G01 X6.4026 Y7.1559
G01 X6.4052 Y7.1387
G01 X6.4100 Y7.1194
G01 X6.4182 Y7.0961
G01 X6.4283 Y7.0749
G01 X6.4397 Y7.0372
G01 X6.4447 Y6.9868
G01 X6.4447 Y6.1092
G01 X6.4397 Y6.0588
G01 X6.4283 Y6.0211
G01 X6.4182 Y5.9999
G01 X6.4100 Y5.9766
G01 X6.4052 Y5.9573
G01 X6.4026 Y5.9401
G01 X6.4018 Y5.9328
G01 X6.4009 Y5.9130
G01 X6.4018 Y5.8932
G01 X6.4026 Y5.8859
G01 X6.4052 Y5.8687
G01 X6.4100 Y5.8494
G01 X6.4182 Y5.8261
G01 X6.4283 Y5.8049
G01 X6.4397 Y5.7672
G01 X6.4447 Y5.7168
G01 X6.4447 Y4.8392
G01 X6.4397 Y4.7888
G01 X6.4283 Y4.7511
G01 X6.4182 Y4.7299
G01 X6.4100 Y4.7066
G01 X6.4052 Y4.6873
G01 X6.4026 Y4.6701
G01 X6.4018 Y4.6628
G01 X6.4009 Y4.6430
G01 X6.4018 Y4.6232
G01 X6.4026 Y4.6159
G01 X6.4052 Y4.5987
G01 X6.4100 Y4.5794
G01 X6.4182 Y4.5561
G01 X6.4283 Y4.5349
G01 X6.4397 Y4.4972
G01 X6.4447 Y4.4468
G01 X6.4447 Y3.5692
G01 X6.4397 Y3.5188
G01 X6.4283 Y3.4811
G01 X6.4182 Y3.4599
G01 X6.4114 Y3.4413
G01 X6.4093 Y3.4342
G01 X6.4052 Y3.4173
G01 X6.4022 Y3.3977
G01 X6.4010 Y3.3779
G01 X6.4009 Y3.3705
G01 X6.4018 Y3.3532
G01 X6.4026 Y3.3459
G01 X6.4052 Y3.3287
G01 X6.4100 Y3.3094
G01 X6.4182 Y3.2861
G01 X6.4283 Y3.2649
G01 X6.4397 Y3.2272
G01 X6.4447 Y3.1768
G01 X6.4447 Y2.3879
G01 X6.4458 Y2.3654
G01 X6.4487 Y2.3455
G01 X6.4547 Y2.3211
G01 X6.4624 Y2.2999
G01 X6.4722 Y2.2795
G01 X6.4826 Y2.2623
G01 X6.4945 Y2.2461
G01 X6.4992 Y2.2403
G01 X6.5129 Y2.2257
G01 X6.5289 Y2.2114
G01 X6.5807 Y2.1498
G01 X6.6194 Y2.0794
G01 X6.6355 Y2.0287
G01 X6.6248 Y2.0181
G01 X5.7776 Y2.0181
G01 X5.7597 Y2.0345
G01 X5.7418 Y2.0477
G01 X5.7227 Y2.0592
G01 X5.7025 Y2.0687
G01 X5.6816 Y2.0762
G01 X5.6599 Y2.0816
G01 X5.6379 Y2.0849
G01 X5.6156 Y2.0860
G01 X4.8696 Y2.0860
G01 X4.8498 Y2.0851
G01 X4.8278 Y2.0821
G01 X4.8085 Y2.0775
G01 X4.7991 Y2.0747
G01 X4.7850 Y2.0696
G01 X4.7783 Y2.0667
G01 X4.7605 Y2.0580
G01 X4.7415 Y2.0463
G01 X4.7256 Y2.0345
G01 X4.7084 Y2.0188
G01 X3.8604 Y2.0181
G01 X3.8498 Y2.0287
G01 X3.8659 Y2.0794
G01 X3.9046 Y2.1498
G01 X3.9564 Y2.2114
G01 X3.9724 Y2.2257
G01 X3.9861 Y2.2403
G01 X3.9908 Y2.2461
G01 X4.0027 Y2.2623
G01 X4.0131 Y2.2795
G01 X4.0229 Y2.2999
G01 X4.0306 Y2.3211
G01 X4.0366 Y2.3455
G01 X4.0395 Y2.3654
G01 X4.0406 Y2.3879
G01 X4.0406 Y3.1768
G01 X4.0456 Y3.2272
G01 X4.0570 Y3.2649
G01 X4.0671 Y3.2861
G01 X4.0753 Y3.3094
G01 X4.0801 Y3.3287
G01 X4.0827 Y3.3459
G01 X4.0835 Y3.3532
G01 X4.0844 Y3.3730
G01 X4.0835 Y3.3928
G01 X4.0827 Y3.4001
G01 X4.0801 Y3.4173
G01 X4.0753 Y3.4366
G01 X4.0671 Y3.4599
G01 X4.0570 Y3.4811
G01 X4.0456 Y3.5188
G01 X4.0406 Y3.5692
G01 X4.0406 Y4.3510
G01 X4.0396 Y4.3733
G01 X4.0367 Y4.3929
G01 X4.0322 Y4.4122
G01 X4.0293 Y4.4216
G01 X4.0234 Y4.4379
G01 X4.0150 Y4.4559
G01 X4.0114 Y4.4623
G01 X4.0010 Y4.4792
G01 X3.9891 Y4.4950
G01 X3.9775 Y4.5080
G01 X3.9724 Y4.5133
G01 X3.9576 Y4.5265
G01 X3.9418 Y4.5384
G01 X3.9356 Y4.5424
G01 X3.9206 Y4.5513
G01 X3.9027 Y4.5598
G01 X3.8842 Y4.5667
G01 X3.8771 Y4.5690
G01 X3.8579 Y4.5737
G01 X3.8407 Y4.5764
G01 X3.8334 Y4.5772
G01 X3.8136 Y4.5781
G01 X2.5912 Y4.5779
G01 X2.5740 Y4.5770
G01 X2.5521 Y4.5738
G01 X2.5306 Y4.5684
G01 X2.5098 Y4.5610
G01 X2.4898 Y4.5516
G01 X2.4707 Y4.5403
G01 X2.4529 Y4.5272
G01 X2.4364 Y4.5124
G01 X2.4215 Y4.4961
G01 X2.4110 Y4.4824
G01 X2.4055 Y4.4743
G01 X2.3979 Y4.4617
G01 X2.3944 Y4.4552
G01 X2.3871 Y4.4396
G01 X2.3794 Y4.4189
G01 X2.3739 Y4.3974
G01 X2.3704 Y4.3755
G01 X2.3691 Y4.3535
G01 X2.3696 Y4.3362
G01 X2.3702 Y4.3289
G01 X2.3721 Y4.3142
G01 X2.3739 Y4.3046
G01 X2.3780 Y4.2879
G01 X2.3852 Y4.2670
G01 X2.3944 Y4.2468
G01 X2.4042 Y4.2297
G01 X2.4169 Y4.2116
G01 X2.4297 Y4.1967
G01 X2.4365 Y4.1897
G01 X2.4510 Y4.1764
G01 X2.4667 Y4.1645
G01 X2.4832 Y4.1541
G01 X2.5869 Y4.0961
G01 X2.7745 Y3.9363
G01 X2.9286 Y3.7414
G01 X2.9699 Y3.6641
G01 X2.6061 Y3.6641
G01 X2.6008 Y3.6704
G01 X2.5414 Y3.7358
G01 X2.4723 Y3.7984
G01 X2.3974 Y3.8539
G01 X2.3217 Y3.8994
G01 X2.3131 Y3.9040
G01 X2.2377 Y3.9397
G01 X2.2286 Y3.9435
G01 X2.1454 Y3.9731
G01 X2.0598 Y3.9947
G01 X2.0501 Y3.9966
G01 X1.9628 Y4.0094
G01 X1.8696 Y4.0140
G01 X1.7765 Y4.0094
G01 X1.6891 Y3.9966
G01 X1.6795 Y3.9947
G01 X1.5939 Y3.9731
G01 X1.5107 Y3.9435
G01 X1.5016 Y3.9397
G01 X1.4262 Y3.9040
G01 X1.4176 Y3.8994
G01 X1.3419 Y3.8539
G01 X1.2670 Y3.7984
G01 X1.1979 Y3.7358
G01 X1.1385 Y3.6704
G01 X1.1332 Y3.6641
G01 X0.7694 Y3.6641
G01 X0.8107 Y3.7414
G01 X0.9648 Y3.9363
G01 X1.1524 Y4.0961
G01 X1.2951 Y4.1758
G01 X1.4190 Y4.1293
G01 X1.4377 Y4.1234
G01 X1.4615 Y4.1184
G01 X1.4808 Y4.1161
G01 X1.4979 Y4.1157
G01 X1.5051 Y4.1158
G01 X1.5246 Y4.1173
G01 X1.5438 Y4.1206
G01 X1.5508 Y4.1222
G01 X1.5673 Y4.1269
G01 X1.5855 Y4.1337
G01 X1.6031 Y4.1422
G01 X1.6115 Y4.1469
G01 X1.6259 Y4.1560
G01 X1.6433 Y4.1693
G01 X1.6576 Y4.1826
G01 X1.6626 Y4.1878
G01 X1.6738 Y4.2007
G01 X1.6854 Y4.2164
G01 X1.6954 Y4.2331
G01 X1.6999 Y4.2416
G01 X1.7070 Y4.2572
G01 X1.7135 Y4.2755
G01 X1.7185 Y4.2944
G01 X1.7199 Y4.3015
G01 X1.7227 Y4.3208
G01 X1.7236 Y4.3378
G01 X1.7237 Y4.3787
G01 X1.7226 Y4.3985
G01 X1.7193 Y4.4206
G01 X1.7132 Y4.4445
G01 X1.7073 Y4.4609
G01 X1.7044 Y4.4677
G01 X1.6969 Y4.4833
G01 X1.6881 Y4.4983
G01 X1.6841 Y4.5045
G01 X1.6722 Y4.5203
G01 X1.6572 Y4.5368
G01 X1.6407 Y4.5518
G01 X1.6268 Y4.5623
G01 X1.6187 Y4.5677
G01 X1.6058 Y4.5754
G01 X1.5993 Y4.5787
G01 X1.5835 Y4.5861
G01 X1.3723 Y4.6736
G01 X1.2004 Y4.7885
G01 X1.0541 Y4.9347
G01 X0.9392 Y5.1067
G01 X0.8601 Y5.2977
G01 X0.8197 Y5.5006
G01 X0.8197 Y5.7074
G01 X0.8601 Y5.9103
G01 X0.9392 Y6.1013
G01 X1.0541 Y6.2733
G01 X1.2004 Y6.4195
G01 X1.3723 Y6.5344
G01 X1.5634 Y6.6136
G01 X1.7530 Y6.6513
G01 X1.7699 Y6.6554
G01 X1.7793 Y6.6583
G01 X1.7978 Y6.6652
G01 X1.8157 Y6.6737
G01 X1.8328 Y6.6839
G01 X1.8527 Y6.6985
G01 X1.8675 Y6.7117
G01 X1.8726 Y6.7170
G01 X1.8842 Y6.7300
G01 X1.8947 Y6.7438
G01 X1.8988 Y6.7499
G01 X1.9089 Y6.7670
G01 X1.9185 Y6.7871
G01 X1.9252 Y6.8057
G01 X1.9273 Y6.8128
G01 X1.9314 Y6.8297
G01 X1.9341 Y6.8469
G01 X1.9349 Y6.8542
G01 X1.9357 Y6.8740
G01 X1.9349 Y6.8938
G01 X1.9341 Y6.9011
G01 X1.9314 Y6.9183
G01 X1.9273 Y6.9352
G01 X1.9252 Y6.9423
G01 X1.9185 Y6.9609
G01 X1.9089 Y6.9810
G01 X1.8988 Y6.9981
G01 X1.8947 Y7.0042
G01 X1.8842 Y7.0180
G01 X1.8726 Y7.0310
G01 X1.8675 Y7.0363
G01 X1.8527 Y7.0495
G01 X1.8328 Y7.0641
G01 X1.8157 Y7.0743
G01 X1.7978 Y7.0828
G01 X1.7793 Y7.0897
G01 X1.7699 Y7.0926
G01 X1.7530 Y7.0967
G01 X1.5634 Y7.1344
G01 X1.3723 Y7.2136
G01 X1.2004 Y7.3285
G01 X1.0541 Y7.4747
G01 X0.9392 Y7.6467
G01 X0.8601 Y7.8377
G01 X0.8197 Y8.0406
G01 X0.8197 Y8.2474
G01 X0.8601 Y8.4503
G01 X0.9392 Y8.6413
G01 X1.0541 Y8.8133
G01 X1.2004 Y8.9595
G01 X1.3723 Y9.0744
G01 X1.5634 Y9.1536
G01 X1.7074 Y9.1822
G01 X1.7267 Y9.1870
G01 X1.7337 Y9.1892
G01 X1.7500 Y9.1952
G01 X1.7701 Y9.2047
G01 X1.7893 Y9.2161
G01 X1.8072 Y9.2294
G01 X1.8237 Y9.2444
G01 X1.8370 Y9.2590
G01 X1.8416 Y9.2648
G01 X1.8519 Y9.2788
G01 X1.8609 Y9.2936
G01 X1.8645 Y9.3001
G01 X1.8709 Y9.3136
G01 X1.8738 Y9.3203
G01 X1.8804 Y9.3390
G01 X1.8858 Y9.3606
G01 X1.8891 Y9.3827
G01 X1.8901 Y9.4074
G01 X1.8891 Y9.4272
G01 X1.8863 Y9.4468
G01 X1.8817 Y9.4661
G01 X1.8789 Y9.4755
G01 X1.8729 Y9.4918
G01 X1.8634 Y9.5120
G01 X1.8519 Y9.5311
G01 X1.8416 Y9.5451
G01 X1.8354 Y9.5527
G01 X1.8219 Y9.5672
G01 X1.8072 Y9.5805
G01 X1.7913 Y9.5923
G01 X1.7744 Y9.6028
G01 X1.7658 Y9.6074
G01 X1.7500 Y9.6147
G01 X1.7314 Y9.6215
G01 X1.7122 Y9.6266
G01 X1.7026 Y9.6285
G01 X1.6854 Y9.6309
G01 X1.6656 Y9.6320
G01 X1.0308 Y9.6320
G01 X0.9805 Y9.6370
G01 X0.9428 Y9.6484
G01 X0.9080 Y9.6670
G01 X0.8776 Y9.6919
G01 X0.8526 Y9.7224
G01 X0.8340 Y9.7571
G01 X0.8226 Y9.7948
G01 X0.8176 Y9.8452
G01 X0.8176 Y11.5228
G01 X0.8226 Y11.5732
G01 X0.8340 Y11.6109
G01 X0.8526 Y11.6456
G01 X0.8776 Y11.6761
G01 X0.9080 Y11.7010
G01 X0.9428 Y11.7196
G01 X0.9805 Y11.7310
G01 X1.0308 Y11.7360
G01 X1.0965 Y11.7360
G01 X1.1137 Y11.7367
G01 X1.1234 Y11.7377
G01 X1.1429 Y11.7408
G01 X1.1596 Y11.7450
G01 X1.1666 Y11.7472
G01 X1.1828 Y11.7531
G01 X1.1985 Y11.7603
G01 X1.2050 Y11.7636
G01 X1.2198 Y11.7724
G01 X1.2378 Y11.7853
G01 X1.2562 Y11.8016
G01 X1.2727 Y11.8198
G01 X1.2830 Y11.8336
G01 X1.2871 Y11.8397
G01 X1.2959 Y11.8545
G01 X1.3035 Y11.8700
G01 X1.3065 Y11.8767
G01 X1.3132 Y11.8952
G01 X1.3188 Y11.9167
G01 X1.3222 Y11.9385
G01 X1.3235 Y11.9630
G01 X1.3227 Y11.9827
G01 X1.3197 Y12.0046
G01 X1.3146 Y12.0262
G01 X1.3091 Y12.0425
G01 X1.3065 Y12.0494
G01 X1.3004 Y12.0629
G01 X1.2959 Y12.0715
G01 X1.2858 Y12.0884
G01 X1.2727 Y12.1063
G01 X1.2596 Y12.1210
G01 X1.2471 Y12.1329
G01 X1.2416 Y12.1377
G01 X1.2259 Y12.1496
G01 X1.2072 Y12.1613
G01 X1.1524 Y12.1919
G01 X0.9648 Y12.3517
G01 X0.8107 Y12.5466
G01 X0.7694 Y12.6239
G01 X1.1332 Y12.6239
G01 X1.1385 Y12.6176
G01 X1.1979 Y12.5522
G01 X1.2670 Y12.4896
G01 X1.3419 Y12.4341
G01 X1.4176 Y12.3886
G01 X1.4262 Y12.3840
G01 X1.5016 Y12.3483
G01 X1.5107 Y12.3445
G01 X1.5939 Y12.3149
G01 X1.6795 Y12.2933
G01 X1.6891 Y12.2914
G01 X1.7765 Y12.2786
G01 X1.8696 Y12.2740
G01 X1.9628 Y12.2786
G01 X2.0501 Y12.2914
G01 X2.0598 Y12.2933
G01 X2.1454 Y12.3149
G01 X2.2286 Y12.3445
G01 X2.2377 Y12.3483
G01 X2.3131 Y12.3840
G01 X2.3217 Y12.3886
G01 X2.3974 Y12.4341
G01 X2.4723 Y12.4896
G01 X2.5414 Y12.5522
G01 X2.6008 Y12.6176
G01 X2.6061 Y12.6239
G01 X2.9699 Y12.6239
G01 X2.9286 Y12.5466
G01 X2.7745 Y12.3517
G01 X2.5869 Y12.1919
G01 X2.5300 Y12.1601
G01 X2.5114 Y12.1482
G01 X2.4958 Y12.1361
G01 X2.4831 Y12.1244
G01 X2.4764 Y12.1174
G01 X2.4636 Y12.1024
G01 X2.4535 Y12.0884
G01 X2.4496 Y12.0822
G01 X2.4411 Y12.0672
G01 X2.4338 Y12.0516
G01 X2.4310 Y12.0448
G01 X2.4247 Y12.0262
G01 X2.4196 Y12.0046
G01 X2.4166 Y11.9827
G01 X2.4158 Y11.9630
G01 X2.4159 Y11.9557
G01 X2.4171 Y11.9385
G01 X2.4197 Y11.9215
G01 X2.4211 Y11.9143
G01 X2.4254 Y11.8976
G01 X2.4337 Y11.8745
G01 X2.4422 Y11.8567
G01 X2.4535 Y11.8377
G01 X2.4651 Y11.8218
G01 X2.4698 Y11.8161
G01 X2.4814 Y11.8034
G01 X2.4959 Y11.7900
G01 X2.5015 Y11.7853
G01 X2.5134 Y11.7765
G01 X2.5216 Y11.7712
G01 X2.5365 Y11.7625
G01 X2.5565 Y11.7531
G01 X2.5773 Y11.7456
G01 X2.5988 Y11.7403
G01 X2.6207 Y11.7371
G01 X2.6379 Y11.7361
G01 X2.7085 Y11.7360
G01 X2.7588 Y11.7310
G01 X2.7965 Y11.7196
G01 X2.8313 Y11.7010
G01 X2.8617 Y11.6761
G01 X2.8867 Y11.6456
G01 X2.9053 Y11.6109
G01 X2.9167 Y11.5732
G01 X2.9217 Y11.5228
G01 X2.9217 Y10.7159
G01 X2.9224 Y10.6985
G01 X2.9230 Y10.6912
G01 X2.9260 Y10.6716
G01 X2.9322 Y10.6477
G01 X2.9389 Y10.6290
G01 X2.9463 Y10.6133
G01 X2.9496 Y10.6067
G01 X2.9586 Y10.5918
G01 X2.9732 Y10.5719
G01 X2.9882 Y10.5554
G01 X3.6548 Y9.8888
G01 X3.6677 Y9.8771
G01 X3.6734 Y9.8725
G01 X3.6874 Y9.8622
G01 X3.7023 Y9.8532
G01 X3.7087 Y9.8497
G01 X3.7267 Y9.8413
G01 X3.7500 Y9.8331
G01 X3.7693 Y9.8283
G01 X3.7913 Y9.8251
G01 X3.8136 Y9.8240
G01 X3.8358 Y9.8251
G01 X3.8579 Y9.8283
G01 X3.8795 Y9.8338
G01 X3.9005 Y9.8413
G01 X3.9206 Y9.8508
G01 X3.9397 Y9.8622
G01 X3.9576 Y9.8755
G01 X3.9741 Y9.8905
G01 X3.9891 Y9.9070
G01 X4.0024 Y9.9249
G01 X4.0138 Y9.9440
G01 X4.0234 Y9.9641
G01 X4.0316 Y9.9875
G01 X4.0363 Y10.0067
G01 X4.0390 Y10.0239
G01 X4.0398 Y10.0312
G01 X4.0406 Y10.0510
G01 X4.0406 Y10.7968
G01 X4.0456 Y10.8472
G01 X4.0570 Y10.8849
G01 X4.0671 Y10.9061
G01 X4.0753 Y10.9294
G01 X4.0801 Y10.9487
G01 X4.0827 Y10.9659
G01 X4.0835 Y10.9732
G01 X4.0844 Y10.9905
G01 X4.0843 Y10.9979
G01 X4.0831 Y11.0177
G01 X4.0801 Y11.0373
G01 X4.0760 Y11.0542
G01 X4.0739 Y11.0613
G01 X4.0671 Y11.0799
G01 X4.0570 Y11.1011
G01 X4.0456 Y11.1388
G01 X4.0406 Y11.1892
G01 X4.0406 Y12.0668
G01 X4.0456 Y12.1172
G01 X4.0570 Y12.1549
G01 X4.0671 Y12.1761
G01 X4.0753 Y12.1994
G01 X4.0801 Y12.2187
G01 X4.0827 Y12.2359
G01 X4.0835 Y12.2432
G01 X4.0844 Y12.2630
G01 X4.0835 Y12.2828
G01 X4.0827 Y12.2901
G01 X4.0801 Y12.3073
G01 X4.0753 Y12.3266
G01 X4.0671 Y12.3499
G01 X4.0570 Y12.3711
G01 X4.0456 Y12.4088
G01 X4.0406 Y12.4592
G01 X4.0406 Y13.3368
G01 X4.0456 Y13.3872
G01 X4.0570 Y13.4249
G01 X4.0671 Y13.4461
G01 X4.0753 Y13.4694
G01 X4.0801 Y13.4887
G01 X4.0827 Y13.5059
G01 X4.0835 Y13.5132
G01 X4.0844 Y13.5330
G01 X4.0835 Y13.5528
G01 X4.0827 Y13.5601
G01 X4.0801 Y13.5773
G01 X4.0753 Y13.5966
G01 X4.0671 Y13.6199
G01 X4.0570 Y13.6411
G01 X4.0456 Y13.6788
G01 X4.0406 Y13.7292
G01 X4.0406 Y14.6068
G01 X4.0456 Y14.6572
G01 X4.0570 Y14.6949
G01 X4.0671 Y14.7161
G01 X4.0753 Y14.7394
G01 X4.0801 Y14.7587
G01 X4.0827 Y14.7759
G01 X4.0835 Y14.7832
G01 X4.0844 Y14.8030
G01 X4.0835 Y14.8228
G01 X4.0827 Y14.8301
G01 X4.0801 Y14.8473
G01 X4.0753 Y14.8666
G01 X4.0671 Y14.8899
G01 X4.0570 Y14.9111
G01 X4.0456 Y14.9488
G01 X4.0406 Y14.9992
G01 X4.0406 Y15.8768
G01 X4.0456 Y15.9272
G01 X4.0570 Y15.9649
G01 X4.0671 Y15.9861
G01 X4.0739 Y16.0047
G01 X4.0760 Y16.0118
G01 X4.0801 Y16.0287
G01 X4.0831 Y16.0483
G01 X4.0843 Y16.0681
G01 X4.0844 Y16.0755
G01 X4.0835 Y16.0928
G01 X4.0827 Y16.1001
G01 X4.0801 Y16.1173
G01 X4.0753 Y16.1366
G01 X4.0671 Y16.1599
G01 X4.0570 Y16.1811
G01 X4.0456 Y16.2188
G01 X4.0406 Y16.2692
G01 X4.0406 Y16.3970
G01 X4.0399 Y16.4143
G01 X4.0393 Y16.4217
G01 X4.0367 Y16.4388
G01 X4.0322 Y16.4581
G01 X4.0293 Y16.4675
G01 X4.0224 Y16.4861
G01 X4.0138 Y16.5040
G01 X4.0037 Y16.5211
G01 X3.9921 Y16.5371
G01 X3.9859 Y16.5447
G01 X3.9741 Y16.5575
G01 X3.9595 Y16.5709
G01 X3.9437 Y16.5829
G01 X3.9356 Y16.5884
G01 X3.9206 Y16.5972
G01 X3.9005 Y16.6067
G01 X3.8795 Y16.6142
G01 X3.8627 Y16.6186
G01 X3.8530 Y16.6205
G01 X3.8383 Y16.6227
G01 X3.8309 Y16.6233
G01 X3.8136 Y16.6240
G01 X3.7913 Y16.6229
G01 X3.7693 Y16.6197
G01 X3.7500 Y16.6149
G01 X3.7313 Y16.6085
G01 X3.7222 Y16.6047
G01 X3.7044 Y16.5960
G01 X3.6854 Y16.5844
G01 X3.6695 Y16.5725
G01 X3.6530 Y16.5575
G01 X2.9882 Y15.8926
G01 X2.9748 Y15.8780
G01 X2.9702 Y15.8723
G01 X2.9599 Y15.8582
G01 X2.9496 Y15.8413
G01 X2.9463 Y15.8347
G01 X2.9380 Y15.8167
G01 X2.9314 Y15.7980
G01 X2.9271 Y15.7812
G01 X2.9252 Y15.7716
G01 X2.9225 Y15.7519
G01 X2.9217 Y15.7321
G01 X2.9217 Y14.9252
G01 X2.9167 Y14.8748
G01 X2.9053 Y14.8371
G01 X2.8867 Y14.8024
G01 X2.8617 Y14.7719
G01 X2.8313 Y14.7470
G01 X2.7965 Y14.7284
G01 X2.7588 Y14.7170
G01 X2.7085 Y14.7120
G01 X2.6404 Y14.7120
G01 X2.6207 Y14.7109
G01 X2.6012 Y14.7081
G01 X2.5797 Y14.7030
G01 X2.5610 Y14.6967
G01 X2.5542 Y14.6940
G01 X2.5408 Y14.6877
G01 X2.5322 Y14.6832
G01 X2.5174 Y14.6742
G01 X2.4996 Y14.6611
G01 X2.4831 Y14.6464
G01 X2.4682 Y14.6300
G01 X2.4549 Y14.6124
G01 X2.4434 Y14.5935
G01 X2.4337 Y14.5735
G01 X2.4277 Y14.5574
G01 X2.4254 Y14.5504
G01 X2.4205 Y14.5313
G01 X2.4168 Y14.5071
G01 X2.4158 Y14.4874
G01 X2.4163 Y14.4701
G01 X2.4168 Y14.4629
G01 X2.4192 Y14.4458
G01 X2.4247 Y14.4218
G01 X2.4310 Y14.4032
G01 X2.4338 Y14.3964
G01 X2.4411 Y14.3808
G01 X2.4496 Y14.3658
G01 X2.4535 Y14.3596
G01 X2.4636 Y14.3456
G01 X2.4764 Y14.3306
G01 X2.4831 Y14.3236
G01 X2.4958 Y14.3119
G01 X2.5114 Y14.2998
G01 X2.5299 Y14.2880
G01 X2.5869 Y14.2561
G01 X2.7745 Y14.0963
G01 X2.9286 Y13.9014
G01 X2.9699 Y13.8241
G01 X2.6061 Y13.8241
G01 X2.6008 Y13.8304
G01 X2.5414 Y13.8958
G01 X2.4723 Y13.9584
G01 X2.3974 Y14.0139
G01 X2.3217 Y14.0594
G01 X2.3131 Y14.0640
G01 X2.2377 Y14.0997
G01 X2.2286 Y14.1035
G01 X2.1454 Y14.1331
G01 X2.0598 Y14.1547
G01 X2.0501 Y14.1566
G01 X1.9628 Y14.1694
G01 X1.8696 Y14.1740
G01 X1.7765 Y14.1694
G01 X1.6891 Y14.1566
G01 X1.6795 Y14.1547
G01 X1.5939 Y14.1331
G01 X1.5107 Y14.1035
G01 X1.5016 Y14.0997
G01 X1.4262 Y14.0640
G01 X1.4176 Y14.0594
G01 X1.3419 Y14.0139
G01 X1.2670 Y13.9584
G01 X1.1979 Y13.8958
G01 X1.1385 Y13.8304
G01 X1.1332 Y13.8241
G01 X0.7694 Y13.8241
G01 X0.8107 Y13.9014
G01 X0.9648 Y14.0963
G01 X1.1524 Y14.2561
G01 X1.2093 Y14.2879
G01 X1.2259 Y14.2984
G01 X1.2416 Y14.3103
G01 X1.2471 Y14.3151
G01 X1.2596 Y14.3270
G01 X1.2727 Y14.3417
G01 X1.2858 Y14.3596
G01 X1.2959 Y14.3765
G01 X1.3004 Y14.3851
G01 X1.3065 Y14.3986
G01 X1.3091 Y14.4055
G01 X1.3146 Y14.4218
G01 X1.3197 Y14.4434
G01 X1.3227 Y14.4653
G01 X1.3235 Y14.4850
G01 X1.3222 Y14.5095
G01 X1.3188 Y14.5313
G01 X1.3132 Y14.5528
G01 X1.3065 Y14.5713
G01 X1.3035 Y14.5780
G01 X1.2959 Y14.5935
G01 X1.2871 Y14.6083
G01 X1.2830 Y14.6144
G01 X1.2727 Y14.6282
G01 X1.2562 Y14.6464
G01 X1.2378 Y14.6627
G01 X1.2198 Y14.6756
G01 X1.2050 Y14.6844
G01 X1.1985 Y14.6877
G01 X1.1828 Y14.6949
G01 X1.1666 Y14.7008
G01 X1.1596 Y14.7030
G01 X1.1429 Y14.7072
G01 X1.1234 Y14.7103
G01 X1.1137 Y14.7113
G01 X1.0965 Y14.7120
G01 X1.0308 Y14.7120
G01 X0.9805 Y14.7170
G01 X0.9428 Y14.7284
G01 X0.9080 Y14.7470
G01 X0.8776 Y14.7719
G01 X0.8526 Y14.8024
G01 X0.8340 Y14.8371
G01 X0.8226 Y14.8748
G01 X0.8176 Y14.9252
G01 X0.8176 Y16.6028
G01 X0.8226 Y16.6532
G01 X0.8340 Y16.6909
G01 X0.8526 Y16.7256
G01 X0.8776 Y16.7561
G01 X0.9080 Y16.7810
G01 X0.9428 Y16.7996
G01 X0.9805 Y16.8110
G01 X1.0308 Y16.8160
G01 X1.6656 Y16.8160
G01 X1.6854 Y16.8171
G01 X1.7026 Y16.8195
G01 X1.7122 Y16.8214
G01 X1.7314 Y16.8265
G01 X1.7500 Y16.8333
G01 X1.7680 Y16.8417
G01 X1.7851 Y16.8516
G01 X1.7933 Y16.8571
G01 X1.8072 Y16.8675
G01 X1.8237 Y16.8825
G01 X1.8386 Y16.8990
G01 X1.8491 Y16.9129
G01 X1.8532 Y16.9190
G01 X1.8609 Y16.9318
G01 X1.8656 Y16.9404
G01 X1.8729 Y16.9562
G01 X1.8804 Y16.9772
G01 X1.8853 Y16.9964
G01 X1.8866 Y17.0036
G01 X1.8891 Y17.0208
G01 X1.8902 Y17.0431
G01 X1.8891 Y17.0653
G01 X1.8863 Y17.0850
G01 X1.8847 Y17.0922
G01 X1.8804 Y17.1090
G01 X1.8747 Y17.1254
G01 X1.8719 Y17.1322
G01 X1.8634 Y17.1501
G01 X1.8532 Y17.1672
G01 X1.8491 Y17.1732
G01 X1.8386 Y17.1871
G01 X1.8270 Y17.2001
G01 X1.8219 Y17.2053
G01 X1.8072 Y17.2186
G01 X1.7872 Y17.2332
G01 X1.7701 Y17.2433
G01 X1.7545 Y17.2509
G01 X1.7454 Y17.2546
G01 X1.7267 Y17.2610
G01 X1.7074 Y17.2658
G01 X1.5634 Y17.2944
G01 X1.3723 Y17.3736
G01 X1.2004 Y17.4885
G01 X1.0541 Y17.6347
G01 X0.9392 Y17.8067
G01 X0.8601 Y17.9977
G01 X0.8197 Y18.2006
G01 X0.8197 Y18.4074
G01 X0.8601 Y18.6103
G01 X0.9392 Y18.8013
G01 X1.0541 Y18.9733
G01 X1.2004 Y19.1195
G01 X1.3723 Y19.2344
G01 X1.5634 Y19.3136
G01 X1.7074 Y19.3422
G01 X1.7267 Y19.3470
G01 X1.7337 Y19.3492
G01 X1.7500 Y19.3552
G01 X1.7701 Y19.3647
G01 X1.7893 Y19.3761
G01 X1.8072 Y19.3894
G01 X1.8237 Y19.4044
G01 X1.8386 Y19.4209
G01 X1.8519 Y19.4388
G01 X1.8622 Y19.4557
G01 X1.8656 Y19.4623
G01 X1.8719 Y19.4758
G01 X1.8747 Y19.4826
G01 X1.8804 Y19.4990
G01 X1.8847 Y19.5158
G01 X1.8863 Y19.5230
G01 X1.8891 Y19.5427
G01 X1.8902 Y19.5649
G01 X1.8891 Y19.5872
G01 X1.8866 Y19.6044
G01 X1.8853 Y19.6116
G01 X1.8804 Y19.6308
G01 X1.8729 Y19.6518
G01 X1.8656 Y19.6676
G01 X1.8609 Y19.6762
G01 X1.8532 Y19.6890
G01 X1.8491 Y19.6951
G01 X1.8386 Y19.7090
G01 X1.8237 Y19.7255
G01 X1.8072 Y19.7405
G01 X1.7933 Y19.7509
G01 X1.7851 Y19.7564
G01 X1.7680 Y19.7663
G01 X1.7500 Y19.7747
G01 X1.7314 Y19.7815
G01 X1.7122 Y19.7866
G01 X1.7026 Y19.7885
G01 X1.6854 Y19.7909
G01 X1.6656 Y19.7920
G01 X1.0308 Y19.7920
G01 X0.9805 Y19.7970
G01 X0.9428 Y19.8084
G01 X0.9080 Y19.8270
G01 X0.8776 Y19.8519
G01 X0.8526 Y19.8824
G01 X0.8340 Y19.9171
G01 X0.8226 Y19.9548
G01 X0.8176 Y20.0052
G01 X0.8176 Y21.6828
G01 X0.8226 Y21.7332
G01 X0.8340 Y21.7709
G01 X0.8526 Y21.8056
G01 X0.8776 Y21.8361
G01 X0.9080 Y21.8610
G01 X0.9428 Y21.8796
G01 X0.9805 Y21.8910
G01 X1.0308 Y21.8960
G01 X2.7085 Y21.8960
G01 X2.7588 Y21.8910
G01 X2.7965 Y21.8796
G01 X2.8313 Y21.8610
G01 X2.8617 Y21.8361
G01 X2.8867 Y21.8056
G01 X2.9053 Y21.7709
G01 X2.9167 Y21.7332
G01 X2.9217 Y21.6828
G01 X2.9217 Y21.4425
G01 X2.9225 Y21.4252
G01 X2.9233 Y21.4179
G01 X2.9260 Y21.4007
G01 X2.9301 Y21.3838
G01 X2.9322 Y21.3767
G01 X2.9389 Y21.3581
G01 X2.9485 Y21.3380
G01 X2.9599 Y21.3189
G01 X2.9732 Y21.3010
G01 X2.9882 Y21.2844
G01 X3.0047 Y21.2695
G01 X3.0226 Y21.2562
G01 X3.0417 Y21.2447
G01 X3.0618 Y21.2352
G01 X3.0805 Y21.2285
G01 X3.0875 Y21.2264
G01 X3.1044 Y21.2223
G01 X3.1216 Y21.2196
G01 X3.1289 Y21.2188
G01 X3.1463 Y21.2180
G01 X3.8160 Y21.2180
G01 X3.8358 Y21.2190
G01 X3.8530 Y21.2215
G01 X3.8627 Y21.2234
G01 X3.8818 Y21.2285
G01 X3.9005 Y21.2352
G01 X3.9184 Y21.2436
G01 X3.9356 Y21.2536
G01 X3.9437 Y21.2590
G01 X3.9595 Y21.2711
G01 X3.9724 Y21.2827
G01 X3.9775 Y21.2880
G01 X3.9875 Y21.2991
G01 X3.9921 Y21.3048
G01 X4.0024 Y21.3189
G01 X4.0114 Y21.3337
G01 X4.0150 Y21.3401
G01 X4.0224 Y21.3559
G01 X4.0301 Y21.3767
G01 X4.0363 Y21.4007
G01 X4.0393 Y21.4203
G01 X4.0406 Y21.4450
G01 X4.0406 Y22.2268
G01 X4.0456 Y22.2772
G01 X4.0570 Y22.3149
G01 X4.0671 Y22.3361
G01 X4.0753 Y22.3594
G01 X4.0801 Y22.3787
G01 X4.0827 Y22.3959
G01 X4.0835 Y22.4032
G01 X4.0844 Y22.4205
G01 X4.0843 Y22.4279
G01 X4.0831 Y22.4477
G01 X4.0801 Y22.4673
G01 X4.0760 Y22.4842
G01 X4.0739 Y22.4913
G01 X4.0671 Y22.5099
G01 X4.0570 Y22.5311
G01 X4.0456 Y22.5688
G01 X4.0406 Y22.6192
G01 X4.0406 Y23.4968
G01 X4.0456 Y23.5472
G01 X4.0570 Y23.5849
G01 X4.0671 Y23.6061
G01 X4.0753 Y23.6294
G01 X4.0801 Y23.6487
G01 X4.0827 Y23.6659
G01 X4.0835 Y23.6732
G01 X4.0844 Y23.6930
G01 X4.0835 Y23.7128
G01 X4.0827 Y23.7201
G01 X4.0801 Y23.7373
G01 X4.0753 Y23.7566
G01 X4.0671 Y23.7799
G01 X4.0570 Y23.8011
G01 X4.0456 Y23.8388
G01 X4.0406 Y23.8892
G01 X4.0406 Y24.0505
G01 X4.0396 Y24.0703
G01 X4.0363 Y24.0924
G01 X4.0316 Y24.1116
G01 X4.0293 Y24.1186
G01 X4.0234 Y24.1350
G01 X4.0160 Y24.1507
G01 X4.0127 Y24.1573
G01 X4.0024 Y24.1742
G01 X3.9891 Y24.1921
G01 X3.9759 Y24.2069
G01 X3.9706 Y24.2120
G01 X3.9576 Y24.2236
G01 X3.9437 Y24.2340
G01 X3.9377 Y24.2382
G01 X3.9206 Y24.2483
G01 X3.9027 Y24.2569
G01 X3.8959 Y24.2596
G01 X3.8795 Y24.2654
G01 X3.8627 Y24.2697
G01 X3.8555 Y24.2712
G01 X3.8358 Y24.2740
G01 X3.8160 Y24.2751
G01 X3.8087 Y24.2750
G01 X3.7913 Y24.2740
G01 X3.7741 Y24.2716
G01 X3.7669 Y24.2703
G01 X3.7477 Y24.2654
G01 X3.7244 Y24.2569
G01 X3.7087 Y24.2495
G01 X3.7023 Y24.2459
G01 X3.6874 Y24.2369
G01 X3.6734 Y24.2266
G01 X3.6677 Y24.2220
G01 X3.6530 Y24.2086
G01 X3.6365 Y24.1902
G01 X3.6262 Y24.1762
G01 X3.6222 Y24.1701
G01 X3.6133 Y24.1551
G01 X3.6048 Y24.1372
G01 X3.5970 Y24.1163
G01 X3.5920 Y24.0972
G01 X3.5796 Y24.0354
G01 X3.4853 Y23.8079
G01 X3.3485 Y23.6032
G01 X3.1744 Y23.4291
G01 X2.9697 Y23.2923
G01 X2.7422 Y23.1981
G01 X2.5008 Y23.1501
G01 X2.2545 Y23.1501
G01 X2.0131 Y23.1981
G01 X1.7856 Y23.2923
G01 X1.5809 Y23.4291
G01 X1.4068 Y23.6032
G01 X1.2700 Y23.8079
G01 X1.1757 Y24.0354
G01 X1.1277 Y24.2769
G01 X1.1277 Y24.5231
G01 X1.1757 Y24.7646
G01 X1.2700 Y24.9921
G01 X1.4068 Y25.1968
G01 X1.5809 Y25.3709
G01 X1.7856 Y25.5077
G01 X2.0131 Y25.6019
G01 X2.2545 Y25.6499
G01 X2.5008 Y25.6499
G01 X2.7422 Y25.6019
G01 X2.9697 Y25.5077
G01 X3.1744 Y25.3709
G01 X3.3485 Y25.1968
G01 X3.4853 Y24.9921
G01 X3.5796 Y24.7646
G01 X3.5914 Y24.7052
G01 X3.5970 Y24.6837
G01 X3.6038 Y24.6650
G01 X3.6111 Y24.6493
G01 X3.6158 Y24.6406
G01 X3.6262 Y24.6238
G01 X3.6381 Y24.6079
G01 X3.6530 Y24.5914
G01 X3.6695 Y24.5764
G01 X3.6895 Y24.5618
G01 X3.7065 Y24.5517
G01 X3.7290 Y24.5412
G01 X3.7500 Y24.5340
G01 X3.7669 Y24.5297
G01 X3.7741 Y24.5284
G01 X3.7913 Y24.5260
G01 X3.8087 Y24.5250
G01 X3.8160 Y24.5249
G01 X3.8334 Y24.5257
G01 X3.8579 Y24.5292
G01 X3.8818 Y24.5354
G01 X3.8982 Y24.5412
G01 X3.9050 Y24.5441
G01 X3.9206 Y24.5517
G01 X3.9356 Y24.5605
G01 X3.9418 Y24.5645
G01 X3.9576 Y24.5764
G01 X3.9759 Y24.5931
G01 X3.9906 Y24.6098
G01 X4.0010 Y24.6238
G01 X4.0050 Y24.6299
G01 X4.0138 Y24.6449
G01 X4.0214 Y24.6605
G01 X4.0243 Y24.6673
G01 X4.0301 Y24.6837
G01 X4.0363 Y24.7076
G01 X4.0393 Y24.7272
G01 X4.0406 Y24.7495
G01 X4.0406 Y24.7668
G01 X4.0456 Y24.8172
G01 X4.0570 Y24.8549
G01 X4.0756 Y24.8896
G01 X4.1006 Y24.9201
G01 X4.1310 Y24.9450
G01 X4.1658 Y24.9636
G01 X4.2035 Y24.9750
G01 X4.2538 Y24.9800
G01 X6.2315 Y24.9800
G01 X6.2568 Y24.9775
G01 X6.2766 Y24.9767
G01 X6.2989 Y24.9777
G01 X6.3185 Y24.9806
G01 X6.3257 Y24.9821
G01 X6.3426 Y24.9864
G01 X6.3590 Y24.9922
G01 X6.3658 Y24.9949
G01 X6.3793 Y25.0013
G01 X6.3858 Y25.0046
G01 X6.4028 Y25.0149
G01 X6.4226 Y25.0298
G01 X6.4372 Y25.0432
G01 X6.4490 Y25.0560
G01 X6.4537 Y25.0616
G01 X6.4641 Y25.0755
G01 X6.4769 Y25.0967
G01 X6.4873 Y25.1191
G01 X6.4932 Y25.1355
G01 X6.4952 Y25.1425
G01 X6.4993 Y25.1594
G01 X6.5020 Y25.1766
G01 X6.5028 Y25.1839
G01 X6.5037 Y25.2037
G01 X6.5037 Y25.8778
G01 X6.5028 Y25.8976
G01 X6.4993 Y25.9221
G01 X6.4939 Y25.9437
G01 X6.4864 Y25.9647
G01 X6.4780 Y25.9826
G01 X6.4745 Y25.9891
G01 X6.4654 Y26.0039
G01 X6.4537 Y26.0199
G01 X6.4389 Y26.0366
G01 X6.4269 Y26.0486
G01 X6.3175 Y26.2124
G01 X6.2421 Y26.3943
G01 X6.2037 Y26.5875
G01 X6.2037 Y26.7845
G01 X6.2421 Y26.9777
G01 X6.3175 Y27.1596
G01 X6.4269 Y27.3234
G01 X6.5662 Y27.4627
G01 X6.7300 Y27.5721
G01 X6.9120 Y27.6475
G01 X7.1052 Y27.6859
G01 X7.3021 Y27.6859
G01 X7.4953 Y27.6475
G01 X7.6773 Y27.5721
G01 X7.8411 Y27.4627
G01 X7.9804 Y27.3234
G01 X8.0898 Y27.1596
G01 X8.1652 Y26.9777
G01 X8.2036 Y26.7845
G01 X8.2036 Y26.5875
G01 X8.1652 Y26.3943
G01 X8.0898 Y26.2124
G01 X7.9804 Y26.0486
G01 X7.9684 Y26.0366
G01 X7.9536 Y26.0199
G01 X7.9419 Y26.0039
G01 X7.9328 Y25.9891
G01 X7.9293 Y25.9826
G01 X7.9209 Y25.9647
G01 X7.9134 Y25.9437
G01 X7.9079 Y25.9221
G01 X7.9049 Y25.9025
G01 X7.9043 Y25.8951
G01 X7.9036 Y25.8778
G01 X7.9036 Y20.9945
G01 X7.9045 Y20.9747
G01 X7.9070 Y20.9490
G01 X7.8935 Y20.8118
G01 X7.8534 Y20.6798
G01 X7.7884 Y20.5583
G01 X7.7010 Y20.4517
G01 X7.6810 Y20.4353
G01 X7.6664 Y20.4219
G01 X7.2998 Y20.0553
G01 X7.2864 Y20.0406
G01 X7.2700 Y20.0207
G01 X7.1634 Y19.9332
G01 X7.0418 Y19.8682
G01 X6.9099 Y19.8282
G01 X6.7727 Y19.8147
G01 X6.7469 Y19.8172
G01 X6.7296 Y19.8180
G01 X6.6693 Y19.8180
G01 X6.6495 Y19.8170
G01 X6.6274 Y19.8137
G01 X6.6058 Y19.8083
G01 X6.5848 Y19.8008
G01 X6.5669 Y19.7924
G01 X6.5456 Y19.7798
G01 X6.5296 Y19.7681
G01 X6.5240 Y19.7633
G01 X6.5112 Y19.7516
G01 X6.4994 Y19.7388
G01 X6.4947 Y19.7331
G01 X6.4829 Y19.7171
G01 X6.4726 Y19.7002
G01 X6.4693 Y19.6937
G01 X6.4619 Y19.6779
G01 X6.4560 Y19.6616
G01 X6.4537 Y19.6546
G01 X6.4490 Y19.6353
G01 X6.4457 Y19.6133
G01 X6.4447 Y19.5910
G01 X6.4447 Y18.8092
G01 X6.4397 Y18.7588
G01 X6.4283 Y18.7211
G01 X6.4182 Y18.6999
G01 X6.4100 Y18.6766
G01 X6.4052 Y18.6573
G01 X6.4026 Y18.6401
G01 X6.4018 Y18.6328
G01 X6.4009 Y18.6130
G01 X6.4018 Y18.5932
G01 X6.4026 Y18.5859
G01 X6.4052 Y18.5687
G01 X6.4100 Y18.5494
G01 X6.4182 Y18.5261
G01 X6.4283 Y18.5049
G01 X6.4397 Y18.4672
G01 X6.4447 Y18.4168
G01 X6.4447 Y17.5392
G01 X6.4397 Y17.4888
G01 X6.4283 Y17.4511
G01 X6.4182 Y17.4299
G01 X6.4100 Y17.4066
G01 X6.4052 Y17.3873
G01 X6.4026 Y17.3701
G01 X6.4018 Y17.3628
G01 X6.4009 Y17.3430
G01 X6.4018 Y17.3232
G01 X6.4026 Y17.3159
G01 X6.4052 Y17.2987
G01 X6.4100 Y17.2794
G01 X6.4182 Y17.2561
G01 X6.4283 Y17.2349
G01 X6.4397 Y17.1972
G01 X6.4447 Y17.1468
G01 X6.4447 Y16.2692
G01 X6.4397 Y16.2188
G01 X6.4283 Y16.1811
G01 X6.4182 Y16.1599
G01 X6.4100 Y16.1366
G01 X6.4052 Y16.1173
G01 X6.4026 Y16.1001
G01 X6.4018 Y16.0928
G01 X6.4009 Y16.0730
G01 X6.4018 Y16.0532
G01 X6.4026 Y16.0459
G01 X6.4052 Y16.0287
G01 X6.4100 Y16.0094
G01 X6.4182 Y15.9861
G01 X6.4283 Y15.9649
G01 X6.4397 Y15.9272
G01 X6.4447 Y15.8768
G01 X6.4447 Y14.9992
G01 X6.4397 Y14.9488
G01 X6.4283 Y14.9111
G01 X6.4182 Y14.8899
G01 X6.4100 Y14.8666
G01 X6.4052 Y14.8473
G01 X6.4026 Y14.8301
G01 X6.4018 Y14.8228
G01 X6.4009 Y14.8030
G01 X6.4018 Y14.7832
G01 X6.4026 Y14.7759
G01 X6.4052 Y14.7587
G01 X6.4100 Y14.7394
G01 X6.4182 Y14.7161
G01 X6.4283 Y14.6949
G01 X6.4397 Y14.6572
G01 X6.4447 Y14.6068
G01 X6.4447 Y13.7292
G01 X6.4397 Y13.6788
G01 X6.4283 Y13.6411
G01 X6.4182 Y13.6199
G01 X6.4100 Y13.5966
G01 X6.4052 Y13.5773
G01 X6.4026 Y13.5601
G01 X6.4018 Y13.5528
G01 X6.4009 Y13.5330
G01 X6.4018 Y13.5132
G01 X6.4026 Y13.5059
G01 X6.4052 Y13.4887
G01 X6.4100 Y13.4694
G01 X6.4182 Y13.4461
G01 X6.4283 Y13.4249
G01 X6.4397 Y13.3872
G01 X6.4447 Y13.3368
G01 X6.4447 Y12.4592
G01 X6.4397 Y12.4088
G01 X6.4283 Y12.3711
G01 X6.4182 Y12.3499
G01 X6.4100 Y12.3266
G01 X6.4052 Y12.3073
G01 X6.4026 Y12.2901
G01 X6.4018 Y12.2828
G01 X6.4009 Y12.2630
G01 X6.4018 Y12.2432
G01 X6.4026 Y12.2359
G01 X6.4052 Y12.2187
G01 X6.4100 Y12.1994
G01 X6.4182 Y12.1761
G01 X6.4283 Y12.1549
G01 X6.4397 Y12.1172
G01 X6.4447 Y12.0668
G01 X6.4447 Y11.1892
G01 X6.4397 Y11.1388
G01 X6.4283 Y11.1011
G01 X6.4182 Y11.0799
G01 X6.4100 Y11.0566
G01 X6.4052 Y11.0373
G01 X6.4026 Y11.0201
G01 X6.4018 Y11.0128
G01 X6.4009 Y10.9930
G01 X6.4018 Y10.9732
G01 X6.4026 Y10.9659
G01 X6.4052 Y10.9487
G01 X6.4100 Y10.9294
G01 X6.4182 Y10.9061
G01 X6.4283 Y10.8849
G01 X6.4397 Y10.8472
G01 X6.4447 Y10.7968
G01 X6.4447 Y10.0150
G01 X6.4457 Y9.9927
G01 X6.4490 Y9.9707
G01 X6.4544 Y9.9491
G01 X6.4619 Y9.9281
G01 X6.4693 Y9.9123
G01 X6.4739 Y9.9037
G01 X6.4816 Y9.8909
G01 X6.4857 Y9.8848
G01 X6.4978 Y9.8691
G01 X6.5129 Y9.8527
G01 X6.5277 Y9.8395
G01 X6.5456 Y9.8262
G01 X6.5647 Y9.8147
G01 X6.5826 Y9.8062
G01 X6.6035 Y9.7985
G01 X6.6226 Y9.7934
G01 X6.6323 Y9.7915
G01 X6.6470 Y9.7893
G01 X6.6544 Y9.7887
G01 X6.6717 Y9.7879
G01 X7.7381 Y9.7879
G01 X7.7579 Y9.7888
G01 X7.7837 Y9.7913
G01 X7.9209 Y9.7778
G01 X8.0528 Y9.7378
G01 X8.1744 Y9.6728
G01 X8.2810 Y9.5853
G01 X8.2974 Y9.5654
G01 X8.3108 Y9.5507
G01 X14.3571 Y3.5044
G01 X14.3717 Y3.4911
G01 X14.3774 Y3.4865
G01 X14.3915 Y3.4762
G01 X14.4063 Y3.4672
G01 X14.4128 Y3.4636
G01 X14.4307 Y3.4552
G01 X14.4541 Y3.4470
G01 X14.4733 Y3.4423
G01 X14.4905 Y3.4396
G01 X14.4978 Y3.4388
G01 X14.5176 Y3.4379
G01 X21.5856 Y3.4379
G01 X21.6078 Y3.4390
G01 X21.6299 Y3.4423
G01 X21.6515 Y3.4477
G01 X21.6702 Y3.4543
G01 X21.6882 Y3.4625
G01 X21.6969 Y3.4672
G01 X21.7117 Y3.4762
G01 X21.7277 Y3.4879
G01 X21.7426 Y3.5011
G01 X21.7479 Y3.5062
G01 X21.7611 Y3.5210
G01 X21.7716 Y3.5348
G01 X21.7757 Y3.5409
G01 X21.7858 Y3.5580
G01 X21.7944 Y3.5759
G01 X21.7971 Y3.5827
G01 X21.8029 Y3.5991
G01 X21.8078 Y3.6183
G01 X21.8091 Y3.6255
G01 X21.8118 Y3.6452
G01 X21.8126 Y3.6650
G01 X21.8126 Y4.4468
G01 X21.8176 Y4.4972
G01 X21.8290 Y4.5349
G01 X21.8391 Y4.5561
G01 X21.8473 Y4.5794
G01 X21.8521 Y4.5987
G01 X21.8547 Y4.6159
G01 X21.8555 Y4.6232
G01 X21.8564 Y4.6430
G01 X21.8555 Y4.6628
G01 X21.8547 Y4.6701
G01 X21.8521 Y4.6873
G01 X21.8473 Y4.7066
G01 X21.8391 Y4.7299
G01 X21.8290 Y4.7511
G01 X21.8176 Y4.7888
G01 X21.8126 Y4.8392
G01 X21.8126 Y5.7168
G01 X21.8176 Y5.7672
G01 X21.8290 Y5.8049
G01 X21.8391 Y5.8261
G01 X21.8459 Y5.8447
G01 X21.8480 Y5.8518
G01 X21.8521 Y5.8687
G01 X21.8551 Y5.8883
G01 X21.8563 Y5.9081
G01 X21.8564 Y5.9155
G01 X21.8555 Y5.9328
G01 X21.8547 Y5.9401
G01 X21.8521 Y5.9573
G01 X21.8473 Y5.9766
G01 X21.8391 Y5.9999
G01 X21.8290 Y6.0211
G01 X21.8176 Y6.0588
G01 X21.8126 Y6.1092
G01 X21.8126 Y6.8981
G01 X21.8115 Y6.9206
G01 X21.8086 Y6.9405
G01 X21.8026 Y6.9649
G01 X21.7949 Y6.9861
G01 X21.7851 Y7.0065
G01 X21.7734 Y7.0257
G01 X21.7581 Y7.0457
G01 X21.7444 Y7.0603
G01 X21.7284 Y7.0746
G01 X21.6766 Y7.1362
G01 X21.6379 Y7.2066
G01 X21.6218 Y7.2573
G01 X21.6325 Y7.2679
G01 X22.4797 Y7.2679
G01 X22.4976 Y7.2515
G01 X22.5135 Y7.2397
G01 X22.5325 Y7.2280
G01 X22.5503 Y7.2193
G01 X22.5570 Y7.2164
G01 X22.5711 Y7.2113
G01 X22.5805 Y7.2085
G01 X22.5998 Y7.2039
G01 X22.6218 Y7.2009
G01 X22.6416 Y7.2000
G01 X23.3876 Y7.2000
G01 X23.4099 Y7.2011
G01 X23.4319 Y7.2044
G01 X23.4536 Y7.2098
G01 X23.4745 Y7.2173
G01 X23.4947 Y7.2268
G01 X23.5138 Y7.2383
G01 X23.5317 Y7.2515
G01 X23.5489 Y7.2672
G01 X24.3969 Y7.2679
G01 X24.4075 Y7.2573
G01 X24.3914 Y7.2066
G01 X24.3527 Y7.1362
G01 X24.3009 Y7.0746
G01 X24.2849 Y7.0603
G01 X24.2712 Y7.0457
G01 X24.2665 Y7.0399
G01 X24.2546 Y7.0237
G01 X24.2442 Y7.0065
G01 X24.2344 Y6.9861
G01 X24.2267 Y6.9649
G01 X24.2207 Y6.9405
G01 X24.2178 Y6.9206
G01 X24.2167 Y6.8981
G01 X24.2167 Y6.1092
G01 X24.2117 Y6.0588
G01 X24.2003 Y6.0211
G01 X24.1902 Y5.9999
G01 X24.1820 Y5.9766
G01 X24.1777 Y5.9597
G01 X24.1764 Y5.9525
G01 X24.1740 Y5.9353
G01 X24.1729 Y5.9155
G01 X24.1730 Y5.9081
G01 X24.1742 Y5.8883
G01 X24.1772 Y5.8687
G01 X24.1813 Y5.8518
G01 X24.1834 Y5.8447
G01 X24.1902 Y5.8261
G01 X24.2003 Y5.8049
G01 X24.2117 Y5.7672
G01 X24.2167 Y5.7168
G01 X24.2167 Y4.9350
G01 X24.2175 Y4.9152
G01 X24.2183 Y4.9079
G01 X24.2210 Y4.8907
G01 X24.2251 Y4.8738
G01 X24.2272 Y4.8667
G01 X24.2322 Y4.8527
G01 X24.2349 Y4.8459
G01 X24.2435 Y4.8280
G01 X24.2549 Y4.8089
G01 X24.2682 Y4.7910
G01 X24.2814 Y4.7762
G01 X24.2867 Y4.7711
G01 X24.2997 Y4.7595
G01 X24.3136 Y4.7490
G01 X24.3196 Y4.7449
G01 X24.3367 Y4.7347
G01 X24.3568 Y4.7252
G01 X24.3755 Y4.7185
G01 X24.3825 Y4.7164
G01 X24.3994 Y4.7123
G01 X24.4166 Y4.7096
G01 X24.4239 Y4.7088
G01 X24.4413 Y4.7080
G01 X26.2801 Y4.7079
G01 X26.2999 Y4.7088
G01 X26.3257 Y4.7113
G01 X26.4629 Y4.6978
G01 X26.5948 Y4.6578
G01 X26.7074 Y4.5976
G01 X26.7254 Y4.5892
G01 X26.7487 Y4.5810
G01 X26.7680 Y4.5763
G01 X26.7925 Y4.5728
G01 X26.8098 Y4.5720
G01 X26.8601 Y4.5719
G01 X27.0533 Y4.5335
G01 X27.2353 Y4.4581
G01 X27.3991 Y4.3487
G01 X27.4111 Y4.3367
G01 X27.4278 Y4.3219
G01 X27.4437 Y4.3102
G01 X27.4650 Y4.2976
G01 X27.4853 Y4.2883
G01 X27.5016 Y4.2825
G01 X27.5087 Y4.2804
G01 X27.5232 Y4.2768
G01 X27.5304 Y4.2755
G01 X27.5476 Y4.2730
G01 X27.5650 Y4.2721
G01 X28.4609 Y4.2719
G01 X28.4831 Y4.2730
G01 X28.5052 Y4.2763
G01 X28.5244 Y4.2810
G01 X28.5314 Y4.2833
G01 X28.5478 Y4.2892
G01 X28.5635 Y4.2965
G01 X28.5700 Y4.2999
G01 X28.5850 Y4.3089
G01 X28.6049 Y4.3235
G01 X28.6197 Y4.3367
G01 X28.6348 Y4.3531
G01 X28.6453 Y4.3658
G01 X28.7136 Y4.4219
G01 X28.7916 Y4.4636
G01 X28.8762 Y4.4892
G01 X28.9753 Y4.4990
G01 X29.6280 Y4.4990
G01 X29.7271 Y4.4892
G01 X29.8117 Y4.4636
G01 X29.8897 Y4.4219
G01 X29.9580 Y4.3658
G01 X29.9993 Y4.3154
G01 X30.0126 Y4.3007
G01 X30.0308 Y4.2840
G01 X30.0508 Y4.2694
G01 X30.0678 Y4.2592
G01 X30.0835 Y4.2517
G01 X30.0926 Y4.2479
G01 X30.1113 Y4.2415
G01 X30.1306 Y4.2368
G01 X30.1502 Y4.2338
G01 X30.1700 Y4.2325
G01 X30.1798 Y4.2325
G01 X30.1971 Y4.2335
G01 X30.2143 Y4.2360
G01 X30.2216 Y4.2373
G01 X30.2361 Y4.2409
G01 X30.2431 Y4.2429
G01 X30.2595 Y4.2488
G01 X30.2775 Y4.2570
G01 X30.2841 Y4.2604
G01 X30.2990 Y4.2694
G01 X30.3170 Y4.2824
G01 X30.3337 Y4.2972
G01 X30.3472 Y4.3117
G01 X30.3519 Y4.3174
G01 X30.3637 Y4.3333
G01 X30.3739 Y4.3503
G01 X30.3773 Y4.3568
G01 X30.3846 Y4.3726
G01 X30.3914 Y4.3912
G01 X30.4104 Y4.4539
G01 X30.4483 Y4.5247
G01 X30.4993 Y4.5869
G01 X30.5614 Y4.6378
G01 X30.6323 Y4.6757
G01 X30.6871 Y4.6924
G01 X30.7032 Y4.6983
G01 X30.7231 Y4.7077
G01 X30.7420 Y4.7190
G01 X30.7597 Y4.7320
G01 X30.7761 Y4.7467
G01 X30.7878 Y4.7592
G01 X30.7925 Y4.7648
G01 X30.8043 Y4.7805
G01 X30.8169 Y4.8014
G01 X30.8244 Y4.8168
G01 X30.8271 Y4.8235
G01 X30.8330 Y4.8396
G01 X30.8375 Y4.8562
G01 X30.8391 Y4.8633
G01 X30.8419 Y4.8802
G01 X30.8434 Y4.8998
G01 X30.8447 Y4.9767
G01 X30.8720 Y5.0039
G01 X31.1775 Y5.0039
G01 X31.1818 Y4.9928
G01 X31.1943 Y4.9662
G01 X31.2105 Y4.9387
G01 X31.2160 Y4.9305
G01 X31.2321 Y4.9089
G01 X31.2414 Y4.8982
G01 X31.2414 Y4.3970
G01 X31.0391 Y4.3970
G01 X31.0048 Y4.3953
G01 X30.9709 Y4.3903
G01 X30.9375 Y4.3819
G01 X30.9052 Y4.3704
G01 X30.8763 Y4.3568
G01 X30.8447 Y4.3380
G01 X30.8171 Y4.3176
G01 X30.7917 Y4.2945
G01 X30.7718 Y4.2728
G01 X30.7656 Y4.2652
G01 X30.7495 Y4.2435
G01 X30.7455 Y4.2373
G01 X30.7305 Y4.2120
G01 X30.7178 Y4.1854
G01 X30.7140 Y4.1764
G01 X30.7042 Y4.1486
G01 X30.6959 Y4.1153
G01 X30.6908 Y4.0813
G01 X30.6891 Y4.0470
G01 X30.6893 Y3.0921
G01 X30.6908 Y3.0627
G01 X30.6950 Y3.0336
G01 X30.6969 Y3.0239
G01 X30.7050 Y2.9931
G01 X30.7158 Y2.9631
G01 X30.7283 Y2.9364
G01 X30.7329 Y2.9277
G01 X30.7468 Y2.9046
G01 X30.7510 Y2.8985
G01 X30.7671 Y2.8769
G01 X30.7718 Y2.8712
G01 X30.7917 Y2.8495
G01 X30.8134 Y2.8297
G01 X30.8210 Y2.8234
G01 X30.8447 Y2.8060
G01 X30.8742 Y2.7883
G01 X30.9007 Y2.7756
G01 X30.9098 Y2.7719
G01 X30.9375 Y2.7621
G01 X30.9661 Y2.7548
G01 X30.9757 Y2.7529
G01 X31.0048 Y2.7487
G01 X31.0391 Y2.7470
G01 X31.7141 Y2.7470
G01 X31.7485 Y2.7487
G01 X31.7848 Y2.7542
G01 X31.8110 Y2.7608
G01 X31.8204 Y2.7636
G01 X31.8481 Y2.7736
G01 X31.8748 Y2.7861
G01 X31.8834 Y2.7907
G01 X31.9086 Y2.8060
G01 X31.9381 Y2.8280
G01 X31.9616 Y2.8495
G01 X31.9815 Y2.8712
G01 X31.9877 Y2.8788
G01 X32.0038 Y2.9005
G01 X32.0204 Y2.9277
G01 X32.0240 Y2.9342
G01 X32.0365 Y2.9608
G01 X32.0408 Y2.9719
G01 X32.3463 Y2.9719
G01 X32.4102 Y2.9081
G01 X32.4250 Y2.8948
G01 X32.4449 Y2.8802
G01 X32.4598 Y2.8713
G01 X32.4664 Y2.8679
G01 X32.4821 Y2.8606
G01 X32.4985 Y2.8546
G01 X32.5055 Y2.8524
G01 X32.5247 Y2.8477
G01 X32.5468 Y2.8444
G01 X32.5690 Y2.8433
G01 X32.5913 Y2.8444
G01 X32.6133 Y2.8477
G01 X32.6349 Y2.8531
G01 X32.6559 Y2.8606
G01 X32.6761 Y2.8701
G01 X32.6952 Y2.8816
G01 X32.7112 Y2.8933
G01 X32.7168 Y2.8980
G01 X32.7296 Y2.9098
G01 X33.2465 Y3.4267
G01 X33.2614 Y3.4432
G01 X33.2747 Y3.4611
G01 X33.2862 Y3.4802
G01 X33.2957 Y3.5004
G01 X33.3032 Y3.5213
G01 X33.3086 Y3.5429
G01 X33.3119 Y3.5650
G01 X33.3130 Y3.5872
G01 X33.3121 Y3.6071
G01 X33.3095 Y3.6267
G01 X33.3075 Y3.6363
G01 X33.3025 Y3.6555
G01 X33.2947 Y3.6764
G01 X33.2862 Y3.6943
G01 X33.2239 Y3.8109
G01 X33.1838 Y3.9428
G01 X33.1703 Y4.0800
G01 X33.1728 Y4.1057
G01 X33.1737 Y4.1255
G01 X33.1737 Y4.5086
G01 X33.1726 Y4.5309
G01 X33.1693 Y4.5529
G01 X33.1639 Y4.5745
G01 X33.1564 Y4.5955
G01 X33.1491 Y4.6113
G01 X33.1457 Y4.6178
G01 X33.1381 Y4.6306
G01 X33.1326 Y4.6388
G01 X33.1206 Y4.6545
G01 X33.1055 Y4.6709
G01 X33.0907 Y4.6841
G01 X33.0768 Y4.6946
G01 X33.0707 Y4.6988
G01 X33.0537 Y4.7089
G01 X33.0335 Y4.7184
G01 X33.0172 Y4.7244
G01 X33.0102 Y4.7266
G01 X32.9909 Y4.7313
G01 X32.9689 Y4.7346
G01 X32.9516 Y4.7356
G01 X32.9442 Y4.7357
G01 X32.9244 Y4.7346
G01 X32.9048 Y4.7318
G01 X32.8976 Y4.7302
G01 X32.8807 Y4.7259
G01 X32.8643 Y4.7202
G01 X32.8553 Y4.7164
G01 X32.8418 Y4.7100
G01 X32.8353 Y4.7065
G01 X32.8185 Y4.6960
G01 X32.8007 Y4.6826
G01 X32.7861 Y4.6692
G01 X32.7727 Y4.6545
G01 X32.7190 Y4.5892
G01 X32.6569 Y4.5382
G01 X32.5860 Y4.5003
G01 X32.5312 Y4.4836
G01 X32.5151 Y4.4777
G01 X32.4974 Y4.4694
G01 X32.4804 Y4.4596
G01 X32.4723 Y4.4543
G01 X32.4586 Y4.4440
G01 X32.4419 Y4.4290
G01 X32.4419 Y4.8982
G01 X32.4512 Y4.9089
G01 X32.4715 Y4.9366
G01 X32.4878 Y4.9640
G01 X32.5034 Y4.9973
G01 X32.5141 Y5.0274
G01 X32.5224 Y5.0607
G01 X32.5275 Y5.0947
G01 X32.5291 Y5.1290
G01 X32.5291 Y6.0790
G01 X32.5277 Y6.1109
G01 X32.5233 Y6.1424
G01 X32.5213 Y6.1521
G01 X32.5141 Y6.1806
G01 X32.5025 Y6.2129
G01 X32.4900 Y6.2396
G01 X32.4854 Y6.2483
G01 X32.4702 Y6.2734
G01 X32.4512 Y6.2991
G01 X32.4266 Y6.3265
G01 X32.4012 Y6.3496
G01 X32.3736 Y6.3700
G01 X32.3441 Y6.3877
G01 X32.3131 Y6.4024
G01 X32.2807 Y6.4139
G01 X32.2474 Y6.4223
G01 X32.2159 Y6.4270
G01 X32.1791 Y6.4290
G01 X31.5041 Y6.4290
G01 X31.4747 Y6.4277
G01 X31.4650 Y6.4267
G01 X31.4383 Y6.4227
G01 X31.4311 Y6.4212
G01 X31.4025 Y6.4139
G01 X31.3725 Y6.4033
G01 X31.3435 Y6.3899
G01 X31.3349 Y6.3853
G01 X31.3097 Y6.3700
G01 X31.2860 Y6.3526
G01 X31.2784 Y6.3463
G01 X31.2549 Y6.3247
G01 X31.2336 Y6.3010
G01 X31.2160 Y6.2775
G01 X31.2105 Y6.2693
G01 X31.1955 Y6.2440
G01 X31.1818 Y6.2152
G01 X31.1775 Y6.2041
G01 X30.8720 Y6.2041
G01 X30.8447 Y6.2313
G01 X30.8433 Y6.3196
G01 X30.8521 Y6.4090
G01 X30.8754 Y6.4859
G01 X30.8922 Y6.5173
G01 X30.8986 Y6.5308
G01 X30.9024 Y6.5398
G01 X30.9088 Y6.5586
G01 X30.9135 Y6.5779
G01 X30.9168 Y6.5999
G01 X30.9179 Y6.6221
G01 X30.9168 Y6.6444
G01 X30.9135 Y6.6664
G01 X30.9081 Y6.6881
G01 X30.9006 Y6.7090
G01 X30.8922 Y6.7270
G01 X30.8887 Y6.7335
G01 X30.8796 Y6.7483
G01 X30.8694 Y6.7623
G01 X30.8648 Y6.7681
G01 X30.8548 Y6.7792
G01 X30.8496 Y6.7844
G01 X30.8367 Y6.7961
G01 X30.8190 Y6.8096
G01 X30.8021 Y6.8200
G01 X30.7935 Y6.8246
G01 X30.7777 Y6.8319
G01 X30.7591 Y6.8387
G01 X30.7399 Y6.8438
G01 X30.7327 Y6.8453
G01 X30.7131 Y6.8481
G01 X30.6957 Y6.8491
G01 X29.4248 Y6.8490
G01 X29.3549 Y6.8559
G01 X29.2985 Y6.8730
G01 X29.2465 Y6.9008
G01 X29.2009 Y6.9382
G01 X29.1635 Y6.9838
G01 X29.1357 Y7.0358
G01 X29.1185 Y7.0923
G01 X29.1116 Y7.1622
G01 X29.1116 Y7.3398
G01 X29.1185 Y7.4097
G01 X29.1357 Y7.4662
G01 X29.1635 Y7.5182
G01 X29.2009 Y7.5638
G01 X29.2465 Y7.6012
G01 X29.2985 Y7.6290
G01 X29.3073 Y7.6317
G01 X29.3194 Y7.6246
G01 X29.3349 Y7.6172
G01 X29.3556 Y7.6096
G01 X29.3722 Y7.6054
G01 X29.3795 Y7.6040
G01 X29.3940 Y7.6020
G01 X29.4112 Y7.6010
G01 X30.6886 Y7.6010
G01 X30.7083 Y7.6020
G01 X30.7277 Y7.6048
G01 X30.7467 Y7.6096
G01 X30.7629 Y7.6153
G01 X30.7829 Y7.6246
G01 X30.7977 Y7.6334
G01 X30.8136 Y7.6449
G01 X30.8207 Y7.6509
G01 X33.3312 Y7.6511
G01 X33.3510 Y7.6523
G01 X33.3730 Y7.6558
G01 X33.3945 Y7.6615
G01 X33.4109 Y7.6673
G01 X33.4177 Y7.6702
G01 X33.4333 Y7.6777
G01 X33.4524 Y7.6892
G01 X33.4684 Y7.7009
G01 X33.4829 Y7.7128
G01 X33.6045 Y7.7778
G01 X33.7364 Y7.8178
G01 X33.8736 Y7.8313
G01 X34.0109 Y7.8178
G01 X34.1428 Y7.7778
G01 X34.2644 Y7.7128
G01 X34.2789 Y7.7009
G01 X34.2928 Y7.6906
G01 X34.3140 Y7.6777
G01 X34.3319 Y7.6692
G01 X34.3387 Y7.6665
G01 X34.3551 Y7.6607
G01 X34.3743 Y7.6558
G01 X34.3988 Y7.6520
G01 X34.4186 Y7.6510
G01 X34.6096 Y7.6509
G01 X34.6343 Y7.6523
G01 X34.6563 Y7.6558
G01 X34.6731 Y7.6600
G01 X34.6802 Y7.6623
G01 X34.6965 Y7.6682
G01 X34.7122 Y7.6755
G01 X34.7188 Y7.6789
G01 X34.7316 Y7.6866
G01 X34.7378 Y7.6906
G01 X34.7536 Y7.7025
G01 X34.7701 Y7.7174
G01 X34.7851 Y7.7340
G01 X34.7997 Y7.7539
G01 X34.8098 Y7.7710
G01 X34.8194 Y7.7911
G01 X34.8269 Y7.8121
G01 X34.8327 Y7.8361
G01 X34.8356 Y7.8557
G01 X34.8366 Y7.8755
G01 X34.8366 Y7.9898
G01 X34.8435 Y8.0597
G01 X34.8607 Y8.1162
G01 X34.8885 Y8.1682
G01 X34.9259 Y8.2138
G01 X34.9715 Y8.2512
G01 X35.0235 Y8.2790
G01 X35.0323 Y8.2817
G01 X35.0474 Y8.2730
G01 X35.0621 Y8.2663
G01 X35.0707 Y8.2629
G01 X35.0861 Y8.2580
G01 X35.1019 Y8.2544
G01 X35.1156 Y8.2524
G01 X35.1225 Y8.2517
G01 X35.1363 Y8.2510
G01 X36.4183 Y8.2511
G01 X36.4344 Y8.2521
G01 X36.4527 Y8.2549
G01 X36.4706 Y8.2593
G01 X36.4880 Y8.2654
G01 X36.5028 Y8.2720
G01 X36.5209 Y8.2822
G01 X36.5360 Y8.2928
G01 X36.5467 Y8.3017
G01 X36.5517 Y8.3064
G01 X36.5709 Y8.3115
G01 X36.5918 Y8.3192
G01 X36.6097 Y8.3277
G01 X36.6308 Y8.3406
G01 X36.6467 Y8.3525
G01 X36.7027 Y8.3985
G01 X36.7157 Y8.4101
G01 X36.7209 Y8.4152
G01 X36.7342 Y8.4300
G01 X36.7475 Y8.4479
G01 X36.7589 Y8.4670
G01 X36.7665 Y8.4826
G01 X36.7694 Y8.4894
G01 X36.7760 Y8.5081
G01 X36.7809 Y8.5273
G01 X36.7822 Y8.5345
G01 X36.7846 Y8.5517
G01 X36.7857 Y8.5740
G01 X36.7849 Y8.5938
G01 X36.7840 Y8.6011
G01 X36.7814 Y8.6183
G01 X36.7760 Y8.6399
G01 X36.7685 Y8.6609
G01 X36.7611 Y8.6767
G01 X36.7577 Y8.6832
G01 X36.7501 Y8.6960
G01 X36.7446 Y8.7042
G01 X36.7342 Y8.7180
G01 X36.7192 Y8.7346
G01 X36.7027 Y8.7495
G01 X36.6888 Y8.7600
G01 X36.6807 Y8.7654
G01 X36.6635 Y8.7754
G01 X36.6456 Y8.7838
G01 X36.6269 Y8.7905
G01 X36.6030 Y8.7967
G01 X36.5834 Y8.7997
G01 X36.5611 Y8.8010
G01 X36.5458 Y8.8011
G01 X36.5342 Y8.8106
G01 X36.5189 Y8.8210
G01 X36.5028 Y8.8300
G01 X36.4859 Y8.8375
G01 X36.4684 Y8.8434
G01 X36.4504 Y8.8476
G01 X36.4321 Y8.8501
G01 X36.4160 Y8.8510
G01 X35.1362 Y8.8510
G01 X35.1190 Y8.8500
G01 X35.1045 Y8.8480
G01 X35.0972 Y8.8466
G01 X35.0806 Y8.8424
G01 X35.0599 Y8.8348
G01 X35.0444 Y8.8274
G01 X35.0323 Y8.8203
G01 X35.0235 Y8.8230
G01 X34.9715 Y8.8508
G01 X34.9259 Y8.8882
G01 X34.8885 Y8.9338
G01 X34.8607 Y8.9858
G01 X34.8435 Y9.0423
G01 X34.8366 Y9.1122
G01 X34.8366 Y9.2898
G01 X34.8435 Y9.3597
G01 X34.8607 Y9.4162
G01 X34.8717 Y9.4391
G01 X34.8799 Y9.4624
G01 X34.8846 Y9.4817
G01 X34.8873 Y9.4989
G01 X34.8881 Y9.5062
G01 X34.8890 Y9.5260
G01 X34.8881 Y9.5458
G01 X34.8873 Y9.5531
G01 X34.8846 Y9.5703
G01 X34.8799 Y9.5896
G01 X34.8717 Y9.6129
G01 X34.8607 Y9.6358
G01 X34.8435 Y9.6923
G01 X34.8366 Y9.7622
G01 X34.8366 Y9.9398
G01 X34.8435 Y10.0097
G01 X34.8607 Y10.0662
G01 X34.8717 Y10.0891
G01 X34.8799 Y10.1124
G01 X34.8846 Y10.1317
G01 X34.8873 Y10.1489
G01 X34.8881 Y10.1562
G01 X34.8890 Y10.1760
G01 X34.8881 Y10.1958
G01 X34.8873 Y10.2031
G01 X34.8846 Y10.2203
G01 X34.8799 Y10.2396
G01 X34.8717 Y10.2629
G01 X34.8607 Y10.2858
G01 X34.8435 Y10.3423
G01 X34.8366 Y10.4122
G01 X34.8366 Y10.5898
G01 X34.8435 Y10.6597
G01 X34.8607 Y10.7162
G01 X34.8717 Y10.7391
G01 X34.8784 Y10.7577
G01 X34.8846 Y10.7817
G01 X34.8876 Y10.8013
G01 X34.8882 Y10.8086
G01 X34.8890 Y10.8260
G01 X34.8882 Y10.8434
G01 X34.8876 Y10.8507
G01 X34.8846 Y10.8703
G01 X34.8792 Y10.8919
G01 X34.8717 Y10.9129
G01 X34.8607 Y10.9358
G01 X34.8435 Y10.9923
G01 X34.8366 Y11.0622
G01 X34.8366 Y11.1740
G01 X34.8358 Y11.1938
G01 X34.8327 Y11.2159
G01 X34.8282 Y11.2352
G01 X34.8253 Y11.2446
G01 X34.8184 Y11.2631
G01 X34.8098 Y11.2810
G01 X34.7997 Y11.2981
G01 X34.7881 Y11.3142
G01 X34.7819 Y11.3218
G01 X34.7701 Y11.3346
G01 X34.7555 Y11.3479
G01 X34.7378 Y11.3614
G01 X34.7209 Y11.3718
G01 X34.7122 Y11.3765
G01 X34.6987 Y11.3828
G01 X34.6919 Y11.3855
G01 X34.6755 Y11.3913
G01 X34.6539 Y11.3967
G01 X34.6318 Y11.4000
G01 X34.6096 Y11.4011
G01 X32.4632 Y11.4010
G01 X32.4434 Y11.4000
G01 X32.4214 Y11.3967
G01 X32.3997 Y11.3913
G01 X32.3833 Y11.3855
G01 X32.3743 Y11.3818
G01 X32.3608 Y11.3754
G01 X32.3544 Y11.3718
G01 X32.3395 Y11.3628
G01 X32.3216 Y11.3495
G01 X32.3051 Y11.3346
G01 X32.2901 Y11.3180
G01 X32.2769 Y11.3001
G01 X32.2654 Y11.2810
G01 X32.2559 Y11.2609
G01 X32.2484 Y11.2399
G01 X32.2430 Y11.2183
G01 X32.2395 Y11.1938
G01 X32.2386 Y11.1740
G01 X32.2386 Y9.6336
G01 X32.2285 Y9.5308
G01 X32.1884 Y9.3989
G01 X32.1234 Y9.2773
G01 X32.0360 Y9.1707
G01 X31.9294 Y9.0832
G01 X31.8078 Y9.0182
G01 X31.6759 Y8.9782
G01 X31.5387 Y8.9647
G01 X31.5186 Y8.9666
G01 X31.5013 Y8.9675
G01 X31.4766 Y8.9664
G01 X31.4569 Y8.9636
G01 X31.4497 Y8.9621
G01 X31.4329 Y8.9577
G01 X31.4142 Y8.9511
G01 X31.3918 Y8.9407
G01 X31.3706 Y8.9278
G01 X31.3548 Y8.9160
G01 X31.2949 Y8.8669
G01 X31.2254 Y8.8297
G01 X31.1495 Y8.8066
G01 X31.1331 Y8.8008
G01 X31.1263 Y8.7979
G01 X31.1107 Y8.7903
G01 X31.0936 Y8.7802
G01 X31.0775 Y8.7686
G01 X31.0700 Y8.7624
G01 X31.0572 Y8.7507
G01 X31.0438 Y8.7360
G01 X31.0317 Y8.7203
G01 X31.0263 Y8.7121
G01 X31.0175 Y8.6971
G01 X31.0079 Y8.6770
G01 X31.0004 Y8.6560
G01 X30.9961 Y8.6392
G01 X30.9946 Y8.6320
G01 X30.9920 Y8.6148
G01 X30.9907 Y8.5925
G01 X30.9907 Y8.4622
G01 X30.9838 Y8.3923
G01 X30.9666 Y8.3358
G01 X30.9388 Y8.2838
G01 X30.9014 Y8.2382
G01 X30.8558 Y8.2008
G01 X30.8038 Y8.1730
G01 X30.7950 Y8.1703
G01 X30.7829 Y8.1774
G01 X30.7652 Y8.1858
G01 X30.7467 Y8.1924
G01 X30.7325 Y8.1961
G01 X30.7253 Y8.1976
G01 X30.7107 Y8.1998
G01 X30.6911 Y8.2010
G01 X29.4136 Y8.2010
G01 X29.3965 Y8.2002
G01 X29.3795 Y8.1980
G01 X29.3698 Y8.1961
G01 X29.3556 Y8.1924
G01 X29.3371 Y8.1858
G01 X29.3194 Y8.1774
G01 X29.3046 Y8.1686
G01 X29.2887 Y8.1571
G01 X29.2816 Y8.1511
G01 X29.1132 Y8.1509
G01 X29.0959 Y8.1500
G01 X29.0787 Y8.1475
G01 X29.0714 Y8.1462
G01 X29.0522 Y8.1413
G01 X29.0312 Y8.1338
G01 X29.0089 Y8.1231
G01 X28.9899 Y8.1114
G01 X28.9760 Y8.1011
G01 X28.9609 Y8.0887
G01 X28.8393 Y8.0237
G01 X28.7074 Y7.9837
G01 X28.6045 Y7.9736
G01 X27.7826 Y7.9735
G01 X27.7628 Y7.9725
G01 X27.7456 Y7.9700
G01 X27.7360 Y7.9681
G01 X27.7168 Y7.9630
G01 X27.6982 Y7.9563
G01 X27.6781 Y7.9468
G01 X27.6589 Y7.9353
G01 X27.6410 Y7.9220
G01 X27.6245 Y7.9071
G01 X27.6096 Y7.8905
G01 X27.5963 Y7.8727
G01 X27.5873 Y7.8578
G01 X27.5837 Y7.8514
G01 X27.5773 Y7.8379
G01 X27.5735 Y7.8288
G01 X27.5671 Y7.8101
G01 X27.5629 Y7.7932
G01 X27.5615 Y7.7860
G01 X27.5591 Y7.7688
G01 X27.5580 Y7.7465
G01 X27.5591 Y7.7242
G01 X27.5624 Y7.7022
G01 X27.5671 Y7.6829
G01 X27.5693 Y7.6759
G01 X27.5753 Y7.6596
G01 X27.5848 Y7.6395
G01 X27.5950 Y7.6224
G01 X27.5991 Y7.6163
G01 X27.6096 Y7.6025
G01 X27.6211 Y7.5895
G01 X27.6263 Y7.5842
G01 X27.6410 Y7.5710
G01 X27.6589 Y7.5577
G01 X27.6759 Y7.5474
G01 X27.7144 Y7.5268
G01 X27.7765 Y7.4759
G01 X27.8275 Y7.4137
G01 X27.8654 Y7.3429
G01 X27.8887 Y7.2660
G01 X27.8929 Y7.2227
G01 X27.8688 Y7.1986
G01 X27.4677 Y7.1986
G01 X27.4568 Y7.2081
G01 X27.4290 Y7.2284
G01 X27.4016 Y7.2447
G01 X27.3706 Y7.2594
G01 X27.3382 Y7.2709
G01 X27.3097 Y7.2782
G01 X27.3025 Y7.2797
G01 X27.2758 Y7.2837
G01 X27.2661 Y7.2847
G01 X27.2366 Y7.2860
G01 X26.2866 Y7.2860
G01 X26.2523 Y7.2843
G01 X26.2184 Y7.2793
G01 X26.1850 Y7.2709
G01 X26.1550 Y7.2603
G01 X26.1217 Y7.2447
G01 X26.0943 Y7.2284
G01 X26.0665 Y7.2081
G01 X26.0556 Y7.1986
G01 X25.6545 Y7.1986
G01 X25.6304 Y7.2227
G01 X25.6346 Y7.2660
G01 X25.6579 Y7.3429
G01 X25.6958 Y7.4137
G01 X25.7468 Y7.4759
G01 X25.8089 Y7.5268
G01 X25.8798 Y7.5647
G01 X25.9424 Y7.5837
G01 X25.9588 Y7.5896
G01 X25.9655 Y7.5925
G01 X25.9812 Y7.6000
G01 X25.9983 Y7.6101
G01 X26.0143 Y7.6217
G01 X26.0201 Y7.6263
G01 X26.0347 Y7.6397
G01 X26.0497 Y7.6562
G01 X26.0630 Y7.6741
G01 X26.0732 Y7.6911
G01 X26.0830 Y7.7111
G01 X26.0899 Y7.7297
G01 X26.0921 Y7.7367
G01 X26.0958 Y7.7512
G01 X26.0977 Y7.7608
G01 X26.1001 Y7.7780
G01 X26.1012 Y7.8003
G01 X26.1001 Y7.8225
G01 X26.0973 Y7.8422
G01 X26.0928 Y7.8615
G01 X26.0899 Y7.8709
G01 X26.0830 Y7.8894
G01 X26.0732 Y7.9095
G01 X26.0643 Y7.9244
G01 X26.0601 Y7.9304
G01 X26.0497 Y7.9443
G01 X26.0381 Y7.9573
G01 X26.0330 Y7.9626
G01 X26.0201 Y7.9742
G01 X25.9678 Y8.0172
G01 X25.9117 Y8.0855
G01 X25.8701 Y8.1634
G01 X25.8444 Y8.2480
G01 X25.8346 Y8.3472
G01 X25.8346 Y8.9998
G01 X25.8444 Y9.0990
G01 X25.8701 Y9.1836
G01 X25.9117 Y9.2615
G01 X25.9722 Y9.3352
G01 X25.9841 Y9.3511
G01 X25.9970 Y9.3722
G01 X26.0074 Y9.3947
G01 X26.0140 Y9.4134
G01 X26.0194 Y9.4350
G01 X26.0227 Y9.4570
G01 X26.0237 Y9.4744
G01 X26.0237 Y9.4842
G01 X26.0229 Y9.4991
G01 X26.0221 Y9.5064
G01 X26.0189 Y9.5260
G01 X26.0133 Y9.5475
G01 X26.0065 Y9.5662
G01 X25.9970 Y9.5863
G01 X25.9855 Y9.6054
G01 X25.9722 Y9.6233
G01 X25.9573 Y9.6398
G01 X25.9408 Y9.6548
G01 X25.9229 Y9.6681
G01 X25.9080 Y9.6771
G01 X25.9016 Y9.6807
G01 X25.8836 Y9.6891
G01 X25.8603 Y9.6973
G01 X25.8410 Y9.7020
G01 X25.8239 Y9.7047
G01 X25.7735 Y9.7097
G01 X25.6604 Y9.7440
G01 X25.5562 Y9.7997
G01 X25.4648 Y9.8747
G01 X25.4515 Y9.8909
G01 X25.4382 Y9.9055
G01 X24.6025 Y10.7411
G01 X24.5896 Y10.7528
G01 X24.5839 Y10.7574
G01 X24.5699 Y10.7676
G01 X24.5550 Y10.7767
G01 X24.5486 Y10.7802
G01 X24.5306 Y10.7886
G01 X24.5096 Y10.7961
G01 X24.4880 Y10.8015
G01 X24.4660 Y10.8048
G01 X24.4437 Y10.8059
G01 X24.4215 Y10.8048
G01 X24.3994 Y10.8015
G01 X24.3778 Y10.7961
G01 X24.3568 Y10.7886
G01 X24.3367 Y10.7791
G01 X24.3176 Y10.7676
G01 X24.2997 Y10.7544
G01 X24.2832 Y10.7394
G01 X24.2682 Y10.7229
G01 X24.2549 Y10.7050
G01 X24.2435 Y10.6859
G01 X24.2339 Y10.6657
G01 X24.2264 Y10.6447
G01 X24.2215 Y10.6255
G01 X24.2202 Y10.6183
G01 X24.2177 Y10.6011
G01 X24.2167 Y10.5813
G01 X24.2167 Y9.9192
G01 X24.2117 Y9.8688
G01 X24.2003 Y9.8311
G01 X24.1902 Y9.8099
G01 X24.1820 Y9.7866
G01 X24.1777 Y9.7697
G01 X24.1764 Y9.7625
G01 X24.1740 Y9.7453
G01 X24.1730 Y9.7279
G01 X24.1729 Y9.7205
G01 X24.1740 Y9.7007
G01 X24.1777 Y9.6763
G01 X24.1834 Y9.6547
G01 X24.1902 Y9.6361
G01 X24.2003 Y9.6149
G01 X24.2117 Y9.5772
G01 X24.2167 Y9.5268
G01 X24.2167 Y8.7379
G01 X24.2178 Y8.7154
G01 X24.2207 Y8.6955
G01 X24.2267 Y8.6711
G01 X24.2344 Y8.6499
G01 X24.2442 Y8.6295
G01 X24.2546 Y8.6123
G01 X24.2665 Y8.5961
G01 X24.2712 Y8.5903
G01 X24.2849 Y8.5757
G01 X24.3009 Y8.5614
G01 X24.3527 Y8.4998
G01 X24.3914 Y8.4294
G01 X24.4075 Y8.3787
G01 X24.3968 Y8.3681
G01 X23.5496 Y8.3681
G01 X23.5317 Y8.3845
G01 X23.5138 Y8.3977
G01 X23.4947 Y8.4092
G01 X23.4745 Y8.4187
G01 X23.4536 Y8.4262
G01 X23.4319 Y8.4316
G01 X23.4099 Y8.4349
G01 X23.3876 Y8.4360
G01 X22.6416 Y8.4360
G01 X22.6218 Y8.4351
G01 X22.5998 Y8.4321
G01 X22.5805 Y8.4275
G01 X22.5711 Y8.4247
G01 X22.5570 Y8.4196
G01 X22.5503 Y8.4167
G01 X22.5325 Y8.4080
G01 X22.5135 Y8.3963
G01 X22.4976 Y8.3845
G01 X22.4804 Y8.3688
G01 X21.6324 Y8.3681
G01 X21.6218 Y8.3787
G01 X21.6379 Y8.4294
G01 X21.6766 Y8.4998
G01 X21.7284 Y8.5614
G01 X21.7444 Y8.5757
G01 X21.7581 Y8.5903
G01 X21.7734 Y8.6103
G01 X21.7851 Y8.6295
G01 X21.7949 Y8.6499
G01 X21.8026 Y8.6711
G01 X21.8086 Y8.6955
G01 X21.8115 Y8.7154
G01 X21.8126 Y8.7379
G01 X21.8126 Y9.5268
G01 X21.8176 Y9.5772
G01 X21.8290 Y9.6149
G01 X21.8391 Y9.6361
G01 X21.8473 Y9.6594
G01 X21.8516 Y9.6763
G01 X21.8529 Y9.6835
G01 X21.8553 Y9.7007
G01 X21.8563 Y9.7181
G01 X21.8564 Y9.7255
G01 X21.8553 Y9.7453
G01 X21.8516 Y9.7697
G01 X21.8459 Y9.7913
G01 X21.8391 Y9.8099
G01 X21.8290 Y9.8311
G01 X21.8176 Y9.8688
G01 X21.8126 Y9.9192
G01 X21.8126 Y10.7968
G01 X21.8176 Y10.8472
G01 X21.8290 Y10.8849
G01 X21.8391 Y10.9061
G01 X21.8473 Y10.9294
G01 X21.8521 Y10.9487
G01 X21.8547 Y10.9659
G01 X21.8555 Y10.9732
G01 X21.8564 Y10.9930
G01 X21.8555 Y11.0128
G01 X21.8547 Y11.0201
G01 X21.8521 Y11.0373
G01 X21.8473 Y11.0566
G01 X21.8391 Y11.0799
G01 X21.8290 Y11.1011
G01 X21.8176 Y11.1388
G01 X21.8126 Y11.1892
G01 X21.8126 Y12.0235
G01 X21.8113 Y12.0457
G01 X21.8087 Y12.0629
G01 X21.8072 Y12.0701
G01 X21.8029 Y12.0869
G01 X21.7971 Y12.1033
G01 X21.7944 Y12.1102
G01 X21.7870 Y12.1259
G01 X21.7744 Y12.1472
G01 X21.7611 Y12.1651
G01 X21.7461 Y12.1816
G01 X21.7296 Y12.1965
G01 X21.7117 Y12.2098
G01 X21.6926 Y12.2213
G01 X21.6725 Y12.2308
G01 X21.6491 Y12.2390
G01 X21.6323 Y12.2432
G01 X21.6250 Y12.2445
G01 X21.6078 Y12.2470
G01 X21.5880 Y12.2480
G01 X21.4777 Y12.2480
G01 X21.4604 Y12.2472
G01 X21.4346 Y12.2447
G01 X21.2974 Y12.2582
G01 X21.1655 Y12.2982
G01 X21.0439 Y12.3632
G01 X20.9373 Y12.4507
G01 X20.9209 Y12.4706
G01 X20.9075 Y12.4853
G01 X18.1709 Y15.2219
G01 X18.1563 Y15.2353
G01 X18.1363 Y15.2517
G01 X18.0489 Y15.3583
G01 X17.9839 Y15.4798
G01 X17.9438 Y15.6118
G01 X17.9303 Y15.7490
G01 X17.9328 Y15.7747
G01 X17.9337 Y15.7945
G01 X17.9337 Y25.8785
G01 X17.9328 Y25.8983
G01 X17.9303 Y25.9240
G01 X17.9438 Y26.0612
G01 X17.9839 Y26.1931
G01 X18.0489 Y26.3147
G01 X18.1363 Y26.4213
G01 X18.1563 Y26.4377
G01 X18.1709 Y26.4511
G01 X19.6305 Y27.9107
G01 X19.6439 Y27.9254
G01 X19.6603 Y27.9453
G01 X19.7669 Y28.0328
G01 X19.8885 Y28.0978
G01 X20.0204 Y28.1378
G01 X20.1576 Y28.1513
G01 X20.1834 Y28.1488
G01 X20.2032 Y28.1479
G01 X24.6841 Y28.1479
G01 X24.7039 Y28.1488
G01 X24.7297 Y28.1513
G01 X24.8669 Y28.1378
G01 X24.9988 Y28.0978
G01 X25.1204 Y28.0328
G01 X25.2270 Y27.9453
G01 X25.2434 Y27.9254
G01 X25.2568 Y27.9107
G01 X26.3405 Y26.8270
G01 X26.3553 Y26.8138
G01 X26.3732 Y26.8005
G01 X26.3923 Y26.7890
G01 X26.4124 Y26.7795
G01 X26.4334 Y26.7720
G01 X26.4550 Y26.7666
G01 X26.4771 Y26.7633
G01 X26.4993 Y26.7622
G01 X26.5191 Y26.7631
G01 X26.5265 Y26.7639
G01 X26.5436 Y26.7666
G01 X26.5605 Y26.7707
G01 X26.5676 Y26.7728
G01 X26.5862 Y26.7795
G01 X26.6042 Y26.7879
G01 X26.6106 Y26.7915
G01 X26.6255 Y26.8005
G01 X26.6395 Y26.8108
G01 X26.6453 Y26.8154
G01 X26.6599 Y26.8287
G01 X26.6733 Y26.8434
G01 X26.6779 Y26.8491
G01 X26.6881 Y26.8631
G01 X26.6984 Y26.8801
G01 X26.7071 Y26.8979
G01 X26.7109 Y26.9070
G01 X26.7173 Y26.9257
G01 X26.7225 Y26.9474
G01 X26.7253 Y26.9670
G01 X26.7429 Y27.1458
G01 X26.8029 Y27.3437
G01 X26.9004 Y27.5261
G01 X27.0316 Y27.6860
G01 X27.1915 Y27.8172
G01 X27.3739 Y27.9147
G01 X27.5718 Y27.9747
G01 X27.7261 Y27.9899
G01 X32.0979 Y27.9899
G01 X32.1202 Y27.9910
G01 X32.1422 Y27.9943
G01 X32.1639 Y27.9997
G01 X32.1803 Y28.0055
G01 X32.1871 Y28.0082
G01 X32.2050 Y28.0167
G01 X32.2241 Y28.0282
G01 X32.2420 Y28.0415
G01 X32.2585 Y28.0564
G01 X32.7589 Y28.5569
G01 X32.7722 Y28.5717
G01 X32.7854 Y28.5896
G01 X32.7969 Y28.6087
G01 X32.8044 Y28.6243
G01 X32.8073 Y28.6311
G01 X32.8132 Y28.6475
G01 X32.8188 Y28.6690
G01 X32.8226 Y28.6934
G01 X32.8237 Y28.7133
G01 X32.8237 Y29.3749
G01 X32.8228 Y29.3948
G01 X32.8193 Y29.4194
G01 X32.8139 Y29.4410
G01 X32.8063 Y29.4621
G01 X32.7978 Y29.4801
G01 X32.7943 Y29.4866
G01 X32.7865 Y29.4994
G01 X32.7823 Y29.5055
G01 X32.7718 Y29.5194
G01 X32.7601 Y29.5324
G01 X32.7549 Y29.5377
G01 X32.7401 Y29.5509
G01 X32.7221 Y29.5642
G01 X32.7028 Y29.5756
G01 X32.6848 Y29.5841
G01 X32.6779 Y29.5868
G01 X32.6615 Y29.5925
G01 X32.6445 Y29.5968
G01 X32.6373 Y29.5983
G01 X32.6225 Y29.6004
G01 X32.6151 Y29.6012
G01 X32.5952 Y29.6019
G01 X32.5729 Y29.6007
G01 X32.5508 Y29.5973
G01 X32.5268 Y29.5909
G01 X32.5104 Y29.5849
G01 X32.5036 Y29.5819
G01 X32.4880 Y29.5742
G01 X32.4730 Y29.5652
G01 X32.4669 Y29.5612
G01 X32.4510 Y29.5491
G01 X32.4346 Y29.5339
G01 X32.4197 Y29.5172
G01 X32.2668 Y29.3270
G01 X32.0703 Y29.1626
G01 X31.9337 Y29.0878
G01 X31.9337 Y29.4434
G01 X31.9699 Y29.4706
G01 X32.0390 Y29.5332
G01 X32.0441 Y29.5384
G01 X32.1051 Y29.6057
G01 X32.1097 Y29.6115
G01 X32.1651 Y29.6864
G01 X32.2132 Y29.7663
G01 X32.2167 Y29.7728
G01 X32.2555 Y29.8548
G01 X32.2593 Y29.8639
G01 X32.2906 Y29.9517
G01 X32.3134 Y30.0421
G01 X32.3153 Y30.0517
G01 X32.3288 Y30.1440
G01 X32.3336 Y30.2420
G01 X32.3288 Y30.3400
G01 X32.3153 Y30.4323
G01 X32.3134 Y30.4419
G01 X32.2906 Y30.5323
G01 X32.2593 Y30.6201
G01 X32.2555 Y30.6292
G01 X32.2167 Y30.7112
G01 X32.2132 Y30.7177
G01 X32.1651 Y30.7976
G01 X32.1097 Y30.8725
G01 X32.1051 Y30.8783
G01 X32.0441 Y30.9456
G01 X32.0390 Y30.9508
G01 X31.9699 Y31.0134
G01 X31.9337 Y31.0406
G01 X31.9337 Y31.3962
G01 X32.0703 Y31.3214
G01 X32.2668 Y31.1570
G01 X32.4280 Y30.9565
G01 X32.5186 Y30.7873
G01 X32.5276 Y30.7725
G01 X32.5394 Y30.7565
G01 X32.5525 Y30.7416
G01 X32.5576 Y30.7363
G01 X32.5724 Y30.7231
G01 X32.5903 Y30.7098
G01 X32.6094 Y30.6984
G01 X32.6295 Y30.6888
G01 X32.6505 Y30.6813
G01 X32.6721 Y30.6759
G01 X32.6942 Y30.6726
G01 X32.7115 Y30.6717
G01 X32.7189 Y30.6716
G01 X32.7362 Y30.6724
G01 X32.7559 Y30.6751
G01 X32.7631 Y30.6764
G01 X32.7776 Y30.6800
G01 X32.7870 Y30.6829
G01 X32.8056 Y30.6898
G01 X32.8256 Y30.6995
G01 X32.8426 Y30.7098
G01 X32.8623 Y30.7247
G01 X32.8770 Y30.7381
G01 X32.8887 Y30.7509
G01 X32.8935 Y30.7565
G01 X32.9038 Y30.7704
G01 X33.0193 Y30.9432
G01 X33.1725 Y31.0964
G01 X33.3526 Y31.2168
G01 X33.5528 Y31.2997
G01 X33.7653 Y31.3419
G01 X33.9820 Y31.3419
G01 X34.1945 Y31.2997
G01 X34.3947 Y31.2168
G01 X34.5748 Y31.0964
G01 X34.7280 Y30.9432
G01 X34.8484 Y30.7630
G01 X34.9348 Y30.5544
G01 X34.9434 Y30.5365
G01 X34.9522 Y30.5216
G01 X34.9562 Y30.5154
G01 X34.9681 Y30.4995
G01 X34.9831 Y30.4830
G01 X34.9996 Y30.4680
G01 X35.0175 Y30.4548
G01 X35.0345 Y30.4445
G01 X35.0410 Y30.4411
G01 X35.0545 Y30.4348
G01 X35.0613 Y30.4320
G01 X35.0777 Y30.4263
G01 X35.0946 Y30.4219
G01 X35.1018 Y30.4204
G01 X35.1214 Y30.4176
G01 X35.1436 Y30.4165
G01 X35.1659 Y30.4176
G01 X35.1855 Y30.4204
G01 X35.1927 Y30.4219
G01 X35.2096 Y30.4263
G01 X35.2260 Y30.4320
G01 X35.2328 Y30.4348
G01 X35.2463 Y30.4411
G01 X35.2528 Y30.4445
G01 X35.2698 Y30.4548
G01 X35.2877 Y30.4680
G01 X35.3042 Y30.4830
G01 X35.3192 Y30.4995
G01 X35.3311 Y30.5154
G01 X35.3351 Y30.5216
G01 X35.3439 Y30.5365
G01 X35.3525 Y30.5544
G01 X35.4389 Y30.7630
G01 X35.5593 Y30.9432
G01 X35.7125 Y31.0964
G01 X35.8926 Y31.2168
G01 X36.0928 Y31.2997
G01 X36.3053 Y31.3419
G01 X36.5220 Y31.3419
G01 X36.7345 Y31.2997
G01 X36.9347 Y31.2168
G01 X37.1148 Y31.0964
G01 X37.2680 Y30.9432
G01 X37.3884 Y30.7630
G01 X37.4748 Y30.5544
G01 X37.4834 Y30.5365
G01 X37.4922 Y30.5216
G01 X37.4962 Y30.5154
G01 X37.5081 Y30.4995
G01 X37.5231 Y30.4830
G01 X37.5396 Y30.4680
G01 X37.5575 Y30.4548
G01 X37.5745 Y30.4445
G01 X37.5810 Y30.4411
G01 X37.5945 Y30.4348
G01 X37.6013 Y30.4320
G01 X37.6177 Y30.4263
G01 X37.6346 Y30.4219
G01 X37.6418 Y30.4204
G01 X37.6614 Y30.4176
G01 X37.6836 Y30.4165
G01 X37.7059 Y30.4176
G01 X37.7255 Y30.4204
G01 X37.7327 Y30.4219
G01 X37.7496 Y30.4263
G01 X37.7660 Y30.4320
G01 X37.7728 Y30.4348
G01 X37.7863 Y30.4411
G01 X37.7928 Y30.4445
G01 X37.8098 Y30.4548
G01 X37.8277 Y30.4680
G01 X37.8442 Y30.4830
G01 X37.8592 Y30.4995
G01 X37.8711 Y30.5154
G01 X37.8751 Y30.5216
G01 X37.8839 Y30.5365
G01 X37.8925 Y30.5544
G01 X37.9789 Y30.7630
G01 X38.0993 Y30.9432
G01 X38.2525 Y31.0964
G01 X38.4326 Y31.2168
G01 X38.6328 Y31.2997
G01 X38.8453 Y31.3419
G01 X39.0620 Y31.3419
G01 X39.2745 Y31.2997
G01 X39.4747 Y31.2168
G01 X39.6548 Y31.0964
G01 X39.8080 Y30.9432
G01 X39.9284 Y30.7630
G01 X39.9558 Y30.6970
G01 X39.9655 Y30.6770
G01 X39.9758 Y30.6600
G01 X39.9860 Y30.6460
G01 X39.9923 Y30.6384
G01 X40.0058 Y30.6239
G01 X40.0205 Y30.6106
G01 X40.0384 Y30.5974
G01 X40.0575 Y30.5859
G01 X40.0777 Y30.5764
G01 X40.0987 Y30.5689
G01 X40.1203 Y30.5635
G01 X40.1423 Y30.5602
G01 X40.1646 Y30.5591
G01 X40.1844 Y30.5600
G01 X40.1917 Y30.5608
G01 X40.2089 Y30.5635
G01 X40.2305 Y30.5689
G01 X40.2492 Y30.5755
G01 X40.2560 Y30.5784
G01 X40.2716 Y30.5859
G01 X40.2866 Y30.5947
G01 X40.2928 Y30.5988
G01 X40.3086 Y30.6106
G01 X40.3234 Y30.6239
G01 X40.3285 Y30.6292
G01 X40.3401 Y30.6421
G01 X40.3520 Y30.6580
G01 X40.3560 Y30.6642
G01 X40.3660 Y30.6813
G01 X40.3744 Y30.6993
G01 X40.3826 Y30.7226
G01 X40.3877 Y30.7443
G01 X40.3903 Y30.7615
G01 X40.3909 Y30.7688
G01 X40.3916 Y30.7862
G01 X40.3916 Y31.1308
G01 X40.3966 Y31.1812
G01 X40.4080 Y31.2189
G01 X40.4266 Y31.2536
G01 X40.4516 Y31.2841
G01 X40.4820 Y31.3090
G01 X40.5168 Y31.3276
G01 X40.5545 Y31.3390
G01 X40.6048 Y31.3440
G01 X42.3825 Y31.3440
G01 X42.4328 Y31.3390
G01 X42.4705 Y31.3276
G01 X42.4893 Y31.3176
G01 X42.5050 Y31.3102
G01 X42.5282 Y31.3017
G01 X42.5475 Y31.2968
G01 X42.5547 Y31.2955
G01 X42.5719 Y31.2930
G01 X42.5917 Y31.2920
G01 X44.5932 Y31.2919
G01 X44.7475 Y31.2767
G01 X44.9454 Y31.2167
G01 X45.1278 Y31.1192
G01 X45.2877 Y30.9880
G01 X45.4189 Y30.8281
G01 X45.5164 Y30.6457
G01 X45.5764 Y30.4478
G01 X45.5967 Y30.2420
G01 X45.5764 Y30.0362
G01 X45.5164 Y29.8383
G01 X45.4189 Y29.6559
G01 X45.2877 Y29.4960
G01 X45.1278 Y29.3648
G01 X44.9454 Y29.2673
G01 X44.7475 Y29.2073
G01 X44.5932 Y29.1921
G01 X42.5917 Y29.1920
G01 X42.5719 Y29.1910
G01 X42.5547 Y29.1885
G01 X42.5475 Y29.1872
G01 X42.5282 Y29.1823
G01 X42.5050 Y29.1738
G01 X42.4893 Y29.1664
G01 X42.4705 Y29.1564
G01 X42.4328 Y29.1450
G01 X42.3825 Y29.1400
G01 X42.2546 Y29.1400
G01 X42.2348 Y29.1389
G01 X42.2176 Y29.1365
G01 X42.2104 Y29.1351
G01 X42.1912 Y29.1302
G01 X42.1725 Y29.1236
G01 X42.1657 Y29.1207
G01 X42.1500 Y29.1132
G01 X42.1330 Y29.1031
G01 X42.1169 Y29.0915
G01 X42.1112 Y29.0869
G01 X42.0965 Y29.0735
G01 X41.7967 Y28.7737
G01 X41.7476 Y28.7760
G01 X41.6986 Y28.7737
G01 X41.3988 Y29.0735
G01 X41.3860 Y29.0853
G01 X41.3803 Y29.0900
G01 X41.3644 Y29.1017
G01 X41.3453 Y29.1132
G01 X41.3251 Y29.1227
G01 X41.3041 Y29.1302
G01 X41.2849 Y29.1351
G01 X41.2777 Y29.1365
G01 X41.2605 Y29.1389
G01 X41.2407 Y29.1400
G01 X40.6048 Y29.1400
G01 X40.5545 Y29.1450
G01 X40.5168 Y29.1564
G01 X40.4820 Y29.1750
G01 X40.4516 Y29.1999
G01 X40.4266 Y29.2304
G01 X40.4080 Y29.2651
G01 X40.3966 Y29.3028
G01 X40.3916 Y29.3532
G01 X40.3916 Y29.6978
G01 X40.3908 Y29.7176
G01 X40.3873 Y29.7421
G01 X40.3819 Y29.7637
G01 X40.3744 Y29.7847
G01 X40.3637 Y29.8070
G01 X40.3534 Y29.8240
G01 X40.3401 Y29.8419
G01 X40.3251 Y29.8584
G01 X40.3086 Y29.8734
G01 X40.2907 Y29.8866
G01 X40.2716 Y29.8981
G01 X40.2515 Y29.9076
G01 X40.2352 Y29.9136
G01 X40.2281 Y29.9158
G01 X40.2113 Y29.9200
G01 X40.1917 Y29.9232
G01 X40.1819 Y29.9242
G01 X40.1670 Y29.9249
G01 X40.1597 Y29.9248
G01 X40.1423 Y29.9238
G01 X40.1203 Y29.9205
G01 X40.0987 Y29.9151
G01 X40.0777 Y29.9076
G01 X40.0597 Y29.8992
G01 X40.0533 Y29.8957
G01 X40.0384 Y29.8866
G01 X40.0244 Y29.8764
G01 X40.0187 Y29.8718
G01 X40.0040 Y29.8584
G01 X39.9875 Y29.8400
G01 X39.9758 Y29.8240
G01 X39.9632 Y29.8027
G01 X39.9548 Y29.7847
G01 X39.9284 Y29.7210
G01 X39.8080 Y29.5408
G01 X39.6965 Y29.4293
G01 X39.6833 Y29.4145
G01 X39.6700 Y29.3967
G01 X39.6586 Y29.3775
G01 X39.6500 Y29.3597
G01 X39.6473 Y29.3528
G01 X39.6415 Y29.3364
G01 X39.6034 Y29.2109
G01 X39.5384 Y29.0893
G01 X39.4510 Y28.9827
G01 X39.4310 Y28.9663
G01 X39.4164 Y28.9529
G01 X38.9564 Y28.4928
G01 X38.9431 Y28.4781
G01 X38.9299 Y28.4602
G01 X38.9184 Y28.4411
G01 X38.9089 Y28.4209
G01 X38.9014 Y28.3999
G01 X38.8959 Y28.3783
G01 X38.8927 Y28.3563
G01 X38.8916 Y28.3340
G01 X38.8916 Y27.2395
G01 X38.8925 Y27.2197
G01 X38.8950 Y27.1940
G01 X38.8815 Y27.0568
G01 X38.8414 Y26.9249
G01 X38.7764 Y26.8033
G01 X38.6890 Y26.6967
G01 X38.6690 Y26.6803
G01 X38.6544 Y26.6669
G01 X38.0014 Y26.0139
G01 X37.9864 Y25.9974
G01 X37.9350 Y25.9347
G01 X37.8284 Y25.8472
G01 X37.7068 Y25.7822
G01 X37.5749 Y25.7422
G01 X37.4212 Y25.7271
G01 X37.4016 Y25.7242
G01 X37.3776 Y25.7184
G01 X37.3589 Y25.7118
G01 X37.3481 Y25.7070
G01 X37.2136 Y25.6662
G01 X37.0764 Y25.6527
G01 X37.0507 Y25.6552
G01 X37.0309 Y25.6561
G01 X35.7964 Y25.6561
G01 X35.7766 Y25.6552
G01 X35.7509 Y25.6527
G01 X35.6137 Y25.6662
G01 X35.4816 Y25.7062
G01 X35.4634 Y25.7148
G01 X35.4424 Y25.7223
G01 X35.4208 Y25.7277
G01 X35.3963 Y25.7312
G01 X35.3765 Y25.7321
G01 X34.7656 Y25.7321
G01 X34.7458 Y25.7312
G01 X34.7385 Y25.7304
G01 X34.7213 Y25.7277
G01 X34.7021 Y25.7230
G01 X34.6787 Y25.7148
G01 X34.6608 Y25.7064
G01 X34.6543 Y25.7028
G01 X34.6395 Y25.6938
G01 X34.6254 Y25.6835
G01 X34.6197 Y25.6789
G01 X34.6068 Y25.6673
G01 X33.8168 Y24.8773
G01 X33.8034 Y24.8626
G01 X33.7870 Y24.8427
G01 X33.6804 Y24.7552
G01 X33.5588 Y24.6902
G01 X33.4269 Y24.6502
G01 X33.2896 Y24.6367
G01 X33.2639 Y24.6392
G01 X33.2441 Y24.6401
G01 X28.8430 Y24.6401
G01 X28.8208 Y24.6390
G01 X28.8035 Y24.6365
G01 X28.7963 Y24.6352
G01 X28.7771 Y24.6303
G01 X28.7561 Y24.6228
G01 X28.7404 Y24.6154
G01 X28.7317 Y24.6108
G01 X28.7189 Y24.6031
G01 X28.7128 Y24.5990
G01 X28.6990 Y24.5885
G01 X28.6824 Y24.5735
G01 X28.6675 Y24.5570
G01 X28.6542 Y24.5391
G01 X28.6428 Y24.5200
G01 X28.6332 Y24.4999
G01 X28.6257 Y24.4789
G01 X28.6214 Y24.4621
G01 X28.6195 Y24.4525
G01 X28.6173 Y24.4377
G01 X28.6167 Y24.4304
G01 X28.6160 Y24.4105
G01 X28.6173 Y24.3883
G01 X28.6208 Y24.3663
G01 X28.6250 Y24.3494
G01 X28.6273 Y24.3424
G01 X28.6332 Y24.3261
G01 X28.6405 Y24.3103
G01 X28.6439 Y24.3038
G01 X28.6529 Y24.2889
G01 X28.6660 Y24.2709
G01 X28.6791 Y24.2560
G01 X28.7398 Y24.1950
G01 X28.7325 Y24.1865
G01 X28.7194 Y24.1684
G01 X28.7092 Y24.1513
G01 X28.7007 Y24.1334
G01 X28.6937 Y24.1147
G01 X28.6909 Y24.1053
G01 X28.6868 Y24.0884
G01 X28.6838 Y24.0687
G01 X28.6826 Y24.0489
G01 X28.6826 Y24.0391
G01 X28.6837 Y24.0217
G01 X28.6865 Y24.0020
G01 X28.6881 Y23.9948
G01 X28.6932 Y23.9756
G01 X28.7001 Y23.9569
G01 X28.7074 Y23.9411
G01 X28.7109 Y23.9346
G01 X28.7212 Y23.9176
G01 X28.7330 Y23.9016
G01 X28.7378 Y23.8960
G01 X28.7497 Y23.8832
G01 X28.7625 Y23.8715
G01 X28.7682 Y23.8668
G01 X28.7843 Y23.8551
G01 X28.8035 Y23.8437
G01 X28.8214 Y23.8352
G01 X28.9345 Y23.7890
G01 X28.9739 Y23.6457
G01 X28.9910 Y23.4084
G01 X28.9612 Y23.1693
G01 X28.9462 Y23.1200
G01 X28.6754 Y23.3909
G01 X28.6776 Y23.4425
G01 X28.6735 Y23.5258
G01 X28.6727 Y23.5331
G01 X28.6608 Y23.6132
G01 X28.6593 Y23.6204
G01 X28.6389 Y23.7013
G01 X28.6101 Y23.7821
G01 X28.6072 Y23.7889
G01 X28.5714 Y23.8643
G01 X28.5260 Y23.9400
G01 X28.4734 Y24.0110
G01 X28.4158 Y24.0746
G01 X28.4105 Y24.0798
G01 X28.3486 Y24.1357
G01 X28.2777 Y24.1883
G01 X28.2019 Y24.2337
G01 X28.1221 Y24.2715
G01 X28.0389 Y24.3012
G01 X27.9532 Y24.3227
G01 X27.8659 Y24.3357
G01 X27.7776 Y24.3400
G01 X27.6894 Y24.3357
G01 X27.6021 Y24.3227
G01 X27.5164 Y24.3012
G01 X27.4332 Y24.2715
G01 X27.3534 Y24.2337
G01 X27.2776 Y24.1883
G01 X27.2067 Y24.1357
G01 X27.1448 Y24.0798
G01 X27.1395 Y24.0746
G01 X27.0819 Y24.0110
G01 X27.0293 Y23.9400
G01 X26.9839 Y23.8643
G01 X26.9481 Y23.7889
G01 X26.9452 Y23.7821
G01 X26.9164 Y23.7013
G01 X26.8960 Y23.6204
G01 X26.8945 Y23.6132
G01 X26.8826 Y23.5331
G01 X26.8818 Y23.5258
G01 X26.8777 Y23.4425
G01 X26.8799 Y23.3909
G01 X26.6120 Y23.1230
G01 X26.5814 Y23.2343
G01 X26.5643 Y23.4716
G01 X26.5941 Y23.7107
G01 X26.6175 Y23.7876
G01 X26.7339 Y23.8352
G01 X26.7540 Y23.8449
G01 X26.7690 Y23.8537
G01 X26.7751 Y23.8579
G01 X26.7890 Y23.8683
G01 X26.8039 Y23.8815
G01 X26.8091 Y23.8868
G01 X26.8223 Y23.9016
G01 X26.8341 Y23.9176
G01 X26.8432 Y23.9325
G01 X26.8479 Y23.9411
G01 X26.8562 Y23.9592
G01 X26.8628 Y23.9779
G01 X26.8672 Y23.9948
G01 X26.8688 Y24.0020
G01 X26.8716 Y24.0217
G01 X26.8727 Y24.0415
G01 X26.8727 Y24.0489
G01 X26.8717 Y24.0663
G01 X26.8689 Y24.0860
G01 X26.8644 Y24.1053
G01 X26.8616 Y24.1147
G01 X26.8556 Y24.1311
G01 X26.8472 Y24.1491
G01 X26.8372 Y24.1663
G01 X26.8332 Y24.1725
G01 X26.8228 Y24.1865
G01 X26.8155 Y24.1950
G01 X26.8817 Y24.2613
G01 X26.8934 Y24.2742
G01 X26.8980 Y24.2800
G01 X26.9096 Y24.2961
G01 X26.9208 Y24.3153
G01 X26.9292 Y24.3333
G01 X26.9374 Y24.3566
G01 X26.9421 Y24.3758
G01 X26.9456 Y24.4003
G01 X26.9465 Y24.4226
G01 X26.9456 Y24.4400
G01 X26.9448 Y24.4473
G01 X26.9416 Y24.4668
G01 X26.9374 Y24.4837
G01 X26.9352 Y24.4907
G01 X26.9292 Y24.5070
G01 X26.9219 Y24.5228
G01 X26.9185 Y24.5293
G01 X26.9109 Y24.5421
G01 X26.9069 Y24.5483
G01 X26.8950 Y24.5642
G01 X26.8817 Y24.5789
G01 X26.8765 Y24.5841
G01 X26.8635 Y24.5957
G01 X26.8496 Y24.6061
G01 X26.8435 Y24.6103
G01 X26.8265 Y24.6204
G01 X26.8063 Y24.6299
G01 X26.7830 Y24.6381
G01 X26.7637 Y24.6428
G01 X26.7466 Y24.6455
G01 X26.7004 Y24.6502
G01 X26.5685 Y24.6902
G01 X26.4469 Y24.7552
G01 X26.3403 Y24.8427
G01 X26.3239 Y24.8626
G01 X26.3105 Y24.8773
G01 X24.5062 Y26.6816
G01 X24.4897 Y26.6965
G01 X24.4718 Y26.7098
G01 X24.4527 Y26.7213
G01 X24.4326 Y26.7308
G01 X24.4116 Y26.7383
G01 X24.3900 Y26.7437
G01 X24.3679 Y26.7470
G01 X24.3457 Y26.7481
G01 X20.5416 Y26.7481
G01 X20.5218 Y26.7472
G01 X20.5145 Y26.7464
G01 X20.4973 Y26.7437
G01 X20.4804 Y26.7396
G01 X20.4734 Y26.7375
G01 X20.4547 Y26.7308
G01 X20.4346 Y26.7213
G01 X20.4175 Y26.7111
G01 X20.4115 Y26.7070
G01 X20.3976 Y26.6965
G01 X20.3811 Y26.6816
G01 X19.3984 Y25.6988
G01 X19.3851 Y25.6841
G01 X19.3719 Y25.6662
G01 X19.3604 Y25.6471
G01 X19.3529 Y25.6314
G01 X19.3491 Y25.6223
G01 X19.3441 Y25.6083
G01 X19.3421 Y25.6012
G01 X19.3379 Y25.5843
G01 X19.3347 Y25.5623
G01 X19.3336 Y25.5400
G01 X19.3336 Y16.1330
G01 X19.3345 Y16.1132
G01 X19.3353 Y16.1058
G01 X19.3379 Y16.0887
G01 X19.3434 Y16.0671
G01 X19.3509 Y16.0461
G01 X19.3582 Y16.0303
G01 X19.3628 Y16.0217
G01 X19.3732 Y16.0048
G01 X19.3851 Y15.9889
G01 X19.4001 Y15.9724
G01 X21.4250 Y13.9475
G01 X21.4378 Y13.9357
G01 X21.4435 Y13.9310
G01 X21.4554 Y13.9221
G01 X21.4636 Y13.9166
G01 X21.4785 Y13.9078
G01 X21.4987 Y13.8983
G01 X21.5173 Y13.8915
G01 X21.5244 Y13.8894
G01 X21.5413 Y13.8853
G01 X21.5633 Y13.8821
G01 X21.5831 Y13.8810
G01 X21.5905 Y13.8811
G01 X21.6078 Y13.8821
G01 X21.6299 Y13.8853
G01 X21.6515 Y13.8908
G01 X21.6679 Y13.8965
G01 X21.6747 Y13.8992
G01 X21.6882 Y13.9056
G01 X21.6969 Y13.9102
G01 X21.7097 Y13.9179
G01 X21.7157 Y13.9221
G01 X21.7296 Y13.9325
G01 X21.7426 Y13.9441
G01 X21.7479 Y13.9492
G01 X21.7595 Y13.9621
G01 X21.7730 Y13.9799
G01 X21.7858 Y14.0010
G01 X21.7954 Y14.0211
G01 X21.8029 Y14.0421
G01 X21.8087 Y14.0662
G01 X21.8116 Y14.0858
G01 X21.8126 Y14.1080
G01 X21.8126 Y14.6068
G01 X21.8176 Y14.6572
G01 X21.8290 Y14.6949
G01 X21.8391 Y14.7161
G01 X21.8473 Y14.7394
G01 X21.8516 Y14.7563
G01 X21.8529 Y14.7635
G01 X21.8553 Y14.7807
G01 X21.8563 Y14.7981
G01 X21.8564 Y14.8055
G01 X21.8553 Y14.8253
G01 X21.8516 Y14.8497
G01 X21.8459 Y14.8713
G01 X21.8391 Y14.8899
G01 X21.8290 Y14.9111
G01 X21.8176 Y14.9488
G01 X21.8126 Y14.9992
G01 X21.8126 Y15.8768
G01 X21.8176 Y15.9272
G01 X21.8290 Y15.9649
G01 X21.8391 Y15.9861
G01 X21.8473 Y16.0094
G01 X21.8521 Y16.0287
G01 X21.8547 Y16.0459
G01 X21.8555 Y16.0532
G01 X21.8564 Y16.0730
G01 X21.8555 Y16.0928
G01 X21.8547 Y16.1001
G01 X21.8521 Y16.1173
G01 X21.8473 Y16.1366
G01 X21.8391 Y16.1599
G01 X21.8290 Y16.1811
G01 X21.8176 Y16.2188
G01 X21.8126 Y16.2692
G01 X21.8126 Y17.1468
G01 X21.8176 Y17.1972
G01 X21.8290 Y17.2349
G01 X21.8391 Y17.2561
G01 X21.8459 Y17.2747
G01 X21.8480 Y17.2818
G01 X21.8521 Y17.2987
G01 X21.8551 Y17.3183
G01 X21.8563 Y17.3381
G01 X21.8564 Y17.3455
G01 X21.8555 Y17.3628
G01 X21.8547 Y17.3701
G01 X21.8521 Y17.3873
G01 X21.8473 Y17.4066
G01 X21.8391 Y17.4299
G01 X21.8290 Y17.4511
G01 X21.8176 Y17.4888
G01 X21.8126 Y17.5392
G01 X21.8126 Y18.3281
G01 X21.8115 Y18.3506
G01 X21.8086 Y18.3705
G01 X21.8026 Y18.3949
G01 X21.7949 Y18.4161
G01 X21.7851 Y18.4365
G01 X21.7734 Y18.4557
G01 X21.7581 Y18.4757
G01 X21.7444 Y18.4903
G01 X21.7284 Y18.5046
G01 X21.6766 Y18.5662
G01 X21.6379 Y18.6366
G01 X21.6218 Y18.6873
G01 X21.6325 Y18.6979
G01 X22.4797 Y18.6979
G01 X22.4939 Y18.6847
G01 X22.4995 Y18.6800
G01 X22.5155 Y18.6683
G01 X22.5303 Y18.6592
G01 X22.5368 Y18.6557
G01 X22.5548 Y18.6473
G01 X22.5781 Y18.6391
G01 X22.5974 Y18.6344
G01 X22.6218 Y18.6309
G01 X22.6416 Y18.6300
G01 X22.7216 Y18.6300
G01 X22.7438 Y18.6314
G01 X22.7610 Y18.6339
G01 X22.7682 Y18.6354
G01 X22.7850 Y18.6398
G01 X22.8774 Y18.6678
G01 X22.9803 Y18.6779
G01 X23.3926 Y18.6781
G01 X23.4123 Y18.6793
G01 X23.4343 Y18.6828
G01 X23.4559 Y18.6885
G01 X23.4723 Y18.6943
G01 X23.4807 Y18.6980
G01 X24.0146 Y18.6980
G01 X24.0245 Y18.6985
G01 X24.0317 Y18.6995
G01 X24.0389 Y18.7010
G01 X24.0460 Y18.7030
G01 X24.0552 Y18.7066
G01 X24.0618 Y18.7098
G01 X24.0681 Y18.7135
G01 X24.0742 Y18.7177
G01 X24.0800 Y18.7223
G01 X24.0854 Y18.7273
G01 X24.0904 Y18.7327
G01 X24.0950 Y18.7384
G01 X24.0991 Y18.7445
G01 X24.1028 Y18.7509
G01 X24.1061 Y18.7575
G01 X24.1088 Y18.7643
G01 X24.1110 Y18.7713
G01 X24.1127 Y18.7785
G01 X24.1139 Y18.7858
G01 X24.1146 Y18.7980
G01 X24.1145 Y19.7029
G01 X24.1139 Y19.7102
G01 X24.1127 Y19.7175
G01 X24.1110 Y19.7247
G01 X24.1088 Y19.7317
G01 X24.1040 Y19.7430
G01 X24.1004 Y19.7494
G01 X24.0964 Y19.7556
G01 X24.0920 Y19.7614
G01 X24.0871 Y19.7670
G01 X24.0818 Y19.7721
G01 X24.0762 Y19.7768
G01 X24.0661 Y19.7838
G01 X24.0596 Y19.7873
G01 X24.0529 Y19.7904
G01 X24.0437 Y19.7937
G01 X24.0342 Y19.7961
G01 X24.0269 Y19.7972
G01 X24.0171 Y19.7980
G01 X23.4807 Y19.7980
G01 X23.4723 Y19.8017
G01 X23.4559 Y19.8075
G01 X23.4343 Y19.8132
G01 X23.4099 Y19.8170
G01 X23.3901 Y19.8180
G01 X22.9803 Y19.8181
G01 X22.8774 Y19.8282
G01 X22.7850 Y19.8562
G01 X22.7682 Y19.8606
G01 X22.7610 Y19.8621
G01 X22.7414 Y19.8649
G01 X22.7191 Y19.8660
G01 X22.6416 Y19.8660
G01 X22.6218 Y19.8651
G01 X22.5974 Y19.8616
G01 X22.5781 Y19.8569
G01 X22.5548 Y19.8487
G01 X22.5368 Y19.8403
G01 X22.5303 Y19.8368
G01 X22.5155 Y19.8277
G01 X22.5015 Y19.8175
G01 X22.4939 Y19.8113
G01 X22.4804 Y19.7988
G01 X21.6324 Y19.7981
G01 X21.6218 Y19.8087
G01 X21.6379 Y19.8594
G01 X21.6766 Y19.9298
G01 X21.7284 Y19.9914
G01 X21.7444 Y20.0057
G01 X21.7597 Y20.0222
G01 X21.7734 Y20.0403
G01 X21.7851 Y20.0595
G01 X21.7949 Y20.0799
G01 X21.8026 Y20.1011
G01 X21.8082 Y20.1230
G01 X21.8112 Y20.1429
G01 X21.8119 Y20.1503
G01 X21.8126 Y20.1679
G01 X21.8126 Y20.9568
G01 X21.8176 Y21.0072
G01 X21.8290 Y21.0449
G01 X21.8391 Y21.0661
G01 X21.8473 Y21.0894
G01 X21.8521 Y21.1087
G01 X21.8547 Y21.1259
G01 X21.8555 Y21.1332
G01 X21.8564 Y21.1530
G01 X21.8555 Y21.1728
G01 X21.8547 Y21.1801
G01 X21.8521 Y21.1973
G01 X21.8473 Y21.2166
G01 X21.8391 Y21.2399
G01 X21.8290 Y21.2611
G01 X21.8176 Y21.2988
G01 X21.8126 Y21.3492
G01 X21.8126 Y22.2268
G01 X21.8176 Y22.2772
G01 X21.8290 Y22.3149
G01 X21.8391 Y22.3361
G01 X21.8473 Y22.3594
G01 X21.8521 Y22.3787
G01 X21.8547 Y22.3959
G01 X21.8555 Y22.4032
G01 X21.8564 Y22.4230
G01 X21.8555 Y22.4428
G01 X21.8547 Y22.4501
G01 X21.8521 Y22.4673
G01 X21.8473 Y22.4866
G01 X21.8391 Y22.5099
G01 X21.8290 Y22.5311
G01 X21.8176 Y22.5688
G01 X21.8126 Y22.6192
G01 X21.8126 Y23.4968
G01 X21.8176 Y23.5472
G01 X21.8290 Y23.5849
G01 X21.8391 Y23.6061
G01 X21.8473 Y23.6294
G01 X21.8521 Y23.6487
G01 X21.8547 Y23.6659
G01 X21.8555 Y23.6732
G01 X21.8564 Y23.6930
G01 X21.8555 Y23.7128
G01 X21.8547 Y23.7201
G01 X21.8521 Y23.7373
G01 X21.8473 Y23.7566
G01 X21.8391 Y23.7799
G01 X21.8290 Y23.8011
G01 X21.8176 Y23.8388
G01 X21.8126 Y23.8892
G01 X21.8126 Y24.7668
G01 X21.8176 Y24.8172
G01 X21.8290 Y24.8549
G01 X21.8476 Y24.8896
G01 X21.8726 Y24.9201
G01 X21.9030 Y24.9450
G01 X21.9378 Y24.9636
G01 X21.9755 Y24.9750
G01 X22.0258 Y24.9800
G01 X24.0035 Y24.9800
G01 X24.0538 Y24.9750
G01 X24.0915 Y24.9636
G01 X24.1263 Y24.9450
G01 X24.1567 Y24.9201
G01 X24.1817 Y24.8896
G01 X24.2003 Y24.8549
G01 X24.2117 Y24.8172
G01 X24.2167 Y24.7668
G01 X24.2167 Y23.8892
G01 X24.2117 Y23.8388
G01 X24.2003 Y23.8011
G01 X24.1902 Y23.7799
G01 X24.1820 Y23.7566
G01 X24.1772 Y23.7373
G01 X24.1746 Y23.7201
G01 X24.1738 Y23.7128
G01 X24.1729 Y23.6930
G01 X24.1738 Y23.6732
G01 X24.1746 Y23.6659
G01 X24.1772 Y23.6487
G01 X24.1820 Y23.6294
G01 X24.1902 Y23.6061
G01 X24.2003 Y23.5849
G01 X24.2117 Y23.5472
G01 X24.2167 Y23.4968
G01 X24.2167 Y22.6192
G01 X24.2117 Y22.5688
G01 X24.2003 Y22.5311
G01 X24.1902 Y22.5099
G01 X24.1820 Y22.4866
G01 X24.1772 Y22.4673
G01 X24.1746 Y22.4501
G01 X24.1738 Y22.4428
G01 X24.1729 Y22.4230
G01 X24.1738 Y22.4032
G01 X24.1746 Y22.3959
G01 X24.1772 Y22.3787
G01 X24.1820 Y22.3594
G01 X24.1902 Y22.3361
G01 X24.2003 Y22.3149
G01 X24.2117 Y22.2772
G01 X24.2167 Y22.2268
G01 X24.2167 Y21.4450
G01 X24.2175 Y21.4252
G01 X24.2210 Y21.4007
G01 X24.2257 Y21.3814
G01 X24.2280 Y21.3744
G01 X24.2339 Y21.3581
G01 X24.2413 Y21.3423
G01 X24.2446 Y21.3358
G01 X24.2549 Y21.3189
G01 X24.2682 Y21.3010
G01 X24.2798 Y21.2880
G01 X24.2867 Y21.2811
G01 X24.2978 Y21.2711
G01 X24.3035 Y21.2665
G01 X24.3176 Y21.2562
G01 X24.3367 Y21.2447
G01 X24.3568 Y21.2352
G01 X24.3755 Y21.2285
G01 X24.3994 Y21.2223
G01 X24.4239 Y21.2188
G01 X24.4437 Y21.2179
G01 X24.5016 Y21.2180
G01 X24.5189 Y21.2188
G01 X24.5447 Y21.2213
G01 X24.6819 Y21.2078
G01 X24.8138 Y21.1678
G01 X24.9354 Y21.1028
G01 X25.0420 Y21.0153
G01 X25.0584 Y20.9954
G01 X25.0718 Y20.9807
G01 X25.6158 Y20.4368
G01 X25.6286 Y20.4251
G01 X25.6344 Y20.4205
G01 X25.6484 Y20.4103
G01 X25.6633 Y20.4012
G01 X25.6697 Y20.3977
G01 X25.6854 Y20.3903
G01 X25.7063 Y20.3825
G01 X25.7255 Y20.3774
G01 X25.7351 Y20.3755
G01 X25.7523 Y20.3731
G01 X25.7746 Y20.3720
G01 X27.0925 Y20.3720
G01 X27.1428 Y20.3670
G01 X27.1805 Y20.3556
G01 X27.2153 Y20.3370
G01 X27.2457 Y20.3121
G01 X27.2707 Y20.2816
G01 X27.2893 Y20.2469
G01 X27.3007 Y20.2092
G01 X27.3057 Y20.1588
G01 X27.3057 Y18.4812
G01 X27.3007 Y18.4308
G01 X27.2893 Y18.3931
G01 X27.2707 Y18.3584
G01 X27.2457 Y18.3279
G01 X27.2153 Y18.3030
G01 X27.1805 Y18.2844
G01 X27.1428 Y18.2730
G01 X27.0925 Y18.2680
G01 X26.4577 Y18.2680
G01 X26.4379 Y18.2669
G01 X26.4207 Y18.2645
G01 X26.4111 Y18.2626
G01 X26.3919 Y18.2575
G01 X26.3733 Y18.2507
G01 X26.3553 Y18.2423
G01 X26.3382 Y18.2324
G01 X26.3300 Y18.2269
G01 X26.3161 Y18.2165
G01 X26.2996 Y18.2015
G01 X26.2847 Y18.1850
G01 X26.2742 Y18.1711
G01 X26.2701 Y18.1650
G01 X26.2624 Y18.1522
G01 X26.2577 Y18.1436
G01 X26.2504 Y18.1278
G01 X26.2429 Y18.1068
G01 X26.2380 Y18.0876
G01 X26.2367 Y18.0804
G01 X26.2342 Y18.0632
G01 X26.2331 Y18.0409
G01 X26.2342 Y18.0187
G01 X26.2370 Y17.9990
G01 X26.2386 Y17.9918
G01 X26.2429 Y17.9750
G01 X26.2486 Y17.9586
G01 X26.2514 Y17.9518
G01 X26.2577 Y17.9383
G01 X26.2611 Y17.9317
G01 X26.2714 Y17.9148
G01 X26.2847 Y17.8969
G01 X26.2996 Y17.8804
G01 X26.3161 Y17.8654
G01 X26.3340 Y17.8521
G01 X26.3532 Y17.8407
G01 X26.3733 Y17.8312
G01 X26.3896 Y17.8252
G01 X26.3966 Y17.8230
G01 X26.4159 Y17.8182
G01 X26.5599 Y17.7896
G01 X26.7510 Y17.7104
G01 X26.9229 Y17.5955
G01 X27.0692 Y17.4493
G01 X27.1841 Y17.2773
G01 X27.2632 Y17.0863
G01 X27.3036 Y16.8834
G01 X27.3036 Y16.6766
G01 X27.2632 Y16.4737
G01 X27.1841 Y16.2827
G01 X27.0692 Y16.1107
G01 X26.9229 Y15.9645
G01 X26.7510 Y15.8496
G01 X26.5599 Y15.7704
G01 X26.3571 Y15.7301
G01 X26.3064 Y15.7299
G01 X26.2890 Y15.7290
G01 X26.2670 Y15.7257
G01 X26.2454 Y15.7203
G01 X26.2244 Y15.7128
G01 X26.2043 Y15.7033
G01 X26.1893 Y15.6944
G01 X26.1811 Y15.6890
G01 X26.1692 Y15.6801
G01 X26.1635 Y15.6753
G01 X26.1507 Y15.6636
G01 X26.1358 Y15.6470
G01 X26.1225 Y15.6291
G01 X26.1135 Y15.6143
G01 X26.1099 Y15.6079
G01 X26.1015 Y15.5899
G01 X26.0940 Y15.5689
G01 X26.0897 Y15.5521
G01 X26.0881 Y15.5449
G01 X26.0853 Y15.5253
G01 X26.0842 Y15.5030
G01 X26.0850 Y15.4856
G01 X26.0859 Y15.4759
G01 X26.0891 Y15.4563
G01 X26.0940 Y15.4371
G01 X26.0998 Y15.4207
G01 X26.1025 Y15.4139
G01 X26.1110 Y15.3960
G01 X26.1225 Y15.3769
G01 X26.1328 Y15.3628
G01 X26.1374 Y15.3571
G01 X26.1507 Y15.3424
G01 X28.2057 Y13.2874
G01 X28.2223 Y13.2725
G01 X28.2381 Y13.2606
G01 X28.2443 Y13.2566
G01 X28.2593 Y13.2477
G01 X28.3491 Y13.1997
G01 X28.4404 Y13.1248
G01 X28.5154 Y13.0334
G01 X28.5488 Y12.9710
G01 X28.5589 Y12.9539
G01 X28.5735 Y12.9340
G01 X28.5868 Y12.9192
G01 X28.5920 Y12.9141
G01 X28.6050 Y12.9025
G01 X28.6189 Y12.8920
G01 X28.6249 Y12.8879
G01 X28.6420 Y12.8777
G01 X28.6621 Y12.8682
G01 X28.6785 Y12.8623
G01 X28.6855 Y12.8600
G01 X28.7047 Y12.8553
G01 X28.7268 Y12.8520
G01 X28.7466 Y12.8510
G01 X28.8846 Y12.8509
G01 X28.9019 Y12.8517
G01 X28.9093 Y12.8523
G01 X28.9289 Y12.8553
G01 X28.9505 Y12.8607
G01 X28.9715 Y12.8682
G01 X28.9894 Y12.8766
G01 X28.9959 Y12.8802
G01 X29.0087 Y12.8879
G01 X29.0147 Y12.8920
G01 X29.0286 Y12.9025
G01 X29.0416 Y12.9141
G01 X29.0469 Y12.9192
G01 X29.0601 Y12.9340
G01 X29.0734 Y12.9519
G01 X29.0848 Y12.9710
G01 X29.0934 Y12.9889
G01 X29.0961 Y12.9957
G01 X29.1019 Y13.0121
G01 X29.1062 Y13.0289
G01 X29.1077 Y13.0361
G01 X29.1100 Y13.0509
G01 X29.1108 Y13.0582
G01 X29.1116 Y13.0780
G01 X29.1116 Y13.1898
G01 X29.1185 Y13.2597
G01 X29.1357 Y13.3162
G01 X29.1635 Y13.3682
G01 X29.2009 Y13.4138
G01 X29.2465 Y13.4512
G01 X29.2985 Y13.4790
G01 X29.3072 Y13.4818
G01 X29.3235 Y13.4877
G01 X29.3458 Y13.4985
G01 X29.3628 Y13.5087
G01 X29.3768 Y13.5190
G01 X29.3826 Y13.5236
G01 X29.3972 Y13.5370
G01 X29.4122 Y13.5535
G01 X29.4226 Y13.5674
G01 X29.4281 Y13.5755
G01 X29.4357 Y13.5883
G01 X29.4391 Y13.5949
G01 X29.4464 Y13.6106
G01 X29.4539 Y13.6316
G01 X29.4593 Y13.6532
G01 X29.4623 Y13.6728
G01 X29.4637 Y13.6975
G01 X29.4637 Y14.2314
G01 X29.4623 Y14.2561
G01 X29.4593 Y14.2757
G01 X29.4539 Y14.2973
G01 X29.4464 Y14.3183
G01 X29.4391 Y14.3340
G01 X29.4345 Y14.3427
G01 X29.4241 Y14.3595
G01 X29.4137 Y14.3735
G01 X29.3966 Y14.3944
G01 X29.3779 Y14.4294
G01 X29.3861 Y14.4370
G01 X29.3925 Y14.4445
G01 X29.3981 Y14.4525
G01 X29.4040 Y14.4632
G01 X29.4078 Y14.4723
G01 X29.4107 Y14.4817
G01 X29.4126 Y14.4913
G01 X29.4136 Y14.5035
G01 X29.4136 Y16.0060
G01 X29.4129 Y16.0182
G01 X29.4112 Y16.0279
G01 X29.4086 Y16.0374
G01 X29.4040 Y16.0488
G01 X29.3981 Y16.0595
G01 X29.3925 Y16.0675
G01 X29.3861 Y16.0750
G01 X29.3779 Y16.0826
G01 X29.3966 Y16.1176
G01 X29.4216 Y16.1481
G01 X29.4520 Y16.1730
G01 X29.5105 Y16.2044
G01 X29.5273 Y16.2148
G01 X29.5451 Y16.2283
G01 X29.5597 Y16.2417
G01 X29.5762 Y16.2601
G01 X29.5893 Y16.2782
G01 X29.5982 Y16.2931
G01 X29.6016 Y16.2996
G01 X29.6089 Y16.3153
G01 X29.6164 Y16.3363
G01 X29.6218 Y16.3579
G01 X29.6251 Y16.3800
G01 X29.6262 Y16.4022
G01 X29.6262 Y16.5820
G01 X29.6357 Y16.5929
G01 X29.6560 Y16.6206
G01 X29.6723 Y16.6480
G01 X29.6860 Y16.6768
G01 X29.6970 Y16.7067
G01 X29.6999 Y16.7161
G01 X29.7069 Y16.7447
G01 X29.7117 Y16.7763
G01 X29.7136 Y16.8130
G01 X29.7136 Y17.7630
G01 X29.7122 Y17.7949
G01 X29.7069 Y17.8313
G01 X29.6999 Y17.8599
G01 X29.6970 Y17.8693
G01 X29.6860 Y17.8992
G01 X29.6723 Y17.9280
G01 X29.6560 Y17.9554
G01 X29.6357 Y17.9831
G01 X29.6262 Y17.9940
G01 X29.6262 Y18.3952
G01 X29.6503 Y18.4193
G01 X29.6936 Y18.4150
G01 X29.7705 Y18.3917
G01 X29.8414 Y18.3538
G01 X29.9035 Y18.3029
G01 X29.9545 Y18.2407
G01 X29.9924 Y18.1699
G01 X30.0122 Y18.1049
G01 X30.0182 Y18.0886
G01 X30.0265 Y18.0706
G01 X30.0365 Y18.0535
G01 X30.0420 Y18.0453
G01 X30.0524 Y18.0314
G01 X30.0657 Y18.0167
G01 X30.0839 Y18.0000
G01 X30.1018 Y17.9867
G01 X30.1209 Y17.9752
G01 X30.1410 Y17.9657
G01 X30.1620 Y17.9582
G01 X30.1836 Y17.9528
G01 X30.2057 Y17.9495
G01 X30.2279 Y17.9484
G01 X30.2477 Y17.9493
G01 X30.2551 Y17.9501
G01 X30.2722 Y17.9528
G01 X30.2938 Y17.9582
G01 X30.3125 Y17.9648
G01 X30.3193 Y17.9677
G01 X30.3350 Y17.9752
G01 X30.3520 Y17.9854
G01 X30.3720 Y18.0000
G01 X30.3902 Y18.0167
G01 X30.4035 Y18.0314
G01 X30.4448 Y18.0818
G01 X30.5131 Y18.1379
G01 X30.5911 Y18.1796
G01 X30.6757 Y18.2052
G01 X30.7748 Y18.2150
G01 X30.7862 Y18.2150
G01 X30.8060 Y18.2161
G01 X30.8281 Y18.2194
G01 X30.8473 Y18.2241
G01 X30.8661 Y18.2305
G01 X30.8752 Y18.2343
G01 X30.8908 Y18.2418
G01 X30.9299 Y18.2627
G01 X31.1278 Y18.3227
G01 X31.2821 Y18.3379
G01 X37.9167 Y18.3379
G01 X37.9390 Y18.3390
G01 X37.9562 Y18.3415
G01 X37.9658 Y18.3434
G01 X37.9850 Y18.3485
G01 X38.0036 Y18.3552
G01 X38.0216 Y18.3636
G01 X38.0387 Y18.3736
G01 X38.0469 Y18.3790
G01 X38.0607 Y18.3895
G01 X38.0755 Y18.4027
G01 X39.3280 Y19.6552
G01 X39.3414 Y19.6698
G01 X39.3688 Y19.7031
G01 X39.5286 Y19.8343
G01 X39.7110 Y19.9318
G01 X39.8894 Y19.9860
G01 X39.9081 Y19.9927
G01 X39.9260 Y20.0011
G01 X39.9473 Y20.0137
G01 X39.9633 Y20.0255
G01 X39.9689 Y20.0302
G01 X39.9817 Y20.0420
G01 X39.9951 Y20.0566
G01 X39.9997 Y20.0624
G01 X40.0113 Y20.0784
G01 X40.0214 Y20.0955
G01 X40.0290 Y20.1111
G01 X40.0327 Y20.1202
G01 X40.0391 Y20.1390
G01 X40.0439 Y20.1582
G01 X40.0469 Y20.1778
G01 X40.0481 Y20.1976
G01 X40.0481 Y20.2074
G01 X40.0471 Y20.2248
G01 X40.0443 Y20.2444
G01 X40.0398 Y20.2637
G01 X40.0369 Y20.2731
G01 X40.0309 Y20.2894
G01 X40.0214 Y20.3096
G01 X40.0100 Y20.3287
G01 X39.9997 Y20.3427
G01 X39.9951 Y20.3485
G01 X39.9817 Y20.3631
G01 X39.3473 Y20.9976
G01 X39.3307 Y21.0125
G01 X39.3169 Y21.0230
G01 X39.3087 Y21.0284
G01 X39.2916 Y21.0384
G01 X39.2736 Y21.0468
G01 X39.2503 Y21.0550
G01 X39.2286 Y21.0601
G01 X39.2114 Y21.0627
G01 X39.2041 Y21.0633
G01 X39.1867 Y21.0641
G01 X38.7624 Y21.0641
G01 X38.7426 Y21.0632
G01 X38.6996 Y21.0590
G01 X38.4938 Y21.0793
G01 X38.2959 Y21.1393
G01 X38.1135 Y21.2368
G01 X37.9536 Y21.3680
G01 X37.9263 Y21.4013
G01 X37.9129 Y21.4159
G01 X37.4875 Y21.8413
G01 X37.4746 Y21.8529
G01 X37.4689 Y21.8575
G01 X37.4548 Y21.8678
G01 X37.4400 Y21.8768
G01 X37.4336 Y21.8804
G01 X37.4178 Y21.8878
G01 X37.3970 Y21.8955
G01 X37.3778 Y21.9006
G01 X37.3682 Y21.9025
G01 X37.3510 Y21.9050
G01 X37.3287 Y21.9061
G01 X36.3621 Y21.9061
G01 X36.2078 Y21.9213
G01 X36.0099 Y21.9813
G01 X35.8275 Y22.0788
G01 X35.6676 Y22.2100
G01 X35.5364 Y22.3699
G01 X35.4389 Y22.5523
G01 X35.3789 Y22.7502
G01 X35.3586 Y22.9560
G01 X35.3789 Y23.1618
G01 X35.4389 Y23.3597
G01 X35.5364 Y23.5421
G01 X35.6676 Y23.7020
G01 X35.8275 Y23.8332
G01 X36.0099 Y23.9307
G01 X36.2078 Y23.9907
G01 X36.3621 Y24.0059
G01 X37.7949 Y24.0059
G01 X37.8147 Y24.0068
G01 X37.8576 Y24.0110
G01 X38.0635 Y23.9907
G01 X38.2614 Y23.9307
G01 X38.4438 Y23.8332
G01 X38.6037 Y23.7020
G01 X38.6310 Y23.6687
G01 X38.6444 Y23.6541
G01 X39.0698 Y23.2287
G01 X39.0846 Y23.2155
G01 X39.1024 Y23.2022
G01 X39.1216 Y23.1907
G01 X39.1395 Y23.1822
G01 X39.1627 Y23.1737
G01 X39.1819 Y23.1688
G01 X39.2039 Y23.1653
G01 X39.2237 Y23.1641
G01 X39.6529 Y23.1639
G01 X39.6727 Y23.1648
G01 X39.7157 Y23.1690
G01 X39.9215 Y23.1487
G01 X40.1194 Y23.0887
G01 X40.3018 Y22.9912
G01 X40.3463 Y22.9547
G01 X40.3621 Y22.9428
G01 X40.3833 Y22.9300
G01 X40.4057 Y22.9195
G01 X40.4244 Y22.9129
G01 X40.4436 Y22.9080
G01 X40.4632 Y22.9049
G01 X40.4729 Y22.9039
G01 X40.4903 Y22.9032
G01 X40.5126 Y22.9043
G01 X40.5346 Y22.9075
G01 X40.5539 Y22.9123
G01 X40.5749 Y22.9195
G01 X40.5930 Y22.9278
G01 X40.5995 Y22.9312
G01 X40.6123 Y22.9388
G01 X40.6205 Y22.9443
G01 X40.6362 Y22.9563
G01 X40.6526 Y22.9714
G01 X40.6658 Y22.9862
G01 X40.6804 Y23.0061
G01 X40.6906 Y23.0232
G01 X40.6981 Y23.0389
G01 X40.7010 Y23.0456
G01 X40.7069 Y23.0620
G01 X40.7729 Y23.2797
G01 X40.8704 Y23.4621
G01 X41.0016 Y23.6220
G01 X41.1615 Y23.7532
G01 X41.3439 Y23.8507
G01 X41.5418 Y23.9107
G01 X41.6961 Y23.9259
G01 X43.2671 Y23.9260
G01 X43.2869 Y23.9270
G01 X43.3065 Y23.9299
G01 X43.3258 Y23.9344
G01 X43.3352 Y23.9373
G01 X43.3515 Y23.9432
G01 X43.3717 Y23.9527
G01 X43.3908 Y23.9642
G01 X43.4048 Y23.9745
G01 X43.4106 Y23.9791
G01 X43.4252 Y23.9924
G01 X43.4402 Y24.0090
G01 X43.4534 Y24.0269
G01 X43.4649 Y24.0460
G01 X43.4744 Y24.0661
G01 X43.4819 Y24.0871
G01 X43.4873 Y24.1087
G01 X43.4908 Y24.1332
G01 X43.4917 Y24.1530
G01 X43.4917 Y25.2936
G01 X43.5069 Y25.4478
G01 X43.5669 Y25.6457
G01 X43.6644 Y25.8281
G01 X43.7956 Y25.9880
G01 X43.9555 Y26.1192
G01 X44.1379 Y26.2167
G01 X44.3358 Y26.2767
G01 X44.5416 Y26.2970
G01 X44.7475 Y26.2767
G01 X44.9454 Y26.2167
G01 X45.1278 Y26.1192
G01 X45.2877 Y25.9880
G01 X45.4189 Y25.8281
G01 X45.5164 Y25.6457
G01 X45.5764 Y25.4478
G01 X45.5916 Y25.2936
G01 X45.5916 Y23.6424
G01 X45.5927 Y23.6202
G01 X45.5959 Y23.5981
G01 X45.6014 Y23.5765
G01 X45.6089 Y23.5555
G01 X45.6184 Y23.5354
G01 X45.6299 Y23.5163
G01 X45.6401 Y23.5022
G01 X45.6729 Y23.4621
G01 X45.7704 Y23.2797
G01 X45.8304 Y23.0818
G01 X45.8507 Y22.8760
G01 X45.8304 Y22.6702
G01 X45.7704 Y22.4723
G01 X45.6729 Y22.2899
G01 X45.5417 Y22.1300
G01 X45.3818 Y21.9988
G01 X45.1994 Y21.9013
G01 X45.0842 Y21.8664
G01 X45.0632 Y21.8588
G01 X45.0431 Y21.8493
G01 X45.0281 Y21.8405
G01 X45.0200 Y21.8350
G01 X45.0080 Y21.8261
G01 X45.0024 Y21.8214
G01 X44.9896 Y21.8096
G01 X44.9778 Y21.7968
G01 X44.9731 Y21.7912
G01 X44.9627 Y21.7772
G01 X44.9499 Y21.7561
G01 X44.9394 Y21.7337
G01 X44.9336 Y21.7173
G01 X44.9315 Y21.7102
G01 X44.9274 Y21.6934
G01 X44.9247 Y21.6762
G01 X44.9239 Y21.6689
G01 X44.9231 Y21.6491
G01 X44.9244 Y21.6244
G01 X44.9274 Y21.6048
G01 X44.9315 Y21.5879
G01 X44.9336 Y21.5808
G01 X44.9403 Y21.5622
G01 X44.9499 Y21.5420
G01 X44.9587 Y21.5271
G01 X44.9627 Y21.5209
G01 X44.9746 Y21.5050
G01 X44.9878 Y21.4903
G01 X44.9931 Y21.4851
G01 X45.0061 Y21.4735
G01 X45.0240 Y21.4603
G01 X45.0409 Y21.4500
G01 X45.0475 Y21.4466
G01 X45.0632 Y21.4393
G01 X45.0842 Y21.4318
G01 X45.1034 Y21.4269
G01 X45.1107 Y21.4255
G01 X45.1279 Y21.4231
G01 X45.1477 Y21.4220
G01 X45.9365 Y21.4220
G01 X45.9868 Y21.4170
G01 X46.0245 Y21.4056
G01 X46.0593 Y21.3870
G01 X46.0897 Y21.3621
G01 X46.1147 Y21.3316
G01 X46.1333 Y21.2969
G01 X46.1447 Y21.2592
G01 X46.1497 Y21.2088
G01 X46.1497 Y17.4312
G01 X46.1447 Y17.3808
G01 X46.1333 Y17.3431
G01 X46.1147 Y17.3084
G01 X46.0897 Y17.2779
G01 X46.0593 Y17.2530
G01 X46.0245 Y17.2344
G01 X45.9868 Y17.2230
G01 X45.9365 Y17.2180
G01 X43.9588 Y17.2180
G01 X43.9085 Y17.2230
G01 X43.8708 Y17.2344
G01 X43.8360 Y17.2530
G01 X43.8056 Y17.2779
G01 X43.7806 Y17.3084
G01 X43.7620 Y17.3431
G01 X43.7506 Y17.3808
G01 X43.7456 Y17.4312
G01 X43.7456 Y17.4889
G01 X43.7448 Y17.5087
G01 X43.7421 Y17.5284
G01 X43.7408 Y17.5356
G01 X43.7351 Y17.5572
G01 X43.7293 Y17.5735
G01 X43.7264 Y17.5803
G01 X43.7188 Y17.5960
G01 X43.7100 Y17.6109
G01 X43.7060 Y17.6171
G01 X43.6956 Y17.6311
G01 X43.6791 Y17.6495
G01 X43.6626 Y17.6644
G01 X43.6447 Y17.6777
G01 X43.6278 Y17.6880
G01 X43.6212 Y17.6914
G01 X43.6055 Y17.6987
G01 X43.5892 Y17.7047
G01 X43.5821 Y17.7069
G01 X43.5677 Y17.7106
G01 X43.5605 Y17.7121
G01 X43.5433 Y17.7146
G01 X43.5210 Y17.7160
G01 X43.5137 Y17.7159
G01 X43.4939 Y17.7146
G01 X43.4743 Y17.7116
G01 X43.4574 Y17.7075
G01 X43.4503 Y17.7055
G01 X43.4317 Y17.6987
G01 X43.4094 Y17.6880
G01 X43.3924 Y17.6777
G01 X43.3765 Y17.6660
G01 X43.2458 Y17.5588
G01 X43.0634 Y17.4613
G01 X42.8655 Y17.4013
G01 X42.6597 Y17.3810
G01 X42.6167 Y17.3852
G01 X42.5969 Y17.3861
G01 X40.6986 Y17.3861
G01 X40.6788 Y17.3852
G01 X40.6359 Y17.3810
G01 X40.4301 Y17.4013
G01 X40.2639 Y17.4517
G01 X40.2447 Y17.4566
G01 X40.2251 Y17.4598
G01 X40.2153 Y17.4607
G01 X40.1980 Y17.4614
G01 X40.1757 Y17.4604
G01 X40.1537 Y17.4571
G01 X40.1368 Y17.4530
G01 X40.1274 Y17.4501
G01 X40.1134 Y17.4451
G01 X40.1066 Y17.4422
G01 X40.0909 Y17.4346
G01 X40.0718 Y17.4232
G01 X40.0539 Y17.4099
G01 X40.0410 Y17.3983
G01 X39.2324 Y16.5899
G01 X39.2190 Y16.5753
G01 X39.1917 Y16.5420
G01 X39.0318 Y16.4108
G01 X38.8494 Y16.3133
G01 X38.6515 Y16.2533
G01 X38.4457 Y16.2330
G01 X38.4027 Y16.2372
G01 X38.3829 Y16.2381
G01 X35.8182 Y16.2381
G01 X35.7960 Y16.2370
G01 X35.7739 Y16.2337
G01 X35.7547 Y16.2290
G01 X35.7477 Y16.2267
G01 X35.7313 Y16.2208
G01 X35.7156 Y16.2135
G01 X35.7090 Y16.2101
G01 X35.6921 Y16.1998
G01 X35.6742 Y16.1865
G01 X35.6577 Y16.1716
G01 X35.6443 Y16.1569
G01 X35.6397 Y16.1512
G01 X35.6294 Y16.1372
G01 X35.6204 Y16.1223
G01 X35.6168 Y16.1159
G01 X35.6100 Y16.1015
G01 X35.5991 Y16.0974
G01 X35.5904 Y16.0930
G01 X35.5801 Y16.0863
G01 X35.5725 Y16.0801
G01 X35.5656 Y16.0732
G01 X35.5579 Y16.0636
G01 X35.5526 Y16.0553
G01 X35.5473 Y16.0443
G01 X35.5447 Y16.0374
G01 X35.5421 Y16.0279
G01 X35.5404 Y16.0182
G01 X35.5397 Y16.0085
G01 X35.5396 Y15.6560
G01 X35.4896 Y15.6560
G01 X35.4896 Y16.0060
G01 X35.4894 Y16.0134
G01 X35.4886 Y16.0207
G01 X35.4860 Y16.0327
G01 X35.4820 Y16.0443
G01 X35.4790 Y16.0510
G01 X35.4754 Y16.0574
G01 X35.4685 Y16.0675
G01 X35.4637 Y16.0732
G01 X35.4586 Y16.0784
G01 X35.4492 Y16.0863
G01 X35.4389 Y16.0930
G01 X35.4324 Y16.0964
G01 X35.4256 Y16.0993
G01 X35.4187 Y16.1017
G01 X35.4092 Y16.1041
G01 X35.3995 Y16.1055
G01 X35.3896 Y16.1060
G01 X34.3896 Y16.1060
G01 X34.3823 Y16.1057
G01 X34.3726 Y16.1045
G01 X34.3654 Y16.1030
G01 X34.3560 Y16.1002
G01 X34.3491 Y16.0974
G01 X34.3425 Y16.0942
G01 X34.3361 Y16.0905
G01 X34.3301 Y16.0863
G01 X34.3243 Y16.0817
G01 X34.3189 Y16.0767
G01 X34.3139 Y16.0713
G01 X34.3093 Y16.0656
G01 X34.3052 Y16.0595
G01 X34.3015 Y16.0531
G01 X34.2973 Y16.0443
G01 X34.2947 Y16.0374
G01 X34.2926 Y16.0303
G01 X34.2911 Y16.0231
G01 X34.2901 Y16.0158
G01 X34.2897 Y16.0085
G01 X34.2894 Y13.5035
G01 X34.2923 Y13.4472
G01 X34.3001 Y13.3937
G01 X34.3020 Y13.3841
G01 X34.3152 Y13.3318
G01 X34.3351 Y13.2763
G01 X34.3581 Y13.2274
G01 X34.3627 Y13.2188
G01 X34.3919 Y13.1705
G01 X34.4256 Y13.1252
G01 X34.4618 Y13.0851
G01 X34.5702 Y12.9766
G01 X34.6138 Y12.9370
G01 X34.6612 Y12.9019
G01 X34.7117 Y12.8716
G01 X34.7604 Y12.8484
G01 X34.7695 Y12.8447
G01 X34.8204 Y12.8266
G01 X34.8727 Y12.8134
G01 X34.8824 Y12.8115
G01 X34.9334 Y12.8039
G01 X34.9407 Y12.8033
G01 X34.9946 Y12.8008
G01 X36.4136 Y12.8010
G01 X36.4284 Y12.8016
G01 X36.4357 Y12.8022
G01 X36.4503 Y12.8044
G01 X36.4717 Y12.8096
G01 X36.4902 Y12.8162
G01 X36.5101 Y12.8258
G01 X36.5227 Y12.8334
G01 X36.5288 Y12.8375
G01 X36.5405 Y12.8464
G01 X36.5515 Y12.8562
G01 X36.5568 Y12.8613
G01 X36.5667 Y12.8722
G01 X36.5799 Y12.8899
G01 X36.5889 Y12.9046
G01 X36.5922 Y12.9111
G01 X36.5984 Y12.9245
G01 X36.6043 Y12.9406
G01 X36.6098 Y12.9620
G01 X36.6124 Y12.9790
G01 X36.6130 Y12.9863
G01 X36.6136 Y13.0010
G01 X36.6136 Y13.2010
G01 X36.6131 Y13.2148
G01 X36.6123 Y13.2240
G01 X36.6093 Y13.2423
G01 X36.6054 Y13.2579
G01 X36.5993 Y13.2754
G01 X36.5927 Y13.2901
G01 X36.5837 Y13.3063
G01 X36.5733 Y13.3215
G01 X36.5630 Y13.3340
G01 X36.5501 Y13.3472
G01 X36.5378 Y13.3577
G01 X36.5304 Y13.3633
G01 X36.5150 Y13.3734
G01 X36.5028 Y13.3800
G01 X36.4859 Y13.3875
G01 X36.4684 Y13.3934
G01 X36.4527 Y13.3971
G01 X36.4367 Y13.3996
G01 X36.4275 Y13.4005
G01 X36.4136 Y13.4010
G01 X36.3764 Y13.4010
G01 X36.3735 Y13.4598
G01 X36.3649 Y13.5181
G01 X36.3506 Y13.5753
G01 X36.3307 Y13.6307
G01 X36.3055 Y13.6840
G01 X36.2752 Y13.7345
G01 X36.2401 Y13.7818
G01 X36.2006 Y13.8255
G01 X36.1569 Y13.8650
G01 X36.1136 Y13.8973
G01 X36.1055 Y13.9027
G01 X36.0591 Y13.9304
G01 X36.0103 Y13.9536
G01 X36.0013 Y13.9573
G01 X35.9504 Y13.9754
G01 X35.8980 Y13.9887
G01 X35.8884 Y13.9906
G01 X35.8350 Y13.9984
G01 X35.7786 Y14.0012
G01 X35.4899 Y14.0013
G01 X35.4899 Y14.8560
G01 X35.5396 Y14.8560
G01 X35.5396 Y14.5060
G01 X35.5399 Y14.4986
G01 X35.5407 Y14.4913
G01 X35.5426 Y14.4817
G01 X35.5464 Y14.4700
G01 X35.5515 Y14.4589
G01 X35.5565 Y14.4504
G01 X35.5623 Y14.4426
G01 X35.5707 Y14.4336
G01 X35.5801 Y14.4257
