(G-CODE GENERATED BY FLATCAM v8.993 - www.flatcam.org - Version Date: 2020/06/05)

(Name: 1-cortegral)
(Type: G-code from Geometry)
(Units: MM)

(Created on lunes, 09 agosto 2021 at 16:51)

(This preprocessor is the default preprocessor used by FlatCAM.)
(It is made to work with MACH3 compatible motion controllers.)

(TOOL DIAMETER: 6.0 mm)
(Feedrate_XY: 120.0 mm/min)
(Feedrate_Z: 60.0 mm/min)
(Feedrate rapids 1500.0 mm/min)

(Z_Cut: -1.8 mm)
(DepthPerCut: 0.6 mm <=>3 passes)
(Z_Move: 2.0 mm)
(Z Start: None mm)
(Z End: 15.0 mm)
(Steps per circle: 64)
(Preprocessor Geometry: default)

(X range:   -3.0864 ...   57.5141  mm)
(Y range:   -3.0534 ...   82.5475  mm)

(Spindle Speed: None RPM)
G21
G90
G94



G01 F120.00
G00 Z2.0000

M03
G00 X23.8138 Y-3.0534
G01 F60.00
G01 Z-0.6000
G01 F120.00
G01 X0.0136 Y-3.0534
G01 X-0.2903 Y-3.0385
G01 X-0.5912 Y-2.9938
G01 X-0.8863 Y-2.9199
G01 X-1.1727 Y-2.8174
G01 X-1.4477 Y-2.6874
G01 X-1.7087 Y-2.5310
G01 X-1.9530 Y-2.3497
G01 X-2.1784 Y-2.1454
G01 X-2.3827 Y-1.9200
G01 X-2.5640 Y-1.6757
G01 X-2.7204 Y-1.4147
G01 X-2.8504 Y-1.1397
G01 X-2.9529 Y-0.8533
G01 X-3.0268 Y-0.5582
G01 X-3.0715 Y-0.2573
G01 X-3.0864 Y0.0466
G01 X-3.0864 Y36.3471
G00 X-3.0864 Y36.3471
G01 F60.00
G01 Z-1.2000
G01 F120.00
G01 X-3.0864 Y0.0466
G01 X-3.0715 Y-0.2573
G01 X-3.0268 Y-0.5582
G01 X-2.9529 Y-0.8533
G01 X-2.8504 Y-1.1397
G01 X-2.7204 Y-1.4147
G01 X-2.5640 Y-1.6757
G01 X-2.3827 Y-1.9200
G01 X-2.1784 Y-2.1454
G01 X-1.9530 Y-2.3497
G01 X-1.7087 Y-2.5310
G01 X-1.4477 Y-2.6874
G01 X-1.1727 Y-2.8174
G01 X-0.8863 Y-2.9199
G01 X-0.5912 Y-2.9938
G01 X-0.2903 Y-3.0385
G01 X0.0136 Y-3.0534
G01 X23.8138 Y-3.0534
G00 X23.8138 Y-3.0534
G01 F60.00
G01 Z-1.8000
G01 F120.00
G01 X0.0136 Y-3.0534
G01 X-0.2903 Y-3.0385
G01 X-0.5912 Y-2.9938
G01 X-0.8863 Y-2.9199
G01 X-1.1727 Y-2.8174
G01 X-1.4477 Y-2.6874
G01 X-1.7087 Y-2.5310
G01 X-1.9530 Y-2.3497
G01 X-2.1784 Y-2.1454
G01 X-2.3827 Y-1.9200
G01 X-2.5640 Y-1.6757
G01 X-2.7204 Y-1.4147
G01 X-2.8504 Y-1.1397
G01 X-2.9529 Y-0.8533
G01 X-3.0268 Y-0.5582
G01 X-3.0715 Y-0.2573
G01 X-3.0864 Y0.0466
G01 X-3.0864 Y36.3471
G00 Z2.0000
G00 X-3.0864 Y43.3471
G01 F60.00
G01 Z-0.6000
G01 F120.00
G01 X-3.0864 Y79.4475
G01 X-3.0715 Y79.7514
G01 X-3.0268 Y80.0523
G01 X-2.9529 Y80.3474
G01 X-2.8504 Y80.6339
G01 X-2.7204 Y80.9089
G01 X-2.5640 Y81.1698
G01 X-2.3827 Y81.4142
G01 X-2.1784 Y81.6396
G01 X-1.9530 Y81.8439
G01 X-1.7087 Y82.0251
G01 X-1.4477 Y82.1815
G01 X-1.1727 Y82.3116
G01 X-0.8863 Y82.4141
G01 X-0.5912 Y82.4880
G01 X-0.2903 Y82.5326
G01 X0.0136 Y82.5475
G01 X23.8138 Y82.5475
G00 X23.8138 Y82.5475
G01 F60.00
G01 Z-1.2000
G01 F120.00
G01 X0.0136 Y82.5475
G01 X-0.2903 Y82.5326
G01 X-0.5912 Y82.4880
G01 X-0.8863 Y82.4141
G01 X-1.1727 Y82.3116
G01 X-1.4477 Y82.1815
G01 X-1.7087 Y82.0251
G01 X-1.9530 Y81.8439
G01 X-2.1784 Y81.6396
G01 X-2.3827 Y81.4142
G01 X-2.5640 Y81.1698
G01 X-2.7204 Y80.9089
G01 X-2.8504 Y80.6339
G01 X-2.9529 Y80.3474
G01 X-3.0268 Y80.0523
G01 X-3.0715 Y79.7514
G01 X-3.0864 Y79.4475
G01 X-3.0864 Y43.3471
G00 X-3.0864 Y43.3471
G01 F60.00
G01 Z-1.8000
G01 F120.00
G01 X-3.0864 Y79.4475
G01 X-3.0715 Y79.7514
G01 X-3.0268 Y80.0523
G01 X-2.9529 Y80.3474
G01 X-2.8504 Y80.6339
G01 X-2.7204 Y80.9089
G01 X-2.5640 Y81.1698
G01 X-2.3827 Y81.4142
G01 X-2.1784 Y81.6396
G01 X-1.9530 Y81.8439
G01 X-1.7087 Y82.0251
G01 X-1.4477 Y82.1815
G01 X-1.1727 Y82.3116
G01 X-0.8863 Y82.4141
G01 X-0.5912 Y82.4880
G01 X-0.2903 Y82.5326
G01 X0.0136 Y82.5475
G01 X23.8138 Y82.5475
G00 Z2.0000
G00 X30.8138 Y82.5475
G01 F60.00
G01 Z-0.6000
G01 F120.00
G01 X54.4141 Y82.5475
G01 X54.7179 Y82.5326
G01 X55.0188 Y82.4880
G01 X55.3139 Y82.4141
G01 X55.6004 Y82.3116
G01 X55.8754 Y82.1815
G01 X56.1363 Y82.0251
G01 X56.3807 Y81.8439
G01 X56.6061 Y81.6396
G01 X56.8104 Y81.4142
G01 X56.9916 Y81.1698
G01 X57.1480 Y80.9089
G01 X57.2781 Y80.6339
G01 X57.3806 Y80.3474
G01 X57.4545 Y80.0523
G01 X57.4991 Y79.7514
G01 X57.5141 Y79.4475
G01 X57.5141 Y43.3471
G00 X57.5141 Y43.3471
G01 F60.00
G01 Z-1.2000
G01 F120.00
G01 X57.5141 Y79.4475
G01 X57.4991 Y79.7514
G01 X57.4545 Y80.0523
G01 X57.3806 Y80.3474
G01 X57.2781 Y80.6339
G01 X57.1480 Y80.9089
G01 X56.9916 Y81.1698
G01 X56.8104 Y81.4142
G01 X56.6061 Y81.6396
G01 X56.3807 Y81.8439
G01 X56.1363 Y82.0251
G01 X55.8754 Y82.1815
G01 X55.6004 Y82.3116
G01 X55.3139 Y82.4141
G01 X55.0188 Y82.4880
G01 X54.7179 Y82.5326
G01 X54.4141 Y82.5475
G01 X30.8138 Y82.5475
G00 X30.8138 Y82.5475
G01 F60.00
G01 Z-1.8000
G01 F120.00
G01 X54.4141 Y82.5475
G01 X54.7179 Y82.5326
G01 X55.0188 Y82.4880
G01 X55.3139 Y82.4141
G01 X55.6004 Y82.3116
G01 X55.8754 Y82.1815
G01 X56.1363 Y82.0251
G01 X56.3807 Y81.8439
G01 X56.6061 Y81.6396
G01 X56.8104 Y81.4142
G01 X56.9916 Y81.1698
G01 X57.1480 Y80.9089
G01 X57.2781 Y80.6339
G01 X57.3806 Y80.3474
G01 X57.4545 Y80.0523
G01 X57.4991 Y79.7514
G01 X57.5141 Y79.4475
G01 X57.5141 Y43.3471
G00 Z2.0000
G00 X57.5141 Y36.3471
G01 F60.00
G01 Z-0.6000
G01 F120.00
G01 X57.5141 Y0.0466
G01 X57.4991 Y-0.2573
G01 X57.4545 Y-0.5582
G01 X57.3806 Y-0.8533
G01 X57.2781 Y-1.1397
G01 X57.1480 Y-1.4147
G01 X56.9916 Y-1.6757
G01 X56.8104 Y-1.9200
G01 X56.6061 Y-2.1454
G01 X56.3807 Y-2.3497
G01 X56.1363 Y-2.5310
G01 X55.8754 Y-2.6874
G01 X55.6004 Y-2.8174
G01 X55.3139 Y-2.9199
G01 X55.0188 Y-2.9938
G01 X54.7179 Y-3.0385
G01 X54.4141 Y-3.0534
G00 X54.4141 Y-3.0534
G01 F60.00
G01 Z-1.2000
G01 F120.00
G01 X54.7179 Y-3.0385
G01 X55.0188 Y-2.9938
G01 X55.3139 Y-2.9199
G01 X55.6004 Y-2.8174
G01 X55.8754 Y-2.6874
G01 X56.1363 Y-2.5310
G01 X56.3807 Y-2.3497
G01 X56.6061 Y-2.1454
G01 X56.8104 Y-1.9200
G01 X56.9916 Y-1.6757
G01 X57.1480 Y-1.4147
G01 X57.2781 Y-1.1397
G01 X57.3806 Y-0.8533
G01 X57.4545 Y-0.5582
G01 X57.4991 Y-0.2573
G01 X57.5141 Y0.0466
G01 X57.5141 Y36.3471
G00 X57.5141 Y36.3471
G01 F60.00
G01 Z-1.8000
G01 F120.00
G01 X57.5141 Y0.0466
G01 X57.4991 Y-0.2573
G01 X57.4545 Y-0.5582
G01 X57.3806 Y-0.8533
G01 X57.2781 Y-1.1397
G01 X57.1480 Y-1.4147
G01 X56.9916 Y-1.6757
G01 X56.8104 Y-1.9200
G01 X56.6061 Y-2.1454
G01 X56.3807 Y-2.3497
G01 X56.1363 Y-2.5310
G01 X55.8754 Y-2.6874
G01 X55.6004 Y-2.8174
G01 X55.3139 Y-2.9199
G01 X55.0188 Y-2.9938
G01 X54.7179 Y-3.0385
G01 X54.4141 Y-3.0534
G00 Z2.0000
G00 X54.4141 Y-3.0534
G01 F60.00
G01 Z-0.6000
G01 F120.00
G01 X30.8138 Y-3.0534
G00 X30.8138 Y-3.0534
G01 F60.00
G01 Z-1.2000
G01 F120.00
G01 X54.4141 Y-3.0534
G00 X54.4141 Y-3.0534
G01 F60.00
G01 Z-1.8000
G01 F120.00
G01 X30.8138 Y-3.0534
G00 Z2.0000
M05
G00 Z2.0000
G00 Z15.00

