(G-CODE GENERATED BY FLATCAM v8.993 - www.flatcam.org - Version Date: 2020/06/05)

(Name: 2-bedflat)
(Type: G-code from Geometry)
(Units: MM)

(Created on lunes, 09 agosto 2021 at 16:53)

(This preprocessor is the default preprocessor used by FlatCAM.)
(It is made to work with MACH3 compatible motion controllers.)

(TOOL DIAMETER: 6.0 mm)
(Feedrate_XY: 120.0 mm/min)
(Feedrate_Z: 60.0 mm/min)
(Feedrate rapids 1500.0 mm/min)

(Z_Cut: -1.0 mm)
(Z_Move: 2.0 mm)
(Z Start: None mm)
(Z End: 15.0 mm)
(Steps per circle: 64)
(Preprocessor Geometry: default)

(X range:    1.0136 ...   53.4141  mm)
(Y range:    1.0466 ...   78.4475  mm)

(Spindle Speed: None RPM)
G21
G90
G94



G01 F120.00
G00 Z2.0000

M03
G00 X49.0136 Y1.0466
G01 F60.00
G01 Z-1.0000
G01 F120.00
G01 X49.0136 Y78.4475
G01 X44.2136 Y78.4475
G01 X44.2136 Y1.0466
G01 X39.4136 Y1.0466
G01 X39.4136 Y78.4475
G01 X34.6136 Y78.4475
G01 X34.6136 Y1.0466
G01 X29.8136 Y1.0466
G01 X29.8136 Y78.4475
G01 X25.0136 Y78.4475
G01 X25.0136 Y1.0466
G01 X20.2136 Y1.0466
G01 X20.2136 Y78.4475
G01 X15.4136 Y78.4475
G01 X15.4136 Y1.0466
G01 X10.6136 Y1.0466
G01 X10.6136 Y78.4475
G01 X5.8136 Y78.4475
G01 X5.8136 Y1.0466
G01 X1.0136 Y1.0466
G01 X53.4141 Y1.0466
G01 X53.4141 Y78.4475
G01 X1.0136 Y78.4475
G01 X1.0136 Y1.0466
G01 X1.0136 Y78.4475
G00 Z2.0000
M05
G00 Z2.0000
G00 Z15.00

