(G-CODE GENERATED BY FLATCAM v8.993 - www.flatcam.org - Version Date: 2020/06/05)

(Name: 4-agu08)
(Type: G-code from Excellon)
(Units: MM)

(Created on lunes, 09 agosto 2021 at 16:57)

(This preprocessor is the default preprocessor used by FlatCAM.)
(It is made to work with MACH3 compatible motion controllers.)


(TOOLS DIAMETER: )
(Tool: 1 -> Dia: 2.1)
(Tool: 2 -> Dia: 3.2)
(Tool: 3 -> Dia: 0.8)
(Tool: 4 -> Dia: 0.9)
(Tool: 5 -> Dia: 0.95)
(Tool: 6 -> Dia: 1.0)
(Tool: 7 -> Dia: 3.0)

(FEEDRATE Z: )
(Tool: 1 -> Feedrate: 300)
(Tool: 2 -> Feedrate: 300)
(Tool: 3 -> Feedrate: 300)
(Tool: 4 -> Feedrate: 300)
(Tool: 5 -> Feedrate: 300)
(Tool: 6 -> Feedrate: 300)
(Tool: 7 -> Feedrate: 300)

(FEEDRATE RAPIDS: )
(Tool: 1 -> Feedrate Rapids: 1500)
(Tool: 2 -> Feedrate Rapids: 1500)
(Tool: 3 -> Feedrate Rapids: 1500)
(Tool: 4 -> Feedrate Rapids: 1500)
(Tool: 5 -> Feedrate Rapids: 1500)
(Tool: 6 -> Feedrate Rapids: 1500)
(Tool: 7 -> Feedrate Rapids: 1500)

(Z_CUT: )
(Tool: 1 -> Z_Cut: -1.9)
(Tool: 2 -> Z_Cut: -1.7)
(Tool: 3 -> Z_Cut: -1.9)
(Tool: 4 -> Z_Cut: -1.9)
(Tool: 5 -> Z_Cut: -1.9)
(Tool: 6 -> Z_Cut: -1.9)
(Tool: 7 -> Z_Cut: -1.7)

(Tools Offset: )
(Tool: 3 -> Offset Z: -0.0)
(Tool: 4 -> Offset Z: -0.0)
(Tool: 5 -> Offset Z: -0.0)
(Tool: 6 -> Offset Z: -0.0)
(Tool: 1 -> Offset Z: -0.0)

(Z_MOVE: )
(Tool: 1 -> Z_Move: 2)
(Tool: 2 -> Z_Move: 2)
(Tool: 3 -> Z_Move: 2)
(Tool: 4 -> Z_Move: 2)
(Tool: 5 -> Z_Move: 2)
(Tool: 6 -> Z_Move: 2)
(Tool: 7 -> Z_Move: 2)

(Z Start: None mm)
(Z End: 2.0 mm)
(Steps per circle: 64)
(Preprocessor Excellon: default)

(X range:    1.3276 ...   53.2116  mm)
(Y range:    0.9980 ...   78.3505  mm)

(Spindle Speed: None RPM)
G21
G90
G94



G00 Z2.0000

G01 F300.00
M03
G00 X51.6536 Y26.9080
G01 Z-1.9000
G01 Z0
G00 Z2.0000
G00 X51.6536 Y24.9080
G01 Z-1.9000
G01 Z0
G00 Z2.0000
G00 X44.7956 Y22.8760
G01 Z-1.9000
G01 Z0
G00 Z2.0000
G00 X41.7476 Y20.3360
G01 Z-1.9000
G01 Z0
G00 Z2.0000
G00 X44.7956 Y15.2560
G01 Z-1.9000
G01 Z0
G00 Z2.0000
G00 X41.7476 Y15.3360
G01 Z-1.9000
G01 Z0
G00 Z2.0000
G00 X38.6996 Y14.4940
G01 Z-1.9000
G01 Z0
G00 Z2.0000
G00 X42.7636 Y11.7000
G01 Z-1.9000
G01 Z0
G00 Z2.0000
G00 X40.7636 Y11.7000
G01 Z-1.9000
G01 Z0
G00 Z2.0000
G00 X39.3516 Y7.5260
G01 Z-1.9000
G01 Z0
G00 Z2.0000
G00 X37.9376 Y6.1120
G01 Z-1.9000
G01 Z0
G00 Z2.0000
G00 X34.3816 Y3.5720
G01 Z-1.9000
G01 Z0
G00 Z2.0000
G00 X26.7616 Y3.5720
G01 Z-1.9000
G01 Z0
G00 Z2.0000
G00 X17.4336 Y7.4780
G01 Z-1.9000
G01 Z0
G00 Z2.0000
G00 X15.6336 Y7.4780
G01 Z-1.9000
G01 Z0
G00 Z2.0000
G00 X13.8336 Y7.4780
G01 Z-1.9000
G01 Z0
G00 Z2.0000
G00 X13.8336 Y9.2780
G01 Z-1.9000
G01 Z0
G00 Z2.0000
G00 X13.8336 Y11.0780
G01 Z-1.9000
G01 Z0
G00 Z2.0000
G00 X15.6336 Y11.0780
G01 Z-1.9000
G01 Z0
G00 Z2.0000
G00 X15.6336 Y9.2780
G01 Z-1.9000
G01 Z0
G00 Z2.0000
G00 X17.4336 Y9.2780
G01 Z-1.9000
G01 Z0
G00 Z2.0000
G00 X17.4336 Y11.0780
G01 Z-1.9000
G01 Z0
G00 Z2.0000
G00 X27.7776 Y23.4400
G01 Z-1.9000
G01 Z0
G00 Z2.0000
G00 X27.7776 Y26.9400
G01 Z-1.9000
G01 Z0
G00 Z2.0000
G00 X19.9036 Y31.0040
G01 Z-1.9000
G01 Z0
G00 Z2.0000
G00 X16.4036 Y31.0040
G01 Z-1.9000
G01 Z0
G00 Z2.0000
G00 X14.8236 Y26.6860
G01 Z-1.9000
G01 Z0
G00 Z2.0000
G00 X7.2036 Y26.6860
G01 Z-1.9000
G01 Z0
G00 Z2.0000
G00 X9.0376 Y35.3220
G01 Z-1.9000
G01 Z0
G00 Z2.0000
G00 X12.5376 Y35.3220
G01 Z-1.9000
G01 Z0
G00 Z2.0000
G00 X13.8336 Y47.6785
G01 Z-1.9000
G01 Z0
G00 Z2.0000
G00 X13.8336 Y49.4785
G01 Z-1.9000
G01 Z0
G00 Z2.0000
G00 X13.8336 Y51.2785
G01 Z-1.9000
G01 Z0
G00 Z2.0000
G00 X15.6336 Y51.2785
G01 Z-1.9000
G01 Z0
G00 Z2.0000
G00 X15.6336 Y49.4785
G01 Z-1.9000
G01 Z0
G00 Z2.0000
G00 X15.6336 Y47.6785
G01 Z-1.9000
G01 Z0
G00 Z2.0000
G00 X17.4336 Y47.6785
G01 Z-1.9000
G01 Z0
G00 Z2.0000
G00 X17.4336 Y49.4785
G01 Z-1.9000
G01 Z0
G00 Z2.0000
G00 X17.4336 Y51.2785
G01 Z-1.9000
G01 Z0
G00 Z2.0000
G00 X14.8236 Y66.8865
G01 Z-1.9000
G01 Z0
G00 Z2.0000
G00 X7.2036 Y66.8865
G01 Z-1.9000
G01 Z0
G00 Z2.0000
G00 X9.0376 Y75.5225
G01 Z-1.9000
G01 Z0
G00 Z2.0000
G00 X12.5376 Y75.5225
G01 Z-1.9000
G01 Z0
G00 Z2.0000
G00 X16.4036 Y71.2045
G01 Z-1.9000
G01 Z0
G00 Z2.0000
G00 X19.9036 Y71.2045
G01 Z-1.9000
G01 Z0
G00 Z2.0000
G00 X27.7776 Y67.1405
G01 Z-1.9000
G01 Z0
G00 Z2.0000
G00 X27.7776 Y63.6405
G01 Z-1.9000
G01 Z0
G00 Z2.0000
G00 X26.7616 Y43.7725
G01 Z-1.9000
G01 Z0
G00 Z2.0000
G00 X34.3816 Y43.7725
G01 Z-1.9000
G01 Z0
G00 Z2.0000
G00 X37.9376 Y46.3125
G01 Z-1.9000
G01 Z0
G00 Z2.0000
G00 X39.3516 Y47.7265
G01 Z-1.9000
G01 Z0
G00 Z2.0000
G00 X40.7636 Y51.9005
G01 Z-1.9000
G01 Z0
G00 Z2.0000
G00 X38.6996 Y54.6945
G01 Z-1.9000
G01 Z0
G00 Z2.0000
G00 X41.7476 Y60.5365
G01 Z-1.9000
G01 Z0
G00 Z2.0000
G00 X41.7476 Y63.0765
G01 Z-1.9000
G01 Z0
G00 Z2.0000
G00 X38.6996 Y62.3145
G01 Z-1.9000
G01 Z0
G00 Z2.0000
G00 X36.4136 Y63.1565
G01 Z-1.9000
G01 Z0
G00 Z2.0000
G00 X36.4136 Y68.1565
G01 Z-1.9000
G01 Z0
G00 Z2.0000
G00 X41.7476 Y68.0765
G01 Z-1.9000
G01 Z0
G00 Z2.0000
G00 X44.5416 Y70.4425
G01 Z-1.9000
G01 Z0
G00 Z2.0000
G00 X47.5896 Y73.7445
G01 Z-1.9000
G01 Z0
G00 Z2.0000
G00 X47.5896 Y77.2445
G01 Z-1.9000
G01 Z0
G00 Z2.0000
G00 X51.6536 Y67.1085
G01 Z-1.9000
G01 Z0
G00 Z2.0000
G00 X51.6536 Y65.1085
G01 Z-1.9000
G01 Z0
G00 Z2.0000
G00 X44.5416 Y65.4425
G01 Z-1.9000
G01 Z0
G00 Z2.0000
G00 X44.7956 Y63.0765
G01 Z-1.9000
G01 Z0
G00 Z2.0000
G00 X44.7956 Y55.4565
G01 Z-1.9000
G01 Z0
G00 Z2.0000
G00 X41.7476 Y55.5365
G01 Z-1.9000
G01 Z0
G00 Z2.0000
G00 X42.7636 Y51.9005
G01 Z-1.9000
G01 Z0
G00 Z2.0000
G00 X47.5896 Y37.0440
G01 Z-1.9000
G01 Z0
G00 Z2.0000
G00 X47.5896 Y33.5440
G01 Z-1.9000
G01 Z0
G00 Z2.0000
G00 X44.5416 Y30.2420
G01 Z-1.9000
G01 Z0
G00 Z2.0000
G00 X41.7476 Y27.8760
G01 Z-1.9000
G01 Z0
G00 Z2.0000
G00 X36.4136 Y27.9560
G01 Z-1.9000
G01 Z0
G00 Z2.0000
G00 X36.4136 Y22.9560
G01 Z-1.9000
G01 Z0
G00 Z2.0000
G00 X38.6996 Y22.1140
G01 Z-1.9000
G01 Z0
G00 Z2.0000
G00 X41.7476 Y22.8760
G01 Z-1.9000
G01 Z0
G00 Z2.0000
G00 X44.5416 Y25.2420
G01 Z-1.9000
G01 Z0
G00 Z2.0000
G01 F300.00
M03
G00 X13.2996 Y28.9720
G01 Z-1.9000
G01 Z0
G00 Z2.0000
G00 X10.7596 Y28.9720
G01 Z-1.9000
G01 Z0
G00 Z2.0000
G00 X10.7596 Y69.1725
G01 Z-1.9000
G01 Z0
G00 Z2.0000
G00 X13.2996 Y69.1725
G01 Z-1.9000
G01 Z0
G00 Z2.0000
G01 F300.00
M03
G00 X2.5046 Y36.5920
G01 Z-1.9000
G01 Z0
G00 Z2.0000
G00 X2.5046 Y34.0920
G01 Z-1.9000
G01 Z0
G00 Z2.0000
G00 X2.5046 Y31.5920
G01 Z-1.9000
G01 Z0
G00 Z2.0000
G00 X2.5046 Y29.0920
G01 Z-1.9000
G01 Z0
G00 Z2.0000
G00 X2.5046 Y76.7925
G01 Z-1.9000
G01 Z0
G00 Z2.0000
G00 X2.5046 Y74.2925
G01 Z-1.9000
G01 Z0
G00 Z2.0000
G00 X2.5046 Y71.7925
G01 Z-1.9000
G01 Z0
G00 Z2.0000
G00 X2.5046 Y69.2925
G01 Z-1.9000
G01 Z0
G00 Z2.0000
G01 F300.00
M03
G00 X41.4936 Y30.2420
G01 Z-1.9000
G01 Z0
G00 Z2.0000
G00 X40.2236 Y35.3220
G01 Z-1.9000
G01 Z0
G00 Z2.0000
G00 X37.6836 Y35.3220
G01 Z-1.9000
G01 Z0
G00 Z2.0000
G00 X35.1436 Y35.3220
G01 Z-1.9000
G01 Z0
G00 Z2.0000
G00 X32.6036 Y35.3220
G01 Z-1.9000
G01 Z0
G00 Z2.0000
G00 X30.0636 Y35.3220
G01 Z-1.9000
G01 Z0
G00 Z2.0000
G00 X26.2536 Y56.9805
G01 Z-1.9000
G01 Z0
G00 Z2.0000
G00 X26.2536 Y59.5205
G01 Z-1.9000
G01 Z0
G00 Z2.0000
G00 X26.2536 Y70.4425
G01 Z-1.9000
G01 Z0
G00 Z2.0000
G00 X28.7936 Y70.4425
G01 Z-1.9000
G01 Z0
G00 Z2.0000
G00 X31.3336 Y70.4425
G01 Z-1.9000
G01 Z0
G00 Z2.0000
G00 X33.8736 Y70.4425
G01 Z-1.9000
G01 Z0
G00 Z2.0000
G00 X36.4136 Y70.4425
G01 Z-1.9000
G01 Z0
G00 Z2.0000
G00 X38.9536 Y70.4425
G01 Z-1.9000
G01 Z0
G00 Z2.0000
G00 X41.4936 Y70.4425
G01 Z-1.9000
G01 Z0
G00 Z2.0000
G00 X40.2236 Y75.5225
G01 Z-1.9000
G01 Z0
G00 Z2.0000
G00 X37.6836 Y75.5225
G01 Z-1.9000
G01 Z0
G00 Z2.0000
G00 X35.1436 Y75.5225
G01 Z-1.9000
G01 Z0
G00 Z2.0000
G00 X32.6036 Y75.5225
G01 Z-1.9000
G01 Z0
G00 Z2.0000
G00 X30.0636 Y75.5225
G01 Z-1.9000
G01 Z0
G00 Z2.0000
G00 X27.5236 Y75.5225
G01 Z-1.9000
G01 Z0
G00 Z2.0000
G00 X24.9836 Y75.5225
G01 Z-1.9000
G01 Z0
G00 Z2.0000
G00 X23.7136 Y70.4425
G01 Z-1.9000
G01 Z0
G00 Z2.0000
G00 X1.8696 Y61.0445
G01 Z-1.9000
G01 Z0
G00 Z2.0000
G00 X1.8696 Y58.5045
G01 Z-1.9000
G01 Z0
G00 Z2.0000
G00 X1.8696 Y55.9645
G01 Z-1.9000
G01 Z0
G00 Z2.0000
G00 X1.8696 Y53.4245
G01 Z-1.9000
G01 Z0
G00 Z2.0000
G00 X1.8696 Y50.8845
G01 Z-1.9000
G01 Z0
G00 Z2.0000
G00 X1.8696 Y48.3445
G01 Z-1.9000
G01 Z0
G00 Z2.0000
G00 X1.8696 Y45.8045
G01 Z-1.9000
G01 Z0
G00 Z2.0000
G00 X1.8696 Y43.2645
G01 Z-1.9000
G01 Z0
G00 Z2.0000
G00 X1.8696 Y20.8440
G01 Z-1.9000
G01 Z0
G00 Z2.0000
G00 X1.8696 Y18.3040
G01 Z-1.9000
G01 Z0
G00 Z2.0000
G00 X1.8696 Y15.7640
G01 Z-1.9000
G01 Z0
G00 Z2.0000
G00 X1.8696 Y13.2240
G01 Z-1.9000
G01 Z0
G00 Z2.0000
G00 X1.8696 Y10.6840
G01 Z-1.9000
G01 Z0
G00 Z2.0000
G00 X1.8696 Y8.1440
G01 Z-1.9000
G01 Z0
G00 Z2.0000
G00 X1.8696 Y5.6040
G01 Z-1.9000
G01 Z0
G00 Z2.0000
G00 X1.8696 Y3.0640
G01 Z-1.9000
G01 Z0
G00 Z2.0000
G00 X26.2536 Y16.7800
G01 Z-1.9000
G01 Z0
G00 Z2.0000
G00 X26.2536 Y19.3200
G01 Z-1.9000
G01 Z0
G00 Z2.0000
G00 X26.2536 Y30.2420
G01 Z-1.9000
G01 Z0
G00 Z2.0000
G00 X23.7136 Y30.2420
G01 Z-1.9000
G01 Z0
G00 Z2.0000
G00 X24.9836 Y35.3220
G01 Z-1.9000
G01 Z0
G00 Z2.0000
G00 X27.5236 Y35.3220
G01 Z-1.9000
G01 Z0
G00 Z2.0000
G00 X28.7936 Y30.2420
G01 Z-1.9000
G01 Z0
G00 Z2.0000
G00 X31.3336 Y30.2420
G01 Z-1.9000
G01 Z0
G00 Z2.0000
G00 X33.8736 Y30.2420
G01 Z-1.9000
G01 Z0
G00 Z2.0000
G00 X36.4136 Y30.2420
G01 Z-1.9000
G01 Z0
G00 Z2.0000
G00 X38.9536 Y30.2420
G01 Z-1.9000
G01 Z0
G00 Z2.0000
G01 F300.00
M03
G00 X52.1616 Y31.0040
G01 Z-1.9000
G01 Z0
G00 Z2.0000
G00 X40.4776 Y42.2485
G01 Z-1.9000
G01 Z0
G00 Z2.0000
G00 X52.1616 Y71.2045
G01 Z-1.9000
G01 Z0
G00 Z2.0000
G00 X17.1096 Y77.3005
G01 Z-1.9000
G01 Z0
G00 Z2.0000
G00 X2.3776 Y64.6005
G01 Z-1.9000
G01 Z0
G00 Z2.0000
G00 X17.1096 Y37.1000
G01 Z-1.9000
G01 Z0
G00 Z2.0000
G00 X2.3776 Y24.4000
G01 Z-1.9000
G01 Z0
G00 Z2.0000
G00 X40.4776 Y2.0480
G01 Z-1.9000
G01 Z0
G00 Z2.0000
M05
G00 Z2.00

