(G-CODE GENERATED BY FLATCAM v8.993 - www.flatcam.org - Version Date: 2020/06/05)

(Name: 5-agu30)
(Type: G-code from Excellon)
(Units: MM)

(Created on lunes, 09 agosto 2021 at 16:58)

(This preprocessor is the default preprocessor used by FlatCAM.)
(It is made to work with MACH3 compatible motion controllers.)


(TOOLS DIAMETER: )
(Tool: 1 -> Dia: 2.1)
(Tool: 2 -> Dia: 3.2)
(Tool: 3 -> Dia: 0.8)
(Tool: 4 -> Dia: 0.9)
(Tool: 5 -> Dia: 0.95)
(Tool: 6 -> Dia: 1.0)
(Tool: 7 -> Dia: 3.0)

(FEEDRATE Z: )
(Tool: 1 -> Feedrate: 300)
(Tool: 2 -> Feedrate: 300)
(Tool: 3 -> Feedrate: 300)
(Tool: 4 -> Feedrate: 300)
(Tool: 5 -> Feedrate: 300)
(Tool: 6 -> Feedrate: 300)
(Tool: 7 -> Feedrate: 300)

(FEEDRATE RAPIDS: )
(Tool: 1 -> Feedrate Rapids: 1500)
(Tool: 2 -> Feedrate Rapids: 1500)
(Tool: 3 -> Feedrate Rapids: 1500)
(Tool: 4 -> Feedrate Rapids: 1500)
(Tool: 5 -> Feedrate Rapids: 1500)
(Tool: 6 -> Feedrate Rapids: 1500)
(Tool: 7 -> Feedrate Rapids: 1500)

(Z_CUT: )
(Tool: 1 -> Z_Cut: -1.9)
(Tool: 2 -> Z_Cut: -1.9)
(Tool: 3 -> Z_Cut: -1.9)
(Tool: 4 -> Z_Cut: -1.9)
(Tool: 5 -> Z_Cut: -1.9)
(Tool: 6 -> Z_Cut: -1.9)
(Tool: 7 -> Z_Cut: -1.9)

(Tools Offset: )
(Tool: 7 -> Offset Z: -0.0)
(Tool: 2 -> Offset Z: -0.0)

(Z_MOVE: )
(Tool: 1 -> Z_Move: 2)
(Tool: 2 -> Z_Move: 2)
(Tool: 3 -> Z_Move: 2)
(Tool: 4 -> Z_Move: 2)
(Tool: 5 -> Z_Move: 2)
(Tool: 6 -> Z_Move: 2)
(Tool: 7 -> Z_Move: 2)

(Z Start: None mm)
(Z End: 2.0 mm)
(Steps per circle: 64)
(Preprocessor Excellon: default)

(X range:    1.3276 ...   53.2116  mm)
(Y range:    0.9980 ...   78.3505  mm)

(Spindle Speed: None RPM)
G21
G90
G94



G00 Z2.0000

G01 F300.00
M03
G00 X48.6056 Y10.0720
G01 Z-1.9000
G01 Z0
G00 Z2.0000
G00 X48.6056 Y4.0720
G01 Z-1.9000
G01 Z0
G00 Z2.0000
G00 X43.9056 Y7.0720
G01 Z-1.9000
G01 Z0
G00 Z2.0000
G00 X48.6056 Y44.2725
G01 Z-1.9000
G01 Z0
G00 Z2.0000
G00 X48.6056 Y50.2725
G01 Z-1.9000
G01 Z0
G00 Z2.0000
G00 X43.9056 Y47.2725
G01 Z-1.9000
G01 Z0
G00 Z2.0000
G01 F300.00
M03
G00 X33.3656 Y20.8440
G01 Z-1.9000
G01 Z0
G00 Z2.0000
G00 X33.3656 Y61.0445
G01 Z-1.9000
G01 Z0
G00 Z2.0000
M05
G00 Z2.00

